(1)
(T1  D=2. CR=0. - ZMIN=-10.162 - FLAT END MILL)
G90 G94 G91.1 G40 G49 G17
G21
G28 G91 Z0.
G90

(POCKET2)
M5
M9
T1 M6
S5000 M3
G54
M8
G0 X32.383 Y0.5
G43 Z15. H1
Z2.
G1 Z1.25 F333.
G18 G2 X32.581 Z1.05 I0.2 K0.
G1 X39.955 Z1.004
X39.996 Y0.496
X39.999 Y-0.474 Z0.998
X39.996 Y-0.496
X39.982 Y-0.499
X-39.982 Z0.504
X-39.996 Y-0.496
X-39.999 Y0.474 Z0.498
X-39.996 Y0.496
X-39.982 Y0.499
X39.955 Y0.5 Z0.004
X39.996 Y0.496
X39.999 Y-0.474 Z-0.002
X39.996 Y-0.496
X39.982 Y-0.499
X-39.982 Z-0.496
X-39.996 Y-0.496
X-39.999 Y0.474 Z-0.502
X-39.996 Y0.496
X-39.982 Y0.499
X39.955 Y0.5 Z-0.996
X39.996 Y0.496
X39.998 Y-0.188 Z-1.
X39.999 Y-0.474 F1000.
X39.996 Y-0.496
X39.982 Y-0.499
X-39.982
X-39.996 Y-0.496
X-39.999 Y0.474
X-39.996 Y0.496
X-39.982 Y0.499
X39.955 Y0.5
X39.996 Y0.496
X39.998 Y-0.188
G17 G2 X39.984 Y-0.262 Z-0.985 I-0.2 J-0.001
X39.951 Y-0.318 Z-0.941 I-0.186 J0.074
X39.919 Y-0.347 Z-0.877 I-0.152 J0.129
X39.907 Y-0.356 Z-0.8 I-0.121 J0.159
G0 Z5.
X32.383 Y0.5
Z0.25
G18 G2 X32.581 Z0.05 I0.2 K0. F333.
G1 X39.955 Z0.004
X39.996 Y0.496
X39.999 Y-0.474 Z-0.002
X39.996 Y-0.496
X39.982 Y-0.499
X-39.982 Z-0.496
X-39.996 Y-0.496
X-39.999 Y0.474 Z-0.502
X-39.996 Y0.496
X-39.982 Y0.499
X39.955 Y0.5 Z-0.996
X39.996 Y0.496
X39.999 Y-0.474 Z-1.002
X39.996 Y-0.496
X39.982 Y-0.499
X-39.982 Z-1.496
X-39.996 Y-0.496
X-39.999 Y0.474 Z-1.502
X-39.996 Y0.496
X-39.982 Y0.499
X39.955 Y0.5 Z-1.996
X39.996 Y0.496
X39.998 Y-0.188 Z-2.
X39.999 Y-0.474 F1000.
X39.996 Y-0.496
X39.982 Y-0.499
X-39.982
X-39.996 Y-0.496
X-39.999 Y0.474
X-39.996 Y0.496
X-39.982 Y0.499
X39.955 Y0.5
X39.996 Y0.496
X39.998 Y-0.188
G17 G2 X39.984 Y-0.262 Z-1.985 I-0.2 J-0.001
X39.951 Y-0.318 Z-1.941 I-0.186 J0.074
X39.919 Y-0.347 Z-1.877 I-0.152 J0.129
X39.907 Y-0.356 Z-1.8 I-0.121 J0.159
G0 Z5.
X-32.383 Y-0.499
Z2.
G1 Z-0.75 F333.
G18 G3 X-32.581 Z-0.95 I-0.2 K0.
G1 X-39.982 Z-0.996
X-39.996 Y-0.496
X-39.999 Y0.474 Z-1.002
X-39.996 Y0.496
X-39.982 Y0.499
X39.955 Y0.5 Z-1.496
X39.996 Y0.496
X39.999 Y-0.474 Z-1.502
X39.996 Y-0.496
X39.982 Y-0.499
X-39.982 Z-1.996
X-39.996 Y-0.496
X-39.999 Y0.474 Z-2.002
X-39.996 Y0.496
X-39.982 Y0.499
X39.955 Y0.5 Z-2.496
X39.996 Y0.496
X39.998 Y-0.188 Z-2.5
X39.999 Y-0.474 F1000.
X39.996 Y-0.496
X39.982 Y-0.499
X-39.982
X-39.996 Y-0.496
X-39.999 Y0.474
X-39.996 Y0.496
X-39.982 Y0.499
X39.955 Y0.5
X39.996 Y0.496
X39.998 Y-0.188
G17 G2 X39.984 Y-0.262 Z-2.485 I-0.2 J-0.001
X39.951 Y-0.318 Z-2.441 I-0.186 J0.074
X39.919 Y-0.347 Z-2.377 I-0.152 J0.129
X39.907 Y-0.356 Z-2.3 I-0.121 J0.159
G0 Z5.
X-4.984 Y0.5
G1 Z-1.25 F333.
G18 G3 X-5.182 Z-1.45 I-0.2 K0.
G1 X-8.434 Z-1.483
X-8.429 Y-0.417 Z-1.492
G17 G2 X-8.43 Y-0.449 Z-1.493 I-0.75 J-0.004
G1 X-8.431 Y-0.5
X39.982 Y-0.499 Z-1.983
X39.996 Y-0.496
X39.999 Y-0.474
X39.996 Y0.496 Z-1.993
X39.955 Y0.5
X-8.434 Z-2.483
X-8.429 Y-0.417 Z-2.492
G2 X-8.43 Y-0.449 Z-2.493 I-0.75 J-0.004
G1 X-8.431 Y-0.5
X39.982 Y-0.499 Z-2.983
X39.996 Y-0.496
X39.999 Y-0.474
X39.996 Y0.496 Z-2.993
X39.955 Y0.5
X-8.434 Z-3.483
X-8.429 Y-0.417 Z-3.492
G2 X-8.43 Y-0.449 Z-3.493 I-0.75 J-0.004
G1 X-8.431 Y-0.5
X-7.742 Z-3.5
X39.982 Y-0.499 F1000.
X39.996 Y-0.496
X39.999 Y-0.474
X39.996 Y0.496
X39.955 Y0.5
X-8.434
X-8.429 Y-0.417
G2 X-8.43 Y-0.449 I-0.75 J-0.004
G1 X-8.431 Y-0.5
X-7.742
G3 X-7.667 Y-0.485 Z-3.485 I0. J0.2
X-7.612 Y-0.452 Z-3.441 I-0.075 J0.186
X-7.582 Y-0.42 Z-3.377 I-0.13 J0.152
X-7.573 Y-0.408 Z-3.3 I-0.16 J0.121
G0 Z5.
X-2.685 Y0.5
G1 Z-2.25 F333.
G18 G3 X-2.883 Z-2.45 I-0.2 K0.
G1 X-6.993 Z-2.493
X-6.991 Y0.454
G17 G2 X-6.99 Y0.42 Z-2.494 I-0.749 J-0.033
G1 X-6.992 Y-0.5 Z-2.503
X39.982 Y-0.499 Z-2.993
X39.996 Y-0.496
X39.999 Y-0.474
X39.996 Y0.496 Z-3.003
X39.955 Y0.5 Z-3.004
X-6.993 Z-3.493
X-6.991 Y0.454
G2 X-6.99 Y0.42 Z-3.494 I-0.749 J-0.033
G1 X-6.992 Y-0.5 Z-3.503
X39.982 Y-0.499 Z-3.993
X39.996 Y-0.496
X39.999 Y-0.474
X39.996 Y0.496 Z-4.003
X39.955 Y0.5 Z-4.004
X-6.993 Z-4.493
X-6.991 Y0.454
G2 X-6.99 Y0.42 Z-4.494 I-0.749 J-0.033
G1 X-6.991 Y-0.189 Z-4.5
X-6.992 Y-0.5 F1000.
X39.982 Y-0.499
X39.996 Y-0.496
X39.999 Y-0.474
X39.996 Y0.496
X39.955 Y0.5
X-6.993
X-6.991 Y0.454
G2 X-6.99 Y0.42 I-0.749 J-0.033
G1 X-6.991 Y-0.189
G3 X-6.977 Y-0.264 Z-4.485 I0.2 J0.
X-6.944 Y-0.319 Z-4.441 I0.186 J0.074
X-6.912 Y-0.349 Z-4.377 I0.152 J0.13
X-6.9 Y-0.357 Z-4.3 I0.121 J0.159
G0 Z5.
X-1.389 Y0.499
G1 Z-3.25 F333.
G18 G3 X-1.587 Z-3.45 I-0.2 K0.
G1 X-5.552 Z-3.493
Y-0.5 Z-3.503
X39.982 Y-0.499 Z-3.992
X39.996 Y-0.496 Z-3.993
X39.999 Y-0.474
X39.996 Y0.496 Z-4.003
X39.955 Y0.5 Z-4.004
X-5.552 Y0.499 Z-4.493
Y-0.5 Z-4.503
X39.982 Y-0.499 Z-4.992
X39.996 Y-0.496 Z-4.993
X39.999 Y-0.474
X39.996 Y0.496 Z-5.003
X39.955 Y0.5 Z-5.004
X-5.552 Y0.499 Z-5.493
Y-0.19 Z-5.5
Y-0.5 F1000.
X39.982 Y-0.499
X39.996 Y-0.496
X39.999 Y-0.474
X39.996 Y0.496
X39.955 Y0.5
X-5.552 Y0.499
Y-0.19
G17 G3 X-5.537 Y-0.265 Z-5.485 I0.2 J0.
X-5.504 Y-0.32 Z-5.441 I0.186 J0.075
X-5.472 Y-0.35 Z-5.377 I0.152 J0.13
X-5.46 Y-0.359 Z-5.3 I0.121 J0.16
G0 Z5.
X-1.095 Y0.5
G1 Z-4.25 F333.
G18 G3 X-1.292 Z-4.45 I-0.2 K0.
G1 X-4.113 Z-4.481
Y-0.5 Z-4.492
X39.982 Y-0.499 Z-4.981
X39.996 Y-0.496
X39.999 Y-0.474 Z-4.982
X39.996 Y0.496 Z-4.992
X39.955 Y0.5 Z-4.993
X-4.113 Z-5.481
Y-0.5 Z-5.492
X39.982 Y-0.499 Z-5.981
X39.996 Y-0.496
X39.999 Y-0.474 Z-5.982
X39.996 Y0.496 Z-5.992
X39.955 Y0.5 Z-5.993
X-4.113 Z-6.481
Y-0.5 Z-6.492
X-3.423 Z-6.5
X39.982 Y-0.499 F1000.
X39.996 Y-0.496
X39.999 Y-0.474
X39.996 Y0.496
X39.955 Y0.5
X-4.113
Y-0.5
X-3.423
G17 G3 X-3.348 Y-0.485 Z-6.485 I0. J0.2
X-3.293 Y-0.452 Z-6.441 I-0.075 J0.186
X-3.263 Y-0.42 Z-6.377 I-0.13 J0.152
X-3.255 Y-0.408 Z-6.3 I-0.16 J0.121
G0 Z5.
X1.197 Y0.5
G1 Z-5.25 F333.
G18 G3 X0.999 Z-5.45 I-0.2 K0.
G1 X-2.678 Z-5.492
Y-0.5 Z-5.504
X39.982 Y-0.499 Z-5.992
X39.996 Y-0.496
X39.999 Y-0.474
X39.996 Y0.496 Z-6.004
X39.955 Y0.5
X-2.678 Z-6.492
Y-0.5 Z-6.504
X39.982 Y-0.499 Z-6.992
X39.996 Y-0.496
X39.999 Y-0.474
X39.996 Y0.496 Z-7.004
X39.955 Y0.5
X-2.678 Z-7.492
Y-0.19 Z-7.5
Y-0.5 F1000.
X39.982 Y-0.499
X39.996 Y-0.496
X39.999 Y-0.474
X39.996 Y0.496
X39.955 Y0.5
X-2.678
Y-0.19
G17 G3 X-2.663 Y-0.265 Z-7.485 I0.2 J0.
X-2.63 Y-0.32 Z-7.441 I0.186 J0.075
X-2.598 Y-0.35 Z-7.377 I0.152 J0.13
X-2.586 Y-0.358 Z-7.3 I0.121 J0.16
G0 Z5.
X35.268 Y-0.499
G1 Z-6.25 F333.
G18 G2 X35.465 Z-6.45 I0.2 K0.
G1 X39.982 Z-6.503
X39.996 Y-0.496 Z-6.504
X39.999 Y-0.474
X39.996 Y0.496 Z-6.515
X39.955 Y0.5 Z-6.516
X-1.24 Y0.498 Z-7.004
X-1.234 Y-0.417 Z-7.014
G17 G2 X-1.235 Y-0.449 Z-7.015 I-0.75 J-0.004
G1 X-1.237 Y-0.5
X39.982 Y-0.499 Z-7.503
X39.996 Y-0.496 Z-7.504
X39.999 Y-0.474
X39.996 Y0.496 Z-7.515
X39.955 Y0.5 Z-7.516
X-1.24 Y0.498 Z-8.004
X-1.234 Y-0.417 Z-8.014
G2 X-1.235 Y-0.449 Z-8.015 I-0.75 J-0.004
G1 X-1.237 Y-0.5
X39.688 Y-0.499 Z-8.5
X39.982 F1000.
X39.996 Y-0.496
X39.999 Y-0.474
X39.996 Y0.496
X39.955 Y0.5
X-1.24 Y0.498
X-1.234 Y-0.417
G2 X-1.235 Y-0.449 I-0.75 J-0.004
G1 X-1.237 Y-0.5
X39.688 Y-0.499
G3 X39.763 Y-0.484 Z-8.485 I0. J0.2
X39.818 Y-0.451 Z-8.441 I-0.075 J0.186
X39.848 Y-0.419 Z-8.377 I-0.13 J0.152
X39.857 Y-0.407 Z-8.3 I-0.16 J0.121
G0 Z5.
X3.79 Y0.5
G1 Z-7.25 F333.
G18 G3 X3.593 Z-7.45 I-0.2 K0.
G1 X0.204 Z-7.492
Y-0.5 Z-7.504
X39.982 Y-0.499 Z-7.991
X39.996 Y-0.496 Z-7.992
X39.999 Y-0.474
X39.996 Y0.496 Z-8.004
X39.955 Y0.5
X0.204 Z-8.492
Y-0.5 Z-8.504
X39.982 Y-0.499 Z-8.991
X39.996 Y-0.496 Z-8.992
X39.999 Y-0.474
X39.996 Y0.496 Z-9.004
X39.955 Y0.5
X0.204 Z-9.492
Y-0.19 Z-9.5
Y-0.5 F1000.
X39.982 Y-0.499
X39.996 Y-0.496
X39.999 Y-0.474
X39.996 Y0.496
X39.955 Y0.5
X0.204
Y-0.19
G17 G3 X0.218 Y-0.265 Z-9.485 I0.2 J0.
X0.252 Y-0.32 Z-9.441 I0.186 J0.075
X0.283 Y-0.35 Z-9.377 I0.152 J0.13
X0.296 Y-0.358 Z-9.3 I0.121 J0.16
G0 Z5.
X23.615 Y-0.499
G1 Z-8.25 F333.
G18 G2 X23.813 Z-8.45 I0.2 K0.
G1 X39.982 Z-8.653
X39.996 Y-0.496
X39.999 Y-0.474
X39.996 Y0.496 Z-8.665
X39.955 Y0.5 Z-8.666
X1.137 Z-9.153
X1.142 Y-0.417 Z-9.165
G17 G2 Y-0.449 I-0.75 J-0.004
G1 X1.14 Y-0.5 Z-9.166
X39.982 Y-0.499 Z-9.653
X39.996 Y-0.496
X39.999 Y-0.474
X39.996 Y0.496 Z-9.665
X39.955 Y0.5 Z-9.666
X1.137 Z-10.153
X1.141 Y-0.193 Z-10.162
X1.142 Y-0.417 F1000.
G2 Y-0.449 I-0.75 J-0.004
G1 X1.14 Y-0.5
X39.982 Y-0.499
X39.996 Y-0.496
X39.999 Y-0.474
X39.996 Y0.496
X39.955 Y0.5
X1.137
X1.141 Y-0.193
G3 X1.156 Y-0.267 Z-10.146 I0.2 J0.001
X1.19 Y-0.323 Z-10.103 I0.185 J0.076
X1.221 Y-0.352 Z-10.038 I0.151 J0.131
X1.234 Y-0.361 Z-9.962 I0.12 J0.16
G0 Z5.
X-39.557 Y-0.499
G1 Z-1.25 F333.
X-39.551 Z-1.301
X-39.532 Z-1.348
X-39.501 Z-1.389
X-39.461 Z-1.421
X-39.415 Z-1.442
X-39.364 Z-1.45
X-32.472 Y-0.5 Z-1.691
X-32.474 Y-0.461 Z-1.692
G2 X-32.475 Y-0.419 Z-1.694 I0.749 J0.04
G1 X-32.472 Y0.5 Z-1.726
X-39.982 Y0.499 Z-1.988
X-39.996 Y0.496
X-39.999 Y0.474 Z-1.989
X-39.996 Y-0.496 Z-2.023
X-39.982 Y-0.499 Z-2.024
X-32.472 Y-0.5 Z-2.286
X-32.474 Y-0.461 Z-2.287
G2 X-32.475 Y-0.419 Z-2.289 I0.749 J0.04
G1 X-32.472 Y0.5 Z-2.321
X-39.982 Y0.499 Z-2.583
X-39.996 Y0.496
X-39.999 Y0.474 Z-2.584
X-39.996 Y-0.496 Z-2.618
X-39.982 Y-0.499 Z-2.619
X-32.472 Y-0.5 Z-2.881
X-32.474 Y-0.461 Z-2.882
G2 X-32.475 Y-0.419 Z-2.884 I0.749 J0.04
G1 X-32.472 Y0.5 Z-2.916
X-39.982 Y0.499 Z-3.178
X-39.996 Y0.496 Z-3.179
X-39.999 Y0.474
X-39.996 Y-0.496 Z-3.213
X-39.982 Y-0.499 Z-3.214
X-32.472 Y-0.5 Z-3.476
X-32.474 Y-0.461 Z-3.477
G2 X-32.475 Y-0.419 Z-3.479 I0.749 J0.04
G1 X-32.473 Y0.188 Z-3.5
X-32.472 Y0.5 F1000.
X-39.982 Y0.499
X-39.996 Y0.496
X-39.999 Y0.474
X-39.996 Y-0.496
X-39.982 Y-0.499
X-32.472 Y-0.5
X-32.474 Y-0.461
G2 X-32.475 Y-0.419 I0.749 J0.04
G1 X-32.473 Y0.188
G3 X-32.597 Y0.286 I-0.1 J0.
G1 X-33.092 Y0.163
X-39.82 Y-0.403
X-39.962 Y-0.381
G3 X-39.996 Y-0.41 I-0.005 J-0.029
G1 Y-0.496 Z-3.503 F333.
X-39.982 Y-0.499
X-33.777 Y-0.496 Z-3.72
Y0.5 Z-3.755
X-39.982 Y0.499 Z-3.972
X-39.996 Y0.496
X-39.999 Y0.474 Z-3.973
X-39.996 Y-0.496 Z-4.007
X-39.982 Y-0.499
X-33.777 Y-0.496 Z-4.224
Y0.5 Z-4.259
X-39.982 Y0.499 Z-4.475
X-39.996 Y0.496 Z-4.476
X-39.999 Y0.474 Z-4.477
X-39.997 Y-0.192 Z-4.5
X-39.996 Y-0.496 F1000.
X-39.982 Y-0.499
X-33.777 Y-0.496
Y0.5
X-39.982 Y0.499
X-39.996 Y0.496
X-39.999 Y0.474
X-39.997 Y-0.192
G3 X-39.942 Y-0.233 I0.043 J0.
G1 X-39.738 Y-0.176
X-35.893 Y0.265
X-35.656 Y0.365
G3 X-35.684 Y0.5 I-0.028 J0.064
G1 X-39.982 Y0.499 Z-4.65 F333.
X-39.996 Y0.496 Z-4.651
X-39.999 Y0.474
X-39.996 Y-0.496 Z-4.685
X-39.982 Y-0.499 Z-4.686
X-35.081 Y-0.496 Z-4.857
Y0.5 Z-4.892
X-39.982 Y0.499 Z-5.063
X-39.996 Y0.496
X-39.999 Y0.474 Z-5.064
X-39.996 Y-0.496 Z-5.098
X-39.982 Y-0.499
X-35.081 Y-0.496 Z-5.27
Y0.5 Z-5.304
X-39.982 Y0.499 Z-5.475
X-39.996 Y0.496 Z-5.476
X-39.999 Y0.474 Z-5.477
X-39.997 Y-0.191 Z-5.5
X-39.996 Y-0.496 F1000.
X-39.982 Y-0.499
X-35.081 Y-0.496
Y0.5
X-39.982 Y0.499
X-39.996 Y0.496
X-39.999 Y0.474
X-39.997 Y-0.191
G3 X-39.979 Y-0.226 I0.043 J0.
G1 X-39.949 Y-0.248
G3 X-39.884 Y-0.23 I0.025 J0.035
X-39.887 Y-0.187 I-0.042 J0.018
G1 X-39.913 Y-0.148
G3 X-39.997 Y-0.173 I-0.038 J-0.025
G1 X-39.996 Y-0.496 Z-5.511 F333.
X-39.982 Y-0.499 Z-5.512
X-36.386 Y-0.497 Z-5.637
Y0.5 Z-5.672
X-39.982 Y0.499 Z-5.798
X-39.996 Y0.496
X-39.999 Y0.474 Z-5.799
X-39.996 Y-0.496 Z-5.833
X-39.982 Y-0.499
X-36.386 Y-0.497 Z-5.959
Y0.5 Z-5.994
X-39.982 Y0.499 Z-6.119
X-39.996 Y0.496 Z-6.12
X-39.999 Y0.474 Z-6.121
X-39.996 Y-0.496 Z-6.154
X-39.982 Y-0.499 Z-6.155
X-36.386 Y-0.497 Z-6.28
Y0.5 Z-6.315
X-39.982 Y0.499 Z-6.441
X-39.996 Y0.496
X-39.999 Y0.474 Z-6.442
X-39.996 Y-0.496 Z-6.476
X-39.982 Y-0.499 Z-6.477
X-39.309 Y-0.498 Z-6.5
X-36.386 Y-0.497 F1000.
Y0.5
X-39.982 Y0.499
X-39.996 Y0.496
X-39.999 Y0.474
X-39.996 Y-0.496
X-39.982 Y-0.499
X-39.309 Y-0.498
G3 X-39.271 Y-0.447 I0. J0.039
G1 X-39.329 Y-0.263
X-39.418 Y0.264
X-39.398 Y0.455
G3 X-39.437 Y0.499 I-0.039 J0.004
G1 X-39.982 Z-6.519 F333.
X-39.996 Y0.496 Z-6.52
X-39.999 Y0.474
X-39.996 Y-0.496 Z-6.554
X-39.982 Y-0.499 Z-6.555
X-37.691 Y-0.497 Z-6.635
Y0.499 Z-6.669
X-39.982 Z-6.749
X-39.996 Y0.496 Z-6.75
X-39.999 Y0.474 Z-6.751
X-39.996 Y-0.496 Z-6.785
X-39.982 Y-0.499
X-37.691 Y-0.497 Z-6.865
Y0.499 Z-6.9
X-39.982 Z-6.98
X-39.996 Y0.496
X-39.999 Y0.474 Z-6.981
X-39.996 Y-0.496 Z-7.015
X-39.982 Y-0.499 Z-7.016
X-37.691 Y-0.497 Z-7.096
Y0.499 Z-7.13
X-39.982 Z-7.21
X-39.996 Y0.496 Z-7.211
X-39.999 Y0.474 Z-7.212
X-39.996 Y-0.496 Z-7.246
X-39.982 Y-0.499
X-37.691 Y-0.497 Z-7.326
Y0.499 Z-7.361
X-39.982 Z-7.441
X-39.996 Y0.496
X-39.999 Y0.474 Z-7.442
X-39.996 Y-0.496 Z-7.476
X-39.982 Y-0.499
X-39.309 Y-0.498 Z-7.5
X-37.691 Y-0.497 F1000.
Y0.499
X-39.982
X-39.996 Y0.496
X-39.999 Y0.474
X-39.996 Y-0.496
X-39.982 Y-0.499
X-39.309 Y-0.498
G3 X-39.234 Y-0.484 Z-7.485 I0. J0.2
X-39.179 Y-0.45 Z-7.441 I-0.075 J0.185
X-39.149 Y-0.419 Z-7.377 I-0.13 J0.152
X-39.141 Y-0.406 Z-7.3 I-0.16 J0.12
G0 Z15.

M9
G28 G91 Z0.
G28 X0. Y0.
M30
