(3)
(T1  D=2. CR=0. - ZMIN=-10.162 - FLAT END MILL)
G90 G94 G91.1 G40 G49 G17
G21
G28 G91 Z0.
G90

(POCKET2)
M5
M9
T1 M6
S5000 M3
G54
M8
G0 X-7.617 Y0.
G43 Z7. H1
Z2.
G1 Z1.25 F333.
G18 G2 X-7.419 Z1.05 I0.2 K0.
G1 X-0.045 Z1.004
X-0.004 Y-0.004
X-0.001 Y-0.974 Z0.998
X-0.004 Y-0.996
X-0.018 Y-0.999
X-79.982 Z0.504
X-79.996 Y-0.996
X-79.999 Y-0.026 Z0.498
X-79.996 Y-0.004
X-79.982 Y-0.001
X-0.045 Y0. Z0.004
X-0.004 Y-0.004
X-0.001 Y-0.974 Z-0.002
X-0.004 Y-0.996
X-0.018 Y-0.999
X-79.982 Z-0.496
X-79.996 Y-0.996
X-79.999 Y-0.026 Z-0.502
X-79.996 Y-0.004
X-79.982 Y-0.001
X-0.045 Y0. Z-0.996
X-0.004 Y-0.004
X-0.002 Y-0.688 Z-1.
X-0.001 Y-0.974 F1000.
X-0.004 Y-0.996
X-0.018 Y-0.999
X-79.982
X-79.996 Y-0.996
X-79.999 Y-0.026
X-79.996 Y-0.004
X-79.982 Y-0.001
X-0.045 Y0.
X-0.004 Y-0.004
X-0.002 Y-0.688
G17 G2 X-0.016 Y-0.762 Z-0.985 I-0.2 J-0.001
X-0.049 Y-0.818 Z-0.941 I-0.186 J0.074
X-0.081 Y-0.847 Z-0.877 I-0.152 J0.129
X-0.093 Y-0.856 Z-0.8 I-0.121 J0.159
G0 Z5.
X-7.617 Y0.
Z0.25
G18 G2 X-7.419 Z0.05 I0.2 K0. F333.
G1 X-0.045 Z0.004
X-0.004 Y-0.004
X-0.001 Y-0.974 Z-0.002
X-0.004 Y-0.996
X-0.018 Y-0.999
X-79.982 Z-0.496
X-79.996 Y-0.996
X-79.999 Y-0.026 Z-0.502
X-79.996 Y-0.004
X-79.982 Y-0.001
X-0.045 Y0. Z-0.996
X-0.004 Y-0.004
X-0.001 Y-0.974 Z-1.002
X-0.004 Y-0.996
X-0.018 Y-0.999
X-79.982 Z-1.496
X-79.996 Y-0.996
X-79.999 Y-0.026 Z-1.502
X-79.996 Y-0.004
X-79.982 Y-0.001
X-0.045 Y0. Z-1.996
X-0.004 Y-0.004
X-0.002 Y-0.688 Z-2.
X-0.001 Y-0.974 F1000.
X-0.004 Y-0.996
X-0.018 Y-0.999
X-79.982
X-79.996 Y-0.996
X-79.999 Y-0.026
X-79.996 Y-0.004
X-79.982 Y-0.001
X-0.045 Y0.
X-0.004 Y-0.004
X-0.002 Y-0.688
G17 G2 X-0.016 Y-0.762 Z-1.985 I-0.2 J-0.001
X-0.049 Y-0.818 Z-1.941 I-0.186 J0.074
X-0.081 Y-0.847 Z-1.877 I-0.152 J0.129
X-0.093 Y-0.856 Z-1.8 I-0.121 J0.159
G0 Z5.
X-72.383 Y-0.999
Z2.
G1 Z-0.75 F333.
G18 G3 X-72.581 Z-0.95 I-0.2 K0.
G1 X-79.982 Z-0.996
X-79.996 Y-0.996
X-79.999 Y-0.026 Z-1.002
X-79.996 Y-0.004
X-79.982 Y-0.001
X-0.045 Y0. Z-1.496
X-0.004 Y-0.004
X-0.001 Y-0.974 Z-1.502
X-0.004 Y-0.996
X-0.018 Y-0.999
X-79.982 Z-1.996
X-79.996 Y-0.996
X-79.999 Y-0.026 Z-2.002
X-79.996 Y-0.004
X-79.982 Y-0.001
X-0.045 Y0. Z-2.496
X-0.004 Y-0.004
X-0.002 Y-0.688 Z-2.5
X-0.001 Y-0.974 F1000.
X-0.004 Y-0.996
X-0.018 Y-0.999
X-79.982
X-79.996 Y-0.996
X-79.999 Y-0.026
X-79.996 Y-0.004
X-79.982 Y-0.001
X-0.045 Y0.
X-0.004 Y-0.004
X-0.002 Y-0.688
G17 G2 X-0.016 Y-0.762 Z-2.485 I-0.2 J-0.001
X-0.049 Y-0.818 Z-2.441 I-0.186 J0.074
X-0.081 Y-0.847 Z-2.377 I-0.152 J0.129
X-0.093 Y-0.856 Z-2.3 I-0.121 J0.159
G0 Z5.
X-44.984 Y0.
G1 Z-1.25 F333.
G18 G3 X-45.182 Z-1.45 I-0.2 K0.
G1 X-48.434 Z-1.483
X-48.429 Y-0.917 Z-1.492
G17 G2 X-48.43 Y-0.949 Z-1.493 I-0.75 J-0.004
G1 X-48.431 Y-1.
X-0.018 Y-0.999 Z-1.983
X-0.004 Y-0.996
X-0.001 Y-0.974
X-0.004 Y-0.004 Z-1.993
X-0.045 Y0.
X-48.434 Z-2.483
X-48.429 Y-0.917 Z-2.492
G2 X-48.43 Y-0.949 Z-2.493 I-0.75 J-0.004
G1 X-48.431 Y-1.
X-0.018 Y-0.999 Z-2.983
X-0.004 Y-0.996
X-0.001 Y-0.974
X-0.004 Y-0.004 Z-2.993
X-0.045 Y0.
X-48.434 Z-3.483
X-48.429 Y-0.917 Z-3.492
G2 X-48.43 Y-0.949 Z-3.493 I-0.75 J-0.004
G1 X-48.431 Y-1.
X-47.742 Z-3.5
X-0.018 Y-0.999 F1000.
X-0.004 Y-0.996
X-0.001 Y-0.974
X-0.004 Y-0.004
X-0.045 Y0.
X-48.434
X-48.429 Y-0.917
G2 X-48.43 Y-0.949 I-0.75 J-0.004
G1 X-48.431 Y-1.
X-47.742
G3 X-47.667 Y-0.985 Z-3.485 I0. J0.2
X-47.612 Y-0.952 Z-3.441 I-0.075 J0.186
X-47.582 Y-0.92 Z-3.377 I-0.13 J0.152
X-47.573 Y-0.908 Z-3.3 I-0.16 J0.121
G0 Z5.
X-42.685 Y0.
G1 Z-2.25 F333.
G18 G3 X-42.883 Z-2.45 I-0.2 K0.
G1 X-46.993 Z-2.493
X-46.991 Y-0.046
G17 G2 X-46.99 Y-0.08 Z-2.494 I-0.749 J-0.033
G1 X-46.992 Y-1. Z-2.503
X-0.018 Y-0.999 Z-2.993
X-0.004 Y-0.996
X-0.001 Y-0.974
X-0.004 Y-0.004 Z-3.003
X-0.045 Y0. Z-3.004
X-46.993 Z-3.493
X-46.991 Y-0.046
G2 X-46.99 Y-0.08 Z-3.494 I-0.749 J-0.033
G1 X-46.992 Y-1. Z-3.503
X-0.018 Y-0.999 Z-3.993
X-0.004 Y-0.996
X-0.001 Y-0.974
X-0.004 Y-0.004 Z-4.003
X-0.045 Y0. Z-4.004
X-46.993 Z-4.493
X-46.991 Y-0.046
G2 X-46.99 Y-0.08 Z-4.494 I-0.749 J-0.033
G1 X-46.991 Y-0.689 Z-4.5
X-46.992 Y-1. F1000.
X-0.018 Y-0.999
X-0.004 Y-0.996
X-0.001 Y-0.974
X-0.004 Y-0.004
X-0.045 Y0.
X-46.993
X-46.991 Y-0.046
G2 X-46.99 Y-0.08 I-0.749 J-0.033
G1 X-46.991 Y-0.689
G3 X-46.977 Y-0.764 Z-4.485 I0.2 J0.
X-46.944 Y-0.819 Z-4.441 I0.186 J0.074
X-46.912 Y-0.849 Z-4.377 I0.152 J0.13
X-46.9 Y-0.857 Z-4.3 I0.121 J0.159
G0 Z5.
X-41.389 Y-0.001
G1 Z-3.25 F333.
G18 G3 X-41.587 Z-3.45 I-0.2 K0.
G1 X-45.552 Z-3.493
Y-1. Z-3.503
X-0.018 Y-0.999 Z-3.992
X-0.004 Y-0.996 Z-3.993
X-0.001 Y-0.974
X-0.004 Y-0.004 Z-4.003
X-0.045 Y0. Z-4.004
X-45.552 Y-0.001 Z-4.493
Y-1. Z-4.503
X-0.018 Y-0.999 Z-4.992
X-0.004 Y-0.996 Z-4.993
X-0.001 Y-0.974
X-0.004 Y-0.004 Z-5.003
X-0.045 Y0. Z-5.004
X-45.552 Y-0.001 Z-5.493
Y-0.69 Z-5.5
Y-1. F1000.
X-0.018 Y-0.999
X-0.004 Y-0.996
X-0.001 Y-0.974
X-0.004 Y-0.004
X-0.045 Y0.
X-45.552 Y-0.001
Y-0.69
G17 G3 X-45.537 Y-0.765 Z-5.485 I0.2 J0.
X-45.504 Y-0.82 Z-5.441 I0.186 J0.075
X-45.472 Y-0.85 Z-5.377 I0.152 J0.13
X-45.46 Y-0.859 Z-5.3 I0.121 J0.16
G0 Z5.
X-41.095 Y0.
G1 Z-4.25 F333.
G18 G3 X-41.292 Z-4.45 I-0.2 K0.
G1 X-44.113 Z-4.481
Y-1. Z-4.492
X-0.018 Y-0.999 Z-4.981
X-0.004 Y-0.996
X-0.001 Y-0.974 Z-4.982
X-0.004 Y-0.004 Z-4.992
X-0.045 Y0. Z-4.993
X-44.113 Z-5.481
Y-1. Z-5.492
X-0.018 Y-0.999 Z-5.981
X-0.004 Y-0.996
X-0.001 Y-0.974 Z-5.982
X-0.004 Y-0.004 Z-5.992
X-0.045 Y0. Z-5.993
X-44.113 Z-6.481
Y-1. Z-6.492
X-43.423 Z-6.5
X-0.018 Y-0.999 F1000.
X-0.004 Y-0.996
X-0.001 Y-0.974
X-0.004 Y-0.004
X-0.045 Y0.
X-44.113
Y-1.
X-43.423
G17 G3 X-43.348 Y-0.985 Z-6.485 I0. J0.2
X-43.293 Y-0.952 Z-6.441 I-0.075 J0.186
X-43.263 Y-0.92 Z-6.377 I-0.13 J0.152
X-43.255 Y-0.908 Z-6.3 I-0.16 J0.121
G0 Z5.
X-38.803 Y0.
G1 Z-5.25 F333.
G18 G3 X-39.001 Z-5.45 I-0.2 K0.
G1 X-42.678 Z-5.492
Y-1. Z-5.504
X-0.018 Y-0.999 Z-5.992
X-0.004 Y-0.996
X-0.001 Y-0.974
X-0.004 Y-0.004 Z-6.004
X-0.045 Y0.
X-42.678 Z-6.492
Y-1. Z-6.504
X-0.018 Y-0.999 Z-6.992
X-0.004 Y-0.996
X-0.001 Y-0.974
X-0.004 Y-0.004 Z-7.004
X-0.045 Y0.
X-42.678 Z-7.492
Y-0.69 Z-7.5
Y-1. F1000.
X-0.018 Y-0.999
X-0.004 Y-0.996
X-0.001 Y-0.974
X-0.004 Y-0.004
X-0.045 Y0.
X-42.678
Y-0.69
G17 G3 X-42.663 Y-0.765 Z-7.485 I0.2 J0.
X-42.63 Y-0.82 Z-7.441 I0.186 J0.075
X-42.598 Y-0.85 Z-7.377 I0.152 J0.13
X-42.586 Y-0.858 Z-7.3 I0.121 J0.16
G0 Z5.
X-2.744 Y-0.999
G1 Z-6.25 F333.
G18 G2 X-2.547 Z-6.45 I0.2 K0.
G1 X-0.018 Z-6.48
X-0.004 Y-0.996
X-0.001 Y-0.974
X-0.004 Y-0.004 Z-6.492
X-0.045 Y0.
X-41.24 Y-0.002 Z-6.98
X-41.234 Y-0.917 Z-6.991
G17 G2 X-41.235 Y-0.949 I-0.75 J-0.004
G1 X-41.237 Y-1. Z-6.992
X-0.018 Y-0.999 Z-7.48
X-0.004 Y-0.996
X-0.001 Y-0.974
X-0.004 Y-0.004 Z-7.492
X-0.045 Y0.
X-41.24 Y-0.002 Z-7.98
X-41.234 Y-0.917 Z-7.991
G2 X-41.235 Y-0.949 I-0.75 J-0.004
G1 X-41.237 Y-1. Z-7.992
X-0.018 Y-0.999 Z-8.48
X-0.004 Y-0.996
X-0.001 Y-0.974
X-0.004 Y-0.004 Z-8.492
X-0.045 Y0.
X-0.692 Z-8.5
X-41.24 Y-0.002 F1000.
X-41.234 Y-0.917
G2 X-41.235 Y-0.949 I-0.75 J-0.004
G1 X-41.237 Y-1.
X-0.018 Y-0.999
X-0.004 Y-0.996
X-0.001 Y-0.974
X-0.004 Y-0.004
X-0.045 Y0.
X-0.692
G3 X-0.766 Y-0.014 Z-8.485 I0. J-0.2
X-0.821 Y-0.048 Z-8.441 I0.075 J-0.186
X-0.851 Y-0.079 Z-8.377 I0.13 J-0.152
X-0.86 Y-0.092 Z-8.3 I0.16 J-0.121
G0 Z5.
X-36.21 Y0.
G1 Z-7.25 F333.
G18 G3 X-36.407 Z-7.45 I-0.2 K0.
G1 X-39.796 Z-7.492
Y-1. Z-7.504
X-0.018 Y-0.999 Z-7.991
X-0.004 Y-0.996 Z-7.992
X-0.001 Y-0.974
X-0.004 Y-0.004 Z-8.004
X-0.045 Y0.
X-39.796 Z-8.492
Y-1. Z-8.504
X-0.018 Y-0.999 Z-8.991
X-0.004 Y-0.996 Z-8.992
X-0.001 Y-0.974
X-0.004 Y-0.004 Z-9.004
X-0.045 Y0.
X-39.796 Z-9.492
Y-0.69 Z-9.5
Y-1. F1000.
X-0.018 Y-0.999
X-0.004 Y-0.996
X-0.001 Y-0.974
X-0.004 Y-0.004
X-0.045 Y0.
X-39.796
Y-0.69
G17 G3 X-39.782 Y-0.765 Z-9.485 I0.2 J0.
X-39.748 Y-0.82 Z-9.441 I0.186 J0.075
X-39.717 Y-0.85 Z-9.377 I0.152 J0.13
X-39.704 Y-0.858 Z-9.3 I0.121 J0.16
G0 Z5.
X-16.385 Y-0.999
G1 Z-8.25 F333.
G18 G2 X-16.187 Z-8.45 I0.2 K0.
G1 X-0.018 Z-8.653
X-0.004 Y-0.996
X-0.001 Y-0.974
X-0.004 Y-0.004 Z-8.665
X-0.045 Y0. Z-8.666
X-38.863 Z-9.153
X-38.858 Y-0.917 Z-9.165
G17 G2 Y-0.949 I-0.75 J-0.004
G1 X-38.86 Y-1. Z-9.166
X-0.018 Y-0.999 Z-9.653
X-0.004 Y-0.996
X-0.001 Y-0.974
X-0.004 Y-0.004 Z-9.665
X-0.045 Y0. Z-9.666
X-38.863 Z-10.153
X-38.859 Y-0.693 Z-10.162
X-38.858 Y-0.917 F1000.
G2 Y-0.949 I-0.75 J-0.004
G1 X-38.86 Y-1.
X-0.018 Y-0.999
X-0.004 Y-0.996
X-0.001 Y-0.974
X-0.004 Y-0.004
X-0.045 Y0.
X-38.863
X-38.859 Y-0.693
G3 X-38.844 Y-0.767 Z-10.146 I0.2 J0.001
X-38.81 Y-0.823 Z-10.103 I0.185 J0.076
X-38.779 Y-0.852 Z-10.038 I0.151 J0.131
X-38.766 Y-0.861 Z-9.962 I0.12 J0.16
G0 Z5.
X-79.557 Y-0.999
G1 Z-1.25 F333.
X-79.551 Z-1.301
X-79.532 Z-1.348
X-79.501 Z-1.389
X-79.461 Z-1.421
X-79.415 Z-1.442
X-79.364 Z-1.45
X-72.472 Y-1. Z-1.691
X-72.474 Y-0.961 Z-1.692
G2 X-72.475 Y-0.919 Z-1.694 I0.749 J0.04
G1 X-72.472 Y0. Z-1.726
X-79.982 Y-0.001 Z-1.988
X-79.996 Y-0.004
X-79.999 Y-0.026 Z-1.989
X-79.996 Y-0.996 Z-2.023
X-79.982 Y-0.999 Z-2.024
X-72.472 Y-1. Z-2.286
X-72.474 Y-0.961 Z-2.287
G2 X-72.475 Y-0.919 Z-2.289 I0.749 J0.04
G1 X-72.472 Y0. Z-2.321
X-79.982 Y-0.001 Z-2.583
X-79.996 Y-0.004
X-79.999 Y-0.026 Z-2.584
X-79.996 Y-0.996 Z-2.618
X-79.982 Y-0.999 Z-2.619
X-72.472 Y-1. Z-2.881
X-72.474 Y-0.961 Z-2.882
G2 X-72.475 Y-0.919 Z-2.884 I0.749 J0.04
G1 X-72.472 Y0. Z-2.916
X-79.982 Y-0.001 Z-3.178
X-79.996 Y-0.004 Z-3.179
X-79.999 Y-0.026
X-79.996 Y-0.996 Z-3.213
X-79.982 Y-0.999 Z-3.214
X-72.472 Y-1. Z-3.476
X-72.474 Y-0.961 Z-3.477
G2 X-72.475 Y-0.919 Z-3.479 I0.749 J0.04
G1 X-72.473 Y-0.312 Z-3.5
X-72.472 Y0. F1000.
X-79.982 Y-0.001
X-79.996 Y-0.004
X-79.999 Y-0.026
X-79.996 Y-0.996
X-79.982 Y-0.999
X-72.472 Y-1.
X-72.474 Y-0.961
G2 X-72.475 Y-0.919 I0.749 J0.04
G1 X-72.473 Y-0.312
G3 X-72.527 Y-0.269 I-0.044 J0.
G1 X-72.734 Y-0.321
X-78.881 Y-0.773
X-79.116 Y-0.863
G3 X-79.09 Y-0.998 I0.026 J-0.065
G1 X-73.777 Y-0.996 Z-3.686 F333.
Y0. Z-3.72
X-79.982 Y-0.001 Z-3.937
X-79.996 Y-0.004 Z-3.938
X-79.999 Y-0.026
X-79.996 Y-0.996 Z-3.972
X-79.982 Y-0.999 Z-3.973
X-73.777 Y-0.996 Z-4.189
Y0. Z-4.224
X-79.982 Y-0.001 Z-4.441
X-79.996 Y-0.004
X-79.999 Y-0.026 Z-4.442
X-79.996 Y-0.996 Z-4.476
X-79.982 Y-0.999 Z-4.477
X-79.309 Y-0.998 Z-4.5
X-73.777 Y-0.996 F1000.
Y0.
X-79.982 Y-0.001
X-79.996 Y-0.004
X-79.999 Y-0.026
X-79.996 Y-0.996
X-79.982 Y-0.999
X-79.309 Y-0.998
G3 X-79.274 Y-0.976 I0. J0.039
G1 X-79.22 Y-0.868
G2 X-79.195 Y-0.847 I0.035 J-0.017
G1 X-76.79 Y-0.152
X-76.656 Y-0.074
G3 X-76.676 Y-0.001 I-0.02 J0.034
G1 X-79.982 Z-4.615 F333.
X-79.996 Y-0.004 Z-4.616
X-79.999 Y-0.026 Z-4.617
X-79.996 Y-0.996 Z-4.651
X-79.982 Y-0.999
X-75.081 Y-0.996 Z-4.822
Y0. Z-4.857
X-79.982 Y-0.001 Z-5.028
X-79.996 Y-0.004 Z-5.029
X-79.999 Y-0.026
X-79.996 Y-0.996 Z-5.063
X-79.982 Y-0.999 Z-5.064
X-75.081 Y-0.996 Z-5.235
Y0. Z-5.27
X-79.982 Y-0.001 Z-5.441
X-79.996 Y-0.004
X-79.999 Y-0.026 Z-5.442
X-79.996 Y-0.996 Z-5.476
X-79.982 Y-0.999 Z-5.477
X-79.309 Y-0.998 Z-5.5
X-75.081 Y-0.996 F1000.
Y0.
X-79.982 Y-0.001
X-79.996 Y-0.004
X-79.999 Y-0.026
X-79.996 Y-0.996
X-79.982 Y-0.999
X-79.309 Y-0.998
G3 X-79.27 Y-0.966 I0. J0.039
G1 X-79.234 Y-0.789
X-78.755 Y-0.21
X-78.648 Y-0.064
G3 X-78.68 Y-0.001 I-0.032 J0.023
G1 X-79.982 Z-5.545 F333.
X-79.996 Y-0.004 Z-5.546
X-79.999 Y-0.026 Z-5.547
X-79.996 Y-0.996 Z-5.581
X-79.982 Y-0.999
X-76.386 Y-0.997 Z-5.707
Y0. Z-5.741
X-79.982 Y-0.001 Z-5.867
X-79.996 Y-0.004 Z-5.868
X-79.999 Y-0.026
X-79.996 Y-0.996 Z-5.902
X-79.982 Y-0.999 Z-5.903
X-76.386 Y-0.997 Z-6.028
Y0. Z-6.063
X-79.982 Y-0.001 Z-6.189
X-79.996 Y-0.004
X-79.999 Y-0.026 Z-6.19
X-79.996 Y-0.996 Z-6.224
X-79.982 Y-0.999
X-76.386 Y-0.997 Z-6.35
Y0. Z-6.385
X-79.689 Y-0.001 Z-6.5
X-79.982 F1000.
X-79.996 Y-0.004
X-79.999 Y-0.026
X-79.996 Y-0.996
X-79.982 Y-0.999
X-76.386 Y-0.997
Y0.
X-79.689 Y-0.001
G3 X-79.729 Y-0.193 I0. J-0.1
G1 X-79.108 Y-0.464
G3 X-79.036 Y-0.467 I0.04 J0.092
G1 X-77.781 Y-0.34
G3 X-77.691 Y-0.241 I-0.01 J0.1
G1 Y-0.001 Z-6.508 F333.
X-79.982 Z-6.588
X-79.996 Y-0.004 Z-6.589
X-79.999 Y-0.026 Z-6.59
X-79.996 Y-0.996 Z-6.624
X-79.982 Y-0.999
X-77.691 Y-0.997 Z-6.704
Y-0.001 Z-6.739
X-79.982 Z-6.819
X-79.996 Y-0.004
X-79.999 Y-0.026 Z-6.82
X-79.996 Y-0.996 Z-6.854
X-79.982 Y-0.999 Z-6.855
X-77.691 Y-0.997 Z-6.934
Y-0.001 Z-6.969
X-79.982 Z-7.049
X-79.996 Y-0.004 Z-7.05
X-79.999 Y-0.026 Z-7.051
X-79.996 Y-0.996 Z-7.084
X-79.982 Y-0.999 Z-7.085
X-77.691 Y-0.997 Z-7.165
Y-0.001 Z-7.2
X-79.982 Z-7.28
X-79.996 Y-0.004
X-79.999 Y-0.026 Z-7.281
X-79.996 Y-0.996 Z-7.315
X-79.982 Y-0.999
X-77.691 Y-0.997 Z-7.395
Y-0.001 Z-7.43
X-79.689 Z-7.5
X-79.982 F1000.
X-79.996 Y-0.004
X-79.999 Y-0.026
X-79.996 Y-0.996
X-79.982 Y-0.999
X-77.691 Y-0.997
Y-0.001
X-79.689
G3 X-79.764 Y-0.016 Z-7.485 I0. J-0.2
X-79.819 Y-0.049 Z-7.441 I0.075 J-0.186
X-79.849 Y-0.081 Z-7.377 I0.13 J-0.152
X-79.858 Y-0.093 Z-7.3 I0.16 J-0.12
G0 Z7.

M9
G28 G91 Z0.
G28 X0. Y0.
M30
