(4)
(T1  D=2. CR=0. - ZMIN=-10.162 - FLAT END MILL)
G90 G94 G91.1 G40 G49 G17
G21
G28 G91 Z0.
G90

(POCKET2)
M5
M9
T1 M6
S5000 M3
G54
M8
G0 X72.382 Y1.
G43 Z7. H1
Z2.
G1 Z1.25 F333.
G18 G2 X72.581 Z1.05 I0.2 K0.
G1 X79.955 Z1.004
X79.996 Y0.996
X79.999 Y0.026 Z0.998
X79.996 Y0.004
X79.982 Y0.001
X0.018 Z0.504
X0.004 Y0.004
X0.001 Y0.974 Z0.498
X0.004 Y0.996
X0.018 Y0.999
X79.955 Y1. Z0.004
X79.996 Y0.996
X79.999 Y0.026 Z-0.002
X79.996 Y0.004
X79.982 Y0.001
X0.018 Z-0.496
X0.004 Y0.004
X0.001 Y0.974 Z-0.502
X0.004 Y0.996
X0.018 Y0.999
X79.955 Y1. Z-0.996
X79.996 Y0.996
X79.998 Y0.312 Z-1.
X79.999 Y0.026 F1000.
X79.996 Y0.004
X79.982 Y0.001
X0.018
X0.004 Y0.004
X0.001 Y0.974
X0.004 Y0.996
X0.018 Y0.999
X79.955 Y1.
X79.996 Y0.996
X79.998 Y0.312
G17 G2 X79.984 Y0.238 Z-0.985 I-0.2 J-0.001
X79.951 Y0.182 Z-0.941 I-0.186 J0.074
X79.919 Y0.153 Z-0.877 I-0.152 J0.129
X79.907 Y0.144 Z-0.8 I-0.121 J0.159
G0 Z5.
X72.382 Y1.
Z0.25
G18 G2 X72.581 Z0.05 I0.2 K0. F333.
G1 X79.955 Z0.004
X79.996 Y0.996
X79.999 Y0.026 Z-0.002
X79.996 Y0.004
X79.982 Y0.001
X0.018 Z-0.496
X0.004 Y0.004
X0.001 Y0.974 Z-0.502
X0.004 Y0.996
X0.018 Y0.999
X79.955 Y1. Z-0.996
X79.996 Y0.996
X79.999 Y0.026 Z-1.002
X79.996 Y0.004
X79.982 Y0.001
X0.018 Z-1.496
X0.004 Y0.004
X0.001 Y0.974 Z-1.502
X0.004 Y0.996
X0.018 Y0.999
X79.955 Y1. Z-1.996
X79.996 Y0.996
X79.998 Y0.312 Z-2.
X79.999 Y0.026 F1000.
X79.996 Y0.004
X79.982 Y0.001
X0.018
X0.004 Y0.004
X0.001 Y0.974
X0.004 Y0.996
X0.018 Y0.999
X79.955 Y1.
X79.996 Y0.996
X79.998 Y0.312
G17 G2 X79.984 Y0.238 Z-1.985 I-0.2 J-0.001
X79.951 Y0.182 Z-1.941 I-0.186 J0.074
X79.919 Y0.153 Z-1.877 I-0.152 J0.129
X79.907 Y0.144 Z-1.8 I-0.121 J0.159
G0 Z5.
X7.617 Y0.001
Z2.
G1 Z-0.75 F333.
G18 G3 X7.419 Z-0.95 I-0.2 K0.
G1 X0.018 Z-0.996
X0.004 Y0.004
X0.001 Y0.974 Z-1.002
X0.004 Y0.996
X0.018 Y0.999
X79.955 Y1. Z-1.496
X79.996 Y0.996
X79.999 Y0.026 Z-1.502
X79.996 Y0.004
X79.982 Y0.001
X0.018 Z-1.996
X0.004 Y0.004
X0.001 Y0.974 Z-2.002
X0.004 Y0.996
X0.018 Y0.999
X79.955 Y1. Z-2.496
X79.996 Y0.996
X79.998 Y0.312 Z-2.5
X79.999 Y0.026 F1000.
X79.996 Y0.004
X79.982 Y0.001
X0.018
X0.004 Y0.004
X0.001 Y0.974
X0.004 Y0.996
X0.018 Y0.999
X79.955 Y1.
X79.996 Y0.996
X79.998 Y0.312
G17 G2 X79.947 Y0.269 I-0.044 J0.
G1 X79.737 Y0.306
X77.817 Y0.221
X77.589 Y0.054
G3 X77.607 Y0.001 I0.018 J-0.024
G1 X79.982 Z-2.583 F333.
X79.996 Y0.004
X79.999 Y0.026 Z-2.584
X79.996 Y0.996 Z-2.618
X79.955 Y1. Z-2.62
X72.472 Z-2.881
X72.474 Y0.961 Z-2.882
G2 X72.475 Y0.919 Z-2.884 I-0.749 J-0.04
G1 X72.472 Y0. Z-2.916
X79.982 Y0.001 Z-3.178
X79.996 Y0.004 Z-3.179
X79.999 Y0.026
X79.996 Y0.996 Z-3.213
X79.955 Y1. Z-3.215
X72.472 Z-3.476
X72.474 Y0.961 Z-3.477
G2 X72.475 Y0.919 Z-3.479 I-0.749 J-0.04
G1 X72.473 Y0.312 Z-3.5
X72.472 Y0. F1000.
X79.982 Y0.001
X79.996 Y0.004
X79.999 Y0.026
X79.996 Y0.996
X79.955 Y1.
X72.472
X72.474 Y0.961
G2 X72.475 Y0.919 I-0.749 J-0.04
G1 X72.473 Y0.312
G3 X72.597 Y0.214 I0.1 J0.
G1 X73.093 Y0.337
X79.819 Y0.904
X79.962 Y0.882
G3 X79.996 Y0.912 I0.005 J0.029
G1 Y0.996 Z-3.503 F333.
X79.955 Y1. Z-3.504
X73.777 Y0.996 Z-3.72
Y0. Z-3.755
X79.982 Y0.001 Z-3.972
X79.996 Y0.004
X79.999 Y0.026 Z-3.973
X79.996 Y0.996 Z-4.007
X79.955 Y1. Z-4.008
X73.777 Y0.996 Z-4.224
Y0. Z-4.259
X79.982 Y0.001 Z-4.475
X79.996 Y0.004 Z-4.476
X79.999 Y0.026 Z-4.477
X79.997 Y0.692 Z-4.5
X79.996 Y0.996 F1000.
X79.955 Y1.
X73.777 Y0.996
Y0.
X79.982 Y0.001
X79.996 Y0.004
X79.999 Y0.026
X79.997 Y0.692
G3 X79.886 Y0.791 I-0.1 J0.
G1 X77.539 Y0.54
X75.179 Y0.492
G3 X75.081 Y0.392 I0.002 J-0.1
G1 Y0. Z-4.514 F333.
X79.982 Y0.001 Z-4.685
X79.996 Y0.004
X79.999 Y0.026 Z-4.686
X79.996 Y0.996 Z-4.72
X79.955 Y1. Z-4.721
X75.081 Y0.997 Z-4.892
Y0. Z-4.926
X79.982 Y0.001 Z-5.098
X79.996 Y0.004
X79.999 Y0.026 Z-5.099
X79.996 Y0.996 Z-5.133
X79.955 Y1. Z-5.134
X75.081 Y0.997 Z-5.304
Y0. Z-5.339
X79.689 Y0.001 Z-5.5
X79.982 F1000.
X79.996 Y0.004
X79.999 Y0.026
X79.996 Y0.996
X79.955 Y1.
X75.081 Y0.997
Y0.
X79.689 Y0.001
G3 X79.732 Y0.046 I0. J0.044
G1 X79.728 Y0.257
X79.819 Y0.544
G2 X79.842 Y0.571 I0.044 J-0.014
G1 X79.971 Y0.634
G3 X79.997 Y0.675 I-0.02 J0.041
G1 X79.996 Y0.996 Z-5.511 F333.
X79.955 Y1. Z-5.513
X76.386 Y0.997 Z-5.637
Y0. Z-5.672
X79.982 Y0.001 Z-5.798
X79.996 Y0.004
X79.999 Y0.026 Z-5.799
X79.996 Y0.996 Z-5.833
X79.955 Y1. Z-5.834
X76.386 Y0.997 Z-5.959
Y0. Z-5.994
X79.982 Y0.001 Z-6.119
X79.996 Y0.004 Z-6.12
X79.999 Y0.026
X79.996 Y0.996 Z-6.154
X79.955 Y1. Z-6.156
X76.386 Y0.997 Z-6.28
Y0. Z-6.315
X79.982 Y0.001 Z-6.441
X79.996 Y0.004
X79.999 Y0.026 Z-6.442
X79.996 Y0.996 Z-6.476
X79.955 Y1. Z-6.477
X79.308 Y0.999 Z-6.5
X76.386 Y0.997 F1000.
Y0.
X79.982 Y0.001
X79.996 Y0.004
X79.999 Y0.026
X79.996 Y0.996
X79.955 Y1.
X79.308 Y0.999
G3 X79.27 Y0.97 I0. J-0.039
G1 X79.22 Y0.802
X78.537 Y0.198
X78.419 Y0.067
G3 X78.449 Y0.001 I0.029 J-0.026
G1 X79.982 Z-6.554 F333.
X79.996 Y0.004
X79.999 Y0.026 Z-6.555
X79.996 Y0.996 Z-6.589
X79.955 Y1. Z-6.59
X77.691 Y0.998 Z-6.669
Y0.001 Z-6.704
X79.982 Z-6.784
X79.996 Y0.004 Z-6.785
X79.999 Y0.026
X79.996 Y0.996 Z-6.819
X79.955 Y1. Z-6.821
X77.691 Y0.998 Z-6.9
Y0.001 Z-6.935
X79.982 Z-7.014
X79.996 Y0.004 Z-7.015
X79.999 Y0.026 Z-7.016
X79.996 Y0.996 Z-7.05
X79.955 Y1. Z-7.051
X77.691 Y0.998 Z-7.13
Y0.001 Z-7.165
X79.982 Z-7.245
X79.996 Y0.004
X79.999 Y0.026 Z-7.246
X79.996 Y0.996 Z-7.28
X79.955 Y1. Z-7.282
X77.691 Y0.998 Z-7.361
Y0.001 Z-7.395
X79.982 Z-7.475
X79.996 Y0.004 Z-7.476
X79.999 Y0.026 Z-7.477
X79.997 Y0.692 Z-7.5
X79.996 Y0.996 F1000.
X79.955 Y1.
X77.691 Y0.998
Y0.001
X79.982
X79.996 Y0.004
X79.999 Y0.026
X79.997 Y0.692
G3 X79.982 Y0.767 Z-7.485 I-0.2 J-0.001
X79.949 Y0.822 Z-7.441 I-0.185 J-0.075
X79.917 Y0.851 Z-7.377 I-0.152 J-0.13
X79.905 Y0.86 Z-7.3 I-0.12 J-0.16
G0 Z5.
X43.987 Y0.
G1 Z-1.25 F333.
G18 G2 X44.185 Z-1.45 I0.2 K0.
G1 X48.434 Z-1.493
X48.429 Y0.917 Z-1.502
G17 G2 X48.43 Y0.949 Z-1.503 I0.75 J0.004
G1 X48.431 Y1.
X0.018 Y0.999 Z-1.993
X0.004 Y0.996
X0.001 Y0.974
X0.004 Y0.004 Z-2.003
X0.018 Y0.001
X48.434 Y0. Z-2.493
X48.429 Y0.917 Z-2.502
G2 X48.43 Y0.949 Z-2.503 I0.75 J0.004
G1 X48.431 Y1.
X0.018 Y0.999 Z-2.993
X0.004 Y0.996
X0.001 Y0.974
X0.004 Y0.004 Z-3.003
X0.018 Y0.001
X48.434 Y0. Z-3.493
X48.43 Y0.693 Z-3.5
X48.429 Y0.917 F1000.
G2 X48.43 Y0.949 I0.75 J0.004
G1 X48.431 Y1.
X0.018 Y0.999
X0.004 Y0.996
X0.001 Y0.974
X0.004 Y0.004
X0.018 Y0.001
X48.434 Y0.
X48.43 Y0.693
G3 X48.415 Y0.768 Z-3.485 I-0.2 J-0.001
X48.382 Y0.823 Z-3.441 I-0.185 J-0.076
X48.35 Y0.852 Z-3.377 I-0.151 J-0.131
X48.337 Y0.861 Z-3.3 I-0.12 J-0.16
G0 Z5.
X42.685 Y0.
G1 Z-2.25 F333.
G18 G2 X42.883 Z-2.45 I0.2 K0.
G1 X46.993 Z-2.493
X46.991 Y0.046
G17 G2 X46.99 Y0.08 Z-2.494 I0.749 J0.033
G1 X46.992 Y1. Z-2.503
X0.018 Y0.999 Z-2.993
X0.004 Y0.996
X0.001 Y0.974
X0.004 Y0.004 Z-3.003
X0.018 Y0.001
X46.993 Y0. Z-3.493
X46.991 Y0.046
G2 X46.99 Y0.08 Z-3.494 I0.749 J0.033
G1 X46.992 Y1. Z-3.503
X0.018 Y0.999 Z-3.993
X0.004 Y0.996
X0.001 Y0.974
X0.004 Y0.004 Z-4.003
X0.018 Y0.001
X46.993 Y0. Z-4.493
X46.991 Y0.046
G2 X46.99 Y0.08 Z-4.494 I0.749 J0.033
G1 X46.991 Y0.689 Z-4.5
X46.992 Y1. F1000.
X0.018 Y0.999
X0.004 Y0.996
X0.001 Y0.974
X0.004 Y0.004
X0.018 Y0.001
X46.993 Y0.
X46.991 Y0.046
G2 X46.99 Y0.08 I0.749 J0.033
G1 X46.991 Y0.689
G3 X46.977 Y0.764 Z-4.485 I-0.2 J0.
X46.944 Y0.819 Z-4.441 I-0.186 J-0.074
X46.912 Y0.849 Z-4.377 I-0.152 J-0.13
X46.9 Y0.857 Z-4.3 I-0.121 J-0.159
G0 Z5.
X41.389 Y0.001
G1 Z-3.25 F333.
G18 G2 X41.587 Z-3.45 I0.2 K0.
G1 X45.552 Z-3.493
Y1. Z-3.503
X0.018 Y0.999 Z-3.992
X0.004 Y0.996 Z-3.993
X0.001 Y0.974
X0.004 Y0.004 Z-4.003
X0.018 Y0.001
X45.552 Z-4.493
Y1. Z-4.503
X0.018 Y0.999 Z-4.992
X0.004 Y0.996 Z-4.993
X0.001 Y0.974
X0.004 Y0.004 Z-5.003
X0.018 Y0.001
X45.552 Z-5.493
Y0.69 Z-5.5
Y1. F1000.
X0.018 Y0.999
X0.004 Y0.996
X0.001 Y0.974
X0.004 Y0.004
X0.018 Y0.001
X45.552
Y0.69
G17 G3 X45.537 Y0.765 Z-5.485 I-0.2 J0.
X45.504 Y0.82 Z-5.441 I-0.186 J-0.075
X45.472 Y0.85 Z-5.377 I-0.152 J-0.13
X45.46 Y0.859 Z-5.3 I-0.121 J-0.16
G0 Z5.
X40.095 Y0.
G1 Z-4.25 F333.
G18 G2 X40.292 Z-4.45 I0.2 K0.
G1 X44.113 Z-4.492
Y1. Z-4.503
X0.018 Y0.999 Z-4.992
X0.004 Y0.996
X0.001 Y0.974 Z-4.993
X0.004 Y0.004 Z-5.003
X0.018 Y0.001 Z-5.004
X44.113 Y0. Z-5.492
Y1. Z-5.503
X0.018 Y0.999 Z-5.992
X0.004 Y0.996
X0.001 Y0.974 Z-5.993
X0.004 Y0.004 Z-6.003
X0.018 Y0.001 Z-6.004
X44.113 Y0. Z-6.492
Y0.69 Z-6.5
Y1. F1000.
X0.018 Y0.999
X0.004 Y0.996
X0.001 Y0.974
X0.004 Y0.004
X0.018 Y0.001
X44.113 Y0.
Y0.69
G17 G3 X44.098 Y0.765 Z-6.485 I-0.2 J0.
X44.065 Y0.82 Z-6.441 I-0.186 J-0.075
X44.033 Y0.85 Z-6.377 I-0.152 J-0.13
X44.021 Y0.858 Z-6.3 I-0.121 J-0.16
G0 Z5.
X38.803 Y0.
G1 Z-5.25 F333.
G18 G2 X39.001 Z-5.45 I0.2 K0.
G1 X42.678 Z-5.492
Y1. Z-5.504
X0.018 Y0.999 Z-5.992
X0.004 Y0.996
X0.001 Y0.974
X0.004 Y0.004 Z-6.004
X0.018 Y0.001
X42.678 Y0. Z-6.492
Y1. Z-6.504
X0.018 Y0.999 Z-6.992
X0.004 Y0.996
X0.001 Y0.974
X0.004 Y0.004 Z-7.004
X0.018 Y0.001
X42.678 Y0. Z-7.492
Y0.69 Z-7.5
Y1. F1000.
X0.018 Y0.999
X0.004 Y0.996
X0.001 Y0.974
X0.004 Y0.004
X0.018 Y0.001
X42.678 Y0.
Y0.69
G17 G3 X42.663 Y0.765 Z-7.485 I-0.2 J0.
X42.63 Y0.82 Z-7.441 I-0.186 J-0.075
X42.598 Y0.85 Z-7.377 I-0.152 J-0.13
X42.586 Y0.858 Z-7.3 I-0.121 J-0.16
G0 Z5.
X36.507 Y0.002
G1 Z-6.25 F333.
G18 G2 X36.705 Z-6.45 I0.2 K0.
G1 X41.24 Z-6.504
X41.234 Y0.917 Z-6.515
G17 G2 X41.235 Y0.949 I0.75 J0.004
G1 X41.237 Y1. Z-6.516
X0.018 Y0.999 Z-7.004
X0.004 Y0.996
X0.001 Y0.974
X0.004 Y0.004 Z-7.015
X0.018 Y0.001 Z-7.016
X41.24 Y0.002 Z-7.504
X41.234 Y0.917 Z-7.515
G2 X41.235 Y0.949 I0.75 J0.004
G1 X41.237 Y1. Z-7.516
X0.018 Y0.999 Z-8.004
X0.004 Y0.996
X0.001 Y0.974
X0.004 Y0.004 Z-8.015
X0.018 Y0.001 Z-8.016
X40.928 Y0.002 Z-8.5
X41.24 F1000.
X41.234 Y0.917
G2 X41.235 Y0.949 I0.75 J0.004
G1 X41.237 Y1.
X0.018 Y0.999
X0.004 Y0.996
X0.001 Y0.974
X0.004 Y0.004
X0.018 Y0.001
X40.928 Y0.002
G3 X41.002 Y0.016 Z-8.485 I0. J0.2
X41.058 Y0.05 Z-8.441 I-0.075 J0.186
X41.087 Y0.081 Z-8.377 I-0.13 J0.152
X41.096 Y0.094 Z-8.3 I-0.16 J0.121
G0 Z5.
X35.21 Y0.
G1 Z-7.25 F333.
G18 G2 X35.407 Z-7.45 I0.2 K0.
G1 X39.796 Z-7.504
Y1. Z-7.516
X0.018 Y0.999 Z-8.004
X0.004 Y0.996
X0.001 Y0.974
X0.004 Y0.004 Z-8.016
X0.018 Y0.001
X39.796 Y0. Z-8.504
Y1. Z-8.516
X0.018 Y0.999 Z-9.004
X0.004 Y0.996
X0.001 Y0.974
X0.004 Y0.004 Z-9.016
X0.018 Y0.001
X39.486 Y0. Z-9.5
X39.796 F1000.
Y1.
X0.018 Y0.999
X0.004 Y0.996
X0.001 Y0.974
X0.004 Y0.004
X0.018 Y0.001
X39.486 Y0.
G17 G3 X39.561 Y0.015 Z-9.485 I0. J0.2
X39.616 Y0.048 Z-9.441 I-0.075 J0.186
X39.646 Y0.08 Z-9.377 I-0.13 J0.152
X39.654 Y0.092 Z-9.3 I-0.16 J0.121
G0 Z5.
X17.391 Y0.999
G1 Z-8.25 F333.
G18 G3 X17.193 Z-8.45 I-0.2 K0.
G1 X0.018 Z-8.665
X0.004 Y0.996 Z-8.666
X0.001 Y0.974
X0.004 Y0.004 Z-8.678
X0.018 Y0.001
X38.863 Y0. Z-9.166
X38.858 Y0.917 Z-9.177
G17 G2 Y0.949 Z-9.178 I0.75 J0.004
G1 X38.86 Y1.
X0.018 Y0.999 Z-9.665
X0.004 Y0.996 Z-9.666
X0.001 Y0.974
X0.004 Y0.004 Z-9.678
X0.018 Y0.001
X38.55 Y0. Z-10.162
X38.863 F1000.
X38.858 Y0.917
G2 Y0.949 I0.75 J0.004
G1 X38.86 Y1.
X0.018 Y0.999
X0.004 Y0.996
X0.001 Y0.974
X0.004 Y0.004
X0.018 Y0.001
X38.55 Y0.
G3 X38.625 Y0.015 Z-10.146 I0. J0.2
X38.68 Y0.048 Z-10.103 I-0.075 J0.186
X38.71 Y0.08 Z-10.038 I-0.13 J0.152
X38.719 Y0.092 Z-9.962 I-0.16 J0.121
G0 Z7.

M9
G28 G91 Z0.
G28 X0. Y0.
M30
