; Generated with:
; "Raster 2 Laser Gcode generator"
; by 305 Engineering
;
;
;

G21; Set units to millimeters
G90; Use absolute coordinates

G00 X0.0 Y0.0
M03  S3
G01 X98.5 Y0.0 F500
M05
G00 X98.5 Y0.5
M03  S3
G01 X0.0 Y0.5 F500
M05
G00 X0.0 Y1.0
M03  S3
G01 X98.5 Y1.0 F500
M05
G00 X98.5 Y1.5
M03  S3
G01 X0.0 Y1.5 F500
M05
G00 X0.0 Y2.0
M03  S3
G01 X98.5 Y2.0 F500
M05
G00 X98.5 Y2.5
M03  S3
G01 X0.0 Y2.5 F500
M05
G00 X0.0 Y3.0
M03  S3
G01 X98.5 Y3.0 F500
M05
G00 X98.5 Y3.5
M03  S3
G01 X0.0 Y3.5 F500
M05
G00 X0.0 Y4.0
M03  S3
G01 X98.5 Y4.0 F500
M05
G00 X98.5 Y4.5
M03  S3
G01 X0.0 Y4.5 F500
M05
G00 X0.0 Y5.0
M03  S3
G01 X98.5 Y5.0 F500
M05
G00 X98.5 Y5.5
M03  S3
G01 X0.0 Y5.5 F500
M05
G00 X0.0 Y6.0
M03  S3
G01 X98.5 Y6.0 F500
M05
G00 X98.5 Y6.5
M03  S3
G01 X0.0 Y6.5 F500
M05
G00 X0.0 Y7.0
M03  S3
G01 X0.5 Y7.0 F500
M03  S5
G01 X1.0 Y7.0 F500
M03  S41
G01 X1.5 Y7.0 F500
M03  S45
G01 X2.0 Y7.0 F500
M03  S49
G01 X2.5 Y7.0 F500
M03  S51
G01 X3.0 Y7.0 F500
M03  S52
G01 X3.5 Y7.0 F500
M03  S53
G01 X4.0 Y7.0 F500
M03  S55
G01 X4.5 Y7.0 F500
M03  S54
G01 X5.0 Y7.0 F500
M03  S52
G01 X5.5 Y7.0 F500
M03  S51
G01 X6.5 Y7.0 F500
M03  S53
G01 X7.0 Y7.0 F500
M03  S57
G01 X7.5 Y7.0 F500
M03  S61
G01 X8.0 Y7.0 F500
M03  S60
G01 X8.5 Y7.0 F500
M03  S56
G01 X9.0 Y7.0 F500
M03  S55
G01 X9.5 Y7.0 F500
M03  S54
G01 X10.0 Y7.0 F500
M03  S55
G01 X10.5 Y7.0 F500
M03  S57
G01 X11.0 Y7.0 F500
M03  S60
G01 X11.5 Y7.0 F500
M03  S65
G01 X12.0 Y7.0 F500
M03  S71
G01 X12.5 Y7.0 F500
M03  S74
G01 X13.5 Y7.0 F500
M03  S70
G01 X14.0 Y7.0 F500
M03  S67
G01 X14.5 Y7.0 F500
M03  S66
G01 X15.0 Y7.0 F500
M03  S64
G01 X15.5 Y7.0 F500
M03  S59
G01 X16.0 Y7.0 F500
M03  S51
G01 X16.5 Y7.0 F500
M03  S41
G01 X17.0 Y7.0 F500
M03  S35
G01 X17.5 Y7.0 F500
M03  S31
G01 X18.0 Y7.0 F500
M03  S30
G01 X18.5 Y7.0 F500
M03  S28
G01 X19.0 Y7.0 F500
M03  S26
G01 X19.5 Y7.0 F500
M03  S25
G01 X21.0 Y7.0 F500
M03  S26
G01 X22.0 Y7.0 F500
M03  S23
G01 X22.5 Y7.0 F500
M03  S18
G01 X23.0 Y7.0 F500
M03  S15
G01 X24.0 Y7.0 F500
M03  S16
G01 X24.5 Y7.0 F500
M03  S17
G01 X25.0 Y7.0 F500
M03  S22
G01 X25.5 Y7.0 F500
M03  S44
G01 X26.0 Y7.0 F500
M03  S82
G01 X26.5 Y7.0 F500
M03  S96
G01 X27.0 Y7.0 F500
M03  S103
G01 X27.5 Y7.0 F500
M03  S91
G01 X28.5 Y7.0 F500
M03  S88
G01 X29.0 Y7.0 F500
M03  S90
G01 X29.5 Y7.0 F500
M03  S101
G01 X30.0 Y7.0 F500
M03  S122
G01 X30.5 Y7.0 F500
M03  S115
G01 X31.0 Y7.0 F500
M03  S80
G01 X31.5 Y7.0 F500
M03  S82
G01 X32.0 Y7.0 F500
M03  S83
G01 X32.5 Y7.0 F500
M03  S78
G01 X33.0 Y7.0 F500
M03  S90
G01 X33.5 Y7.0 F500
M03  S57
G01 X34.0 Y7.0 F500
M03  S52
G01 X34.5 Y7.0 F500
M03  S45
G01 X35.0 Y7.0 F500
M03  S43
G01 X35.5 Y7.0 F500
M03  S46
G01 X36.0 Y7.0 F500
M03  S51
G01 X36.5 Y7.0 F500
M03  S50
G01 X37.0 Y7.0 F500
M03  S62
G01 X37.5 Y7.0 F500
M03  S123
G01 X38.0 Y7.0 F500
M03  S172
G01 X38.5 Y7.0 F500
M03  S198
G01 X39.0 Y7.0 F500
M03  S205
G01 X39.5 Y7.0 F500
M03  S191
G01 X40.0 Y7.0 F500
M03  S195
G01 X40.5 Y7.0 F500
M03  S200
G01 X41.0 Y7.0 F500
M03  S202
G01 X41.5 Y7.0 F500
M03  S200
G01 X42.0 Y7.0 F500
M03  S203
G01 X43.0 Y7.0 F500
M03  S204
G01 X43.5 Y7.0 F500
M03  S194
G01 X44.0 Y7.0 F500
M03  S174
G01 X44.5 Y7.0 F500
M03  S181
G01 X45.0 Y7.0 F500
M03  S154
G01 X45.5 Y7.0 F500
M03  S107
G01 X46.0 Y7.0 F500
M03  S64
G01 X46.5 Y7.0 F500
M03  S56
G01 X47.0 Y7.0 F500
M03  S62
G01 X47.5 Y7.0 F500
M03  S71
G01 X48.0 Y7.0 F500
M03  S90
G01 X48.5 Y7.0 F500
M03  S62
G01 X49.0 Y7.0 F500
M03  S109
G01 X49.5 Y7.0 F500
M03  S172
G01 X50.0 Y7.0 F500
M03  S162
G01 X50.5 Y7.0 F500
M03  S166
G01 X51.0 Y7.0 F500
M03  S202
G01 X51.5 Y7.0 F500
M03  S199
G01 X52.0 Y7.0 F500
M03  S192
G01 X52.5 Y7.0 F500
M03  S132
G01 X53.0 Y7.0 F500
M03  S100
G01 X53.5 Y7.0 F500
M03  S78
G01 X54.0 Y7.0 F500
M03  S74
G01 X55.0 Y7.0 F500
M03  S78
G01 X55.5 Y7.0 F500
M03  S87
G01 X56.0 Y7.0 F500
M03  S115
G01 X56.5 Y7.0 F500
M03  S123
G01 X57.0 Y7.0 F500
M03  S134
G01 X57.5 Y7.0 F500
M03  S148
G01 X58.0 Y7.0 F500
M03  S163
G01 X58.5 Y7.0 F500
M03  S201
G01 X59.0 Y7.0 F500
M03  S187
G01 X59.5 Y7.0 F500
M03  S181
G01 X60.0 Y7.0 F500
M03  S178
G01 X60.5 Y7.0 F500
M03  S176
G01 X61.0 Y7.0 F500
M03  S173
G01 X61.5 Y7.0 F500
M03  S168
G01 X62.0 Y7.0 F500
M03  S167
G01 X62.5 Y7.0 F500
M03  S162
G01 X63.0 Y7.0 F500
M03  S161
G01 X63.5 Y7.0 F500
M03  S164
G01 X64.0 Y7.0 F500
M03  S172
G01 X64.5 Y7.0 F500
M03  S176
G01 X65.0 Y7.0 F500
M03  S175
G01 X65.5 Y7.0 F500
M03  S179
G01 X66.0 Y7.0 F500
M03  S183
G01 X66.5 Y7.0 F500
M03  S182
G01 X67.0 Y7.0 F500
M03  S173
G01 X67.5 Y7.0 F500
M03  S170
G01 X68.0 Y7.0 F500
M03  S181
G01 X68.5 Y7.0 F500
M03  S187
G01 X69.0 Y7.0 F500
M03  S185
G01 X69.5 Y7.0 F500
M03  S150
G01 X70.0 Y7.0 F500
M03  S95
G01 X70.5 Y7.0 F500
M03  S52
G01 X71.0 Y7.0 F500
M03  S30
G01 X71.5 Y7.0 F500
M03  S27
G01 X72.5 Y7.0 F500
M03  S29
G01 X73.0 Y7.0 F500
M03  S33
G01 X73.5 Y7.0 F500
M03  S37
G01 X74.5 Y7.0 F500
M03  S38
G01 X75.0 Y7.0 F500
M03  S39
G01 X75.5 Y7.0 F500
M03  S38
G01 X76.0 Y7.0 F500
M03  S36
G01 X76.5 Y7.0 F500
M03  S37
G01 X77.0 Y7.0 F500
M03  S41
G01 X77.5 Y7.0 F500
M03  S42
G01 X78.0 Y7.0 F500
M03  S39
G01 X78.5 Y7.0 F500
M03  S37
G01 X79.0 Y7.0 F500
M03  S41
G01 X79.5 Y7.0 F500
M03  S46
G01 X80.0 Y7.0 F500
M03  S49
G01 X80.5 Y7.0 F500
M03  S51
G01 X81.0 Y7.0 F500
M03  S50
G01 X82.0 Y7.0 F500
M03  S49
G01 X82.5 Y7.0 F500
M03  S50
G01 X83.5 Y7.0 F500
M03  S51
G01 X84.0 Y7.0 F500
M03  S50
G01 X85.0 Y7.0 F500
M03  S49
G01 X85.5 Y7.0 F500
M03  S47
G01 X86.0 Y7.0 F500
M03  S45
G01 X86.5 Y7.0 F500
M03  S42
G01 X87.0 Y7.0 F500
M03  S47
G01 X87.5 Y7.0 F500
M03  S56
G01 X88.0 Y7.0 F500
M03  S60
G01 X88.5 Y7.0 F500
M03  S61
G01 X90.5 Y7.0 F500
M03  S60
G01 X91.0 Y7.0 F500
M03  S58
G01 X91.5 Y7.0 F500
M03  S49
G01 X92.0 Y7.0 F500
M03  S38
G01 X92.5 Y7.0 F500
M03  S27
G01 X93.0 Y7.0 F500
M03  S23
G01 X93.5 Y7.0 F500
M03  S22
G01 X94.0 Y7.0 F500
M03  S23
G01 X95.0 Y7.0 F500
M03  S24
G01 X95.5 Y7.0 F500
M03  S27
G01 X96.5 Y7.0 F500
M03  S23
G01 X97.0 Y7.0 F500
M03  S9
G01 X97.5 Y7.0 F500
M03  S3
G01 X98.5 Y7.0 F500
M05
G00 X98.5 Y7.5
M03  S3
G01 X97.5 Y7.5 F500
M03  S10
G01 X97.0 Y7.5 F500
M03  S24
G01 X96.5 Y7.5 F500
M03  S28
G01 X96.0 Y7.5 F500
M03  S30
G01 X95.0 Y7.5 F500
M03  S29
G01 X94.5 Y7.5 F500
M03  S27
G01 X94.0 Y7.5 F500
M03  S26
G01 X93.5 Y7.5 F500
M03  S24
G01 X92.5 Y7.5 F500
M03  S31
G01 X92.0 Y7.5 F500
M03  S43
G01 X91.5 Y7.5 F500
M03  S56
G01 X91.0 Y7.5 F500
M03  S66
G01 X90.5 Y7.5 F500
M03  S67
G01 X90.0 Y7.5 F500
M03  S65
G01 X89.5 Y7.5 F500
M03  S63
G01 X88.0 Y7.5 F500
M03  S61
G01 X87.5 Y7.5 F500
M03  S53
G01 X87.0 Y7.5 F500
M03  S44
G01 X86.5 Y7.5 F500
M03  S41
G01 X86.0 Y7.5 F500
M03  S40
G01 X85.5 Y7.5 F500
M03  S43
G01 X85.0 Y7.5 F500
M03  S45
G01 X84.5 Y7.5 F500
M03  S50
G01 X84.0 Y7.5 F500
M03  S53
G01 X83.0 Y7.5 F500
M03  S52
G01 X82.0 Y7.5 F500
M03  S56
G01 X81.5 Y7.5 F500
M03  S59
G01 X81.0 Y7.5 F500
M03  S55
G01 X80.5 Y7.5 F500
M03  S47
G01 X80.0 Y7.5 F500
M03  S37
G01 X79.5 Y7.5 F500
M03  S27
G01 X79.0 Y7.5 F500
M03  S25
G01 X78.5 Y7.5 F500
M03  S29
G01 X78.0 Y7.5 F500
M03  S37
G01 X77.5 Y7.5 F500
M03  S46
G01 X77.0 Y7.5 F500
M03  S48
G01 X76.0 Y7.5 F500
M03  S46
G01 X75.5 Y7.5 F500
M03  S43
G01 X75.0 Y7.5 F500
M03  S40
G01 X74.5 Y7.5 F500
M03  S39
G01 X74.0 Y7.5 F500
M03  S37
G01 X73.5 Y7.5 F500
M03  S31
G01 X73.0 Y7.5 F500
M03  S27
G01 X72.5 Y7.5 F500
M03  S21
G01 X72.0 Y7.5 F500
M03  S23
G01 X71.5 Y7.5 F500
M03  S30
G01 X71.0 Y7.5 F500
M03  S55
G01 X70.5 Y7.5 F500
M03  S105
G01 X70.0 Y7.5 F500
M03  S160
G01 X69.5 Y7.5 F500
M03  S200
G01 X69.0 Y7.5 F500
M03  S211
G01 X68.5 Y7.5 F500
M03  S210
G01 X68.0 Y7.5 F500
M03  S201
G01 X67.5 Y7.5 F500
M03  S196
G01 X67.0 Y7.5 F500
M03  S201
G01 X66.5 Y7.5 F500
M03  S211
G01 X65.0 Y7.5 F500
M03  S208
G01 X64.5 Y7.5 F500
M03  S196
G01 X63.5 Y7.5 F500
M03  S189
G01 X63.0 Y7.5 F500
M03  S192
G01 X62.5 Y7.5 F500
M03  S193
G01 X62.0 Y7.5 F500
M03  S195
G01 X61.5 Y7.5 F500
M03  S196
G01 X61.0 Y7.5 F500
M03  S200
G01 X60.5 Y7.5 F500
M03  S201
G01 X60.0 Y7.5 F500
M03  S208
G01 X59.5 Y7.5 F500
M03  S214
G01 X59.0 Y7.5 F500
M03  S231
G01 X58.5 Y7.5 F500
M03  S193
G01 X58.0 Y7.5 F500
M03  S135
G01 X57.5 Y7.5 F500
M03  S120
G01 X57.0 Y7.5 F500
M03  S101
G01 X56.5 Y7.5 F500
M03  S86
G01 X56.0 Y7.5 F500
M03  S79
G01 X55.5 Y7.5 F500
M03  S74
G01 X55.0 Y7.5 F500
M03  S72
G01 X54.5 Y7.5 F500
M03  S77
G01 X54.0 Y7.5 F500
M03  S82
G01 X53.5 Y7.5 F500
M03  S102
G01 X53.0 Y7.5 F500
M03  S120
G01 X52.5 Y7.5 F500
M03  S138
G01 X52.0 Y7.5 F500
M03  S176
G01 X51.5 Y7.5 F500
M03  S202
G01 X51.0 Y7.5 F500
M03  S160
G01 X50.5 Y7.5 F500
M03  S108
G01 X50.0 Y7.5 F500
M03  S155
G01 X49.5 Y7.5 F500
M03  S82
G01 X49.0 Y7.5 F500
M03  S77
G01 X48.5 Y7.5 F500
M03  S78
G01 X48.0 Y7.5 F500
M03  S73
G01 X47.5 Y7.5 F500
M03  S62
G01 X47.0 Y7.5 F500
M03  S54
G01 X46.5 Y7.5 F500
M03  S58
G01 X46.0 Y7.5 F500
M03  S88
G01 X45.5 Y7.5 F500
M03  S130
G01 X45.0 Y7.5 F500
M03  S123
G01 X44.5 Y7.5 F500
M03  S133
G01 X44.0 Y7.5 F500
M03  S199
G01 X43.5 Y7.5 F500
M03  S220
G01 X42.5 Y7.5 F500
M03  S226
G01 X42.0 Y7.5 F500
M03  S223
G01 X41.5 Y7.5 F500
M03  S227
G01 X41.0 Y7.5 F500
M03  S226
G01 X40.5 Y7.5 F500
M03  S224
G01 X40.0 Y7.5 F500
M03  S221
G01 X39.5 Y7.5 F500
M03  S211
G01 X39.0 Y7.5 F500
M03  S176
G01 X38.5 Y7.5 F500
M03  S169
G01 X38.0 Y7.5 F500
M03  S155
G01 X37.5 Y7.5 F500
M03  S151
G01 X37.0 Y7.5 F500
M03  S77
G01 X36.5 Y7.5 F500
M03  S54
G01 X36.0 Y7.5 F500
M03  S49
G01 X35.5 Y7.5 F500
M03  S53
G01 X35.0 Y7.5 F500
M03  S55
G01 X34.5 Y7.5 F500
M03  S63
G01 X34.0 Y7.5 F500
M03  S81
G01 X33.5 Y7.5 F500
M03  S84
G01 X33.0 Y7.5 F500
M03  S86
G01 X32.5 Y7.5 F500
M03  S73
G01 X32.0 Y7.5 F500
M03  S91
G01 X31.5 Y7.5 F500
M03  S114
G01 X30.5 Y7.5 F500
M03  S78
G01 X30.0 Y7.5 F500
M03  S83
G01 X29.5 Y7.5 F500
M03  S97
G01 X29.0 Y7.5 F500
M03  S94
G01 X28.5 Y7.5 F500
M03  S100
G01 X28.0 Y7.5 F500
M03  S88
G01 X27.5 Y7.5 F500
M03  S106
G01 X27.0 Y7.5 F500
M03  S114
G01 X26.5 Y7.5 F500
M03  S95
G01 X26.0 Y7.5 F500
M03  S59
G01 X25.5 Y7.5 F500
M03  S38
G01 X25.0 Y7.5 F500
M03  S29
G01 X24.5 Y7.5 F500
M03  S25
G01 X24.0 Y7.5 F500
M03  S21
G01 X23.5 Y7.5 F500
M03  S20
G01 X23.0 Y7.5 F500
M03  S23
G01 X22.5 Y7.5 F500
M03  S26
G01 X22.0 Y7.5 F500
M03  S28
G01 X21.0 Y7.5 F500
M03  S30
G01 X20.5 Y7.5 F500
M03  S33
G01 X20.0 Y7.5 F500
M03  S35
G01 X19.5 Y7.5 F500
M03  S37
G01 X19.0 Y7.5 F500
M03  S39
G01 X18.5 Y7.5 F500
M03  S41
G01 X18.0 Y7.5 F500
M03  S43
G01 X17.5 Y7.5 F500
M03  S44
G01 X17.0 Y7.5 F500
M03  S49
G01 X16.5 Y7.5 F500
M03  S58
G01 X16.0 Y7.5 F500
M03  S67
G01 X15.5 Y7.5 F500
M03  S71
G01 X15.0 Y7.5 F500
M03  S74
G01 X13.0 Y7.5 F500
M03  S75
G01 X12.5 Y7.5 F500
M03  S73
G01 X12.0 Y7.5 F500
M03  S70
G01 X11.5 Y7.5 F500
M03  S68
G01 X11.0 Y7.5 F500
M03  S67
G01 X10.5 Y7.5 F500
M03  S68
G01 X10.0 Y7.5 F500
M03  S69
G01 X9.0 Y7.5 F500
M03  S70
G01 X8.5 Y7.5 F500
M03  S74
G01 X7.5 Y7.5 F500
M03  S72
G01 X6.5 Y7.5 F500
M03  S71
G01 X6.0 Y7.5 F500
M03  S73
G01 X4.0 Y7.5 F500
M03  S70
G01 X3.5 Y7.5 F500
M03  S68
G01 X3.0 Y7.5 F500
M03  S64
G01 X2.5 Y7.5 F500
M03  S61
G01 X2.0 Y7.5 F500
M03  S56
G01 X1.5 Y7.5 F500
M03  S52
G01 X1.0 Y7.5 F500
M03  S6
G01 X0.5 Y7.5 F500
M03  S3
G01 X0.0 Y7.5 F500
M05
G00 X0.0 Y8.0
M03  S3
G01 X0.5 Y8.0 F500
M03  S7
G01 X1.0 Y8.0 F500
M03  S62
G01 X1.5 Y8.0 F500
M03  S66
G01 X2.0 Y8.0 F500
M03  S68
G01 X2.5 Y8.0 F500
M03  S70
G01 X3.0 Y8.0 F500
M03  S73
G01 X3.5 Y8.0 F500
M03  S75
G01 X4.0 Y8.0 F500
M03  S73
G01 X4.5 Y8.0 F500
M03  S72
G01 X5.5 Y8.0 F500
M03  S73
G01 X6.0 Y8.0 F500
M03  S74
G01 X6.5 Y8.0 F500
M03  S75
G01 X7.5 Y8.0 F500
M03  S71
G01 X8.0 Y8.0 F500
M03  S64
G01 X8.5 Y8.0 F500
M03  S58
G01 X9.0 Y8.0 F500
M03  S56
G01 X9.5 Y8.0 F500
M03  S58
G01 X10.0 Y8.0 F500
M03  S60
G01 X10.5 Y8.0 F500
M03  S62
G01 X11.0 Y8.0 F500
M03  S61
G01 X11.5 Y8.0 F500
M03  S62
G01 X12.0 Y8.0 F500
M03  S65
G01 X12.5 Y8.0 F500
M03  S67
G01 X13.5 Y8.0 F500
M03  S69
G01 X14.0 Y8.0 F500
M03  S73
G01 X14.5 Y8.0 F500
M03  S76
G01 X15.0 Y8.0 F500
M03  S74
G01 X15.5 Y8.0 F500
M03  S69
G01 X16.0 Y8.0 F500
M03  S63
G01 X16.5 Y8.0 F500
M03  S57
G01 X17.0 Y8.0 F500
M03  S53
G01 X17.5 Y8.0 F500
M03  S51
G01 X18.5 Y8.0 F500
M03  S50
G01 X19.0 Y8.0 F500
M03  S45
G01 X19.5 Y8.0 F500
M03  S42
G01 X20.0 Y8.0 F500
M03  S40
G01 X20.5 Y8.0 F500
M03  S36
G01 X21.0 Y8.0 F500
M03  S33
G01 X21.5 Y8.0 F500
M03  S31
G01 X22.0 Y8.0 F500
M03  S30
G01 X22.5 Y8.0 F500
M03  S29
G01 X23.0 Y8.0 F500
M03  S30
G01 X23.5 Y8.0 F500
M03  S33
G01 X24.0 Y8.0 F500
M03  S37
G01 X24.5 Y8.0 F500
M03  S38
G01 X25.5 Y8.0 F500
M03  S43
G01 X26.0 Y8.0 F500
M03  S57
G01 X26.5 Y8.0 F500
M03  S95
G01 X27.0 Y8.0 F500
M03  S102
G01 X27.5 Y8.0 F500
M03  S91
G01 X28.0 Y8.0 F500
M03  S89
G01 X28.5 Y8.0 F500
M03  S103
G01 X29.0 Y8.0 F500
M03  S101
G01 X30.0 Y8.0 F500
M03  S108
G01 X30.5 Y8.0 F500
M03  S110
G01 X31.0 Y8.0 F500
M03  S114
G01 X31.5 Y8.0 F500
M03  S84
G01 X32.0 Y8.0 F500
M03  S77
G01 X32.5 Y8.0 F500
M03  S64
G01 X33.0 Y8.0 F500
M03  S54
G01 X33.5 Y8.0 F500
M03  S57
G01 X34.5 Y8.0 F500
M03  S58
G01 X35.0 Y8.0 F500
M03  S57
G01 X35.5 Y8.0 F500
M03  S60
G01 X36.0 Y8.0 F500
M03  S73
G01 X36.5 Y8.0 F500
M03  S157
G01 X37.0 Y8.0 F500
M03  S135
G01 X37.5 Y8.0 F500
M03  S150
G01 X38.0 Y8.0 F500
M03  S184
G01 X38.5 Y8.0 F500
M03  S211
G01 X39.0 Y8.0 F500
M03  S228
G01 X39.5 Y8.0 F500
M03  S224
G01 X40.0 Y8.0 F500
M03  S226
G01 X40.5 Y8.0 F500
M03  S227
G01 X41.0 Y8.0 F500
M03  S225
G01 X41.5 Y8.0 F500
M03  S216
G01 X42.0 Y8.0 F500
M03  S201
G01 X42.5 Y8.0 F500
M03  S191
G01 X43.0 Y8.0 F500
M03  S178
G01 X43.5 Y8.0 F500
M03  S182
G01 X44.0 Y8.0 F500
M03  S96
G01 X44.5 Y8.0 F500
M03  S73
G01 X45.0 Y8.0 F500
M03  S111
G01 X45.5 Y8.0 F500
M03  S83
G01 X46.0 Y8.0 F500
M03  S57
G01 X46.5 Y8.0 F500
M03  S53
G01 X47.0 Y8.0 F500
M03  S51
G01 X47.5 Y8.0 F500
M03  S68
G01 X48.0 Y8.0 F500
M03  S74
G01 X48.5 Y8.0 F500
M03  S78
G01 X49.0 Y8.0 F500
M03  S90
G01 X49.5 Y8.0 F500
M03  S102
G01 X50.0 Y8.0 F500
M03  S66
G01 X50.5 Y8.0 F500
M03  S123
G01 X51.0 Y8.0 F500
M03  S114
G01 X51.5 Y8.0 F500
M03  S132
G01 X52.0 Y8.0 F500
M03  S136
G01 X52.5 Y8.0 F500
M03  S110
G01 X53.0 Y8.0 F500
M03  S100
G01 X53.5 Y8.0 F500
M03  S77
G01 X54.0 Y8.0 F500
M03  S75
G01 X54.5 Y8.0 F500
M03  S88
G01 X55.0 Y8.0 F500
M03  S82
G01 X55.5 Y8.0 F500
M03  S83
G01 X56.0 Y8.0 F500
M03  S86
G01 X56.5 Y8.0 F500
M03  S97
G01 X57.0 Y8.0 F500
M03  S120
G01 X57.5 Y8.0 F500
M03  S169
G01 X58.0 Y8.0 F500
M03  S202
G01 X58.5 Y8.0 F500
M03  S217
G01 X59.0 Y8.0 F500
M03  S214
G01 X59.5 Y8.0 F500
M03  S212
G01 X60.0 Y8.0 F500
M03  S207
G01 X60.5 Y8.0 F500
M03  S205
G01 X61.0 Y8.0 F500
M03  S202
G01 X61.5 Y8.0 F500
M03  S197
G01 X62.0 Y8.0 F500
M03  S195
G01 X62.5 Y8.0 F500
M03  S190
G01 X63.0 Y8.0 F500
M03  S195
G01 X63.5 Y8.0 F500
M03  S206
G01 X64.0 Y8.0 F500
M03  S214
G01 X65.5 Y8.0 F500
M03  S211
G01 X66.0 Y8.0 F500
M03  S204
G01 X66.5 Y8.0 F500
M03  S198
G01 X67.0 Y8.0 F500
M03  S204
G01 X67.5 Y8.0 F500
M03  S211
G01 X68.0 Y8.0 F500
M03  S210
G01 X68.5 Y8.0 F500
M03  S202
G01 X69.0 Y8.0 F500
M03  S189
G01 X69.5 Y8.0 F500
M03  S152
G01 X70.0 Y8.0 F500
M03  S101
G01 X70.5 Y8.0 F500
M03  S49
G01 X71.0 Y8.0 F500
M03  S25
G01 X71.5 Y8.0 F500
M03  S18
G01 X72.0 Y8.0 F500
M03  S16
G01 X72.5 Y8.0 F500
M03  S18
G01 X73.0 Y8.0 F500
M03  S21
G01 X73.5 Y8.0 F500
M03  S25
G01 X74.0 Y8.0 F500
M03  S26
G01 X74.5 Y8.0 F500
M03  S29
G01 X75.0 Y8.0 F500
M03  S31
G01 X75.5 Y8.0 F500
M03  S32
G01 X76.0 Y8.0 F500
M03  S34
G01 X76.5 Y8.0 F500
M03  S33
G01 X77.0 Y8.0 F500
M03  S31
G01 X77.5 Y8.0 F500
M03  S23
G01 X78.0 Y8.0 F500
M03  S15
G01 X78.5 Y8.0 F500
M03  S11
G01 X79.0 Y8.0 F500
M03  S14
G01 X79.5 Y8.0 F500
M03  S22
G01 X80.0 Y8.0 F500
M03  S32
G01 X80.5 Y8.0 F500
M03  S41
G01 X81.0 Y8.0 F500
M03  S50
G01 X81.5 Y8.0 F500
M03  S52
G01 X82.0 Y8.0 F500
M03  S51
G01 X82.5 Y8.0 F500
M03  S50
G01 X83.0 Y8.0 F500
M03  S51
G01 X83.5 Y8.0 F500
M03  S52
G01 X84.0 Y8.0 F500
M03  S48
G01 X84.5 Y8.0 F500
M03  S40
G01 X85.0 Y8.0 F500
M03  S33
G01 X85.5 Y8.0 F500
M03  S31
G01 X86.5 Y8.0 F500
M03  S33
G01 X87.0 Y8.0 F500
M03  S42
G01 X87.5 Y8.0 F500
M03  S51
G01 X88.0 Y8.0 F500
M03  S56
G01 X88.5 Y8.0 F500
M03  S57
G01 X89.0 Y8.0 F500
M03  S61
G01 X89.5 Y8.0 F500
M03  S65
G01 X90.0 Y8.0 F500
M03  S63
G01 X90.5 Y8.0 F500
M03  S56
G01 X91.0 Y8.0 F500
M03  S43
G01 X91.5 Y8.0 F500
M03  S32
G01 X92.0 Y8.0 F500
M03  S24
G01 X92.5 Y8.0 F500
M03  S22
G01 X93.0 Y8.0 F500
M03  S24
G01 X93.5 Y8.0 F500
M03  S27
G01 X94.0 Y8.0 F500
M03  S29
G01 X94.5 Y8.0 F500
M03  S31
G01 X95.0 Y8.0 F500
M03  S32
G01 X95.5 Y8.0 F500
M03  S31
G01 X96.0 Y8.0 F500
M03  S29
G01 X96.5 Y8.0 F500
M03  S27
G01 X97.0 Y8.0 F500
M03  S12
G01 X97.5 Y8.0 F500
M03  S3
G01 X98.5 Y8.0 F500
M05
G00 X98.5 Y8.5
M03  S3
G01 X97.5 Y8.5 F500
M03  S14
G01 X97.0 Y8.5 F500
M03  S31
G01 X96.5 Y8.5 F500
M03  S32
G01 X96.0 Y8.5 F500
M03  S33
G01 X94.5 Y8.5 F500
M03  S31
G01 X94.0 Y8.5 F500
M03  S28
G01 X93.5 Y8.5 F500
M03  S25
G01 X93.0 Y8.5 F500
M03  S23
G01 X92.0 Y8.5 F500
M03  S24
G01 X91.5 Y8.5 F500
M03  S31
G01 X91.0 Y8.5 F500
M03  S43
G01 X90.5 Y8.5 F500
M03  S58
G01 X90.0 Y8.5 F500
M03  S66
G01 X89.5 Y8.5 F500
M03  S65
G01 X89.0 Y8.5 F500
M03  S59
G01 X88.5 Y8.5 F500
M03  S51
G01 X88.0 Y8.5 F500
M03  S43
G01 X87.5 Y8.5 F500
M03  S34
G01 X87.0 Y8.5 F500
M03  S29
G01 X86.5 Y8.5 F500
M03  S28
G01 X86.0 Y8.5 F500
M03  S29
G01 X85.5 Y8.5 F500
M03  S34
G01 X85.0 Y8.5 F500
M03  S43
G01 X84.5 Y8.5 F500
M03  S47
G01 X84.0 Y8.5 F500
M03  S46
G01 X83.5 Y8.5 F500
M03  S45
G01 X82.5 Y8.5 F500
M03  S47
G01 X82.0 Y8.5 F500
M03  S46
G01 X81.5 Y8.5 F500
M03  S39
G01 X81.0 Y8.5 F500
M03  S29
G01 X80.5 Y8.5 F500
M03  S21
G01 X80.0 Y8.5 F500
M03  S15
G01 X79.5 Y8.5 F500
M03  S12
G01 X79.0 Y8.5 F500
M03  S11
G01 X78.0 Y8.5 F500
M03  S15
G01 X77.5 Y8.5 F500
M03  S17
G01 X77.0 Y8.5 F500
M03  S20
G01 X76.5 Y8.5 F500
M03  S21
G01 X75.5 Y8.5 F500
M03  S19
G01 X75.0 Y8.5 F500
M03  S18
G01 X74.5 Y8.5 F500
M03  S17
G01 X74.0 Y8.5 F500
M03  S16
G01 X72.5 Y8.5 F500
M03  S15
G01 X72.0 Y8.5 F500
M03  S19
G01 X71.5 Y8.5 F500
M03  S24
G01 X71.0 Y8.5 F500
M03  S37
G01 X70.5 Y8.5 F500
M03  S59
G01 X70.0 Y8.5 F500
M03  S119
G01 X69.5 Y8.5 F500
M03  S181
G01 X69.0 Y8.5 F500
M03  S193
G01 X68.5 Y8.5 F500
M03  S199
G01 X68.0 Y8.5 F500
M03  S206
G01 X67.5 Y8.5 F500
M03  S208
G01 X67.0 Y8.5 F500
M03  S206
G01 X66.5 Y8.5 F500
M03  S202
G01 X66.0 Y8.5 F500
M03  S199
G01 X65.5 Y8.5 F500
M03  S202
G01 X65.0 Y8.5 F500
M03  S213
G01 X64.5 Y8.5 F500
M03  S217
G01 X64.0 Y8.5 F500
M03  S210
G01 X63.5 Y8.5 F500
M03  S199
G01 X63.0 Y8.5 F500
M03  S194
G01 X62.0 Y8.5 F500
M03  S198
G01 X61.5 Y8.5 F500
M03  S202
G01 X61.0 Y8.5 F500
M03  S206
G01 X60.5 Y8.5 F500
M03  S211
G01 X60.0 Y8.5 F500
M03  S219
G01 X59.5 Y8.5 F500
M03  S220
G01 X59.0 Y8.5 F500
M03  S202
G01 X58.5 Y8.5 F500
M03  S180
G01 X58.0 Y8.5 F500
M03  S152
G01 X57.5 Y8.5 F500
M03  S103
G01 X57.0 Y8.5 F500
M03  S89
G01 X56.5 Y8.5 F500
M03  S90
G01 X56.0 Y8.5 F500
M03  S93
G01 X55.5 Y8.5 F500
M03  S89
G01 X55.0 Y8.5 F500
M03  S83
G01 X54.5 Y8.5 F500
M03  S69
G01 X54.0 Y8.5 F500
M03  S66
G01 X53.5 Y8.5 F500
M03  S78
G01 X53.0 Y8.5 F500
M03  S81
G01 X52.5 Y8.5 F500
M03  S102
G01 X52.0 Y8.5 F500
M03  S115
G01 X51.5 Y8.5 F500
M03  S87
G01 X51.0 Y8.5 F500
M03  S92
G01 X50.5 Y8.5 F500
M03  S80
G01 X50.0 Y8.5 F500
M03  S91
G01 X49.5 Y8.5 F500
M03  S98
G01 X49.0 Y8.5 F500
M03  S74
G01 X48.5 Y8.5 F500
M03  S68
G01 X47.5 Y8.5 F500
M03  S53
G01 X47.0 Y8.5 F500
M03  S56
G01 X46.5 Y8.5 F500
M03  S63
G01 X46.0 Y8.5 F500
M03  S91
G01 X45.5 Y8.5 F500
M03  S74
G01 X45.0 Y8.5 F500
M03  S63
G01 X44.5 Y8.5 F500
M03  S74
G01 X44.0 Y8.5 F500
M03  S150
G01 X43.5 Y8.5 F500
M03  S124
G01 X43.0 Y8.5 F500
M03  S122
G01 X42.5 Y8.5 F500
M03  S183
G01 X42.0 Y8.5 F500
M03  S209
G01 X41.5 Y8.5 F500
M03  S212
G01 X41.0 Y8.5 F500
M03  S206
G01 X40.5 Y8.5 F500
M03  S227
G01 X40.0 Y8.5 F500
M03  S225
G01 X39.5 Y8.5 F500
M03  S229
G01 X39.0 Y8.5 F500
M03  S211
G01 X38.5 Y8.5 F500
M03  S199
G01 X38.0 Y8.5 F500
M03  S202
G01 X37.5 Y8.5 F500
M03  S153
G01 X37.0 Y8.5 F500
M03  S184
G01 X36.5 Y8.5 F500
M03  S120
G01 X36.0 Y8.5 F500
M03  S88
G01 X35.5 Y8.5 F500
M03  S71
G01 X35.0 Y8.5 F500
M03  S58
G01 X34.5 Y8.5 F500
M03  S52
G01 X34.0 Y8.5 F500
M03  S49
G01 X33.5 Y8.5 F500
M03  S53
G01 X33.0 Y8.5 F500
M03  S54
G01 X32.0 Y8.5 F500
M03  S94
G01 X31.5 Y8.5 F500
M03  S135
G01 X31.0 Y8.5 F500
M03  S133
G01 X30.5 Y8.5 F500
M03  S128
G01 X30.0 Y8.5 F500
M03  S134
G01 X29.5 Y8.5 F500
M03  S139
G01 X29.0 Y8.5 F500
M03  S142
G01 X28.5 Y8.5 F500
M03  S118
G01 X28.0 Y8.5 F500
M03  S115
G01 X27.5 Y8.5 F500
M03  S106
G01 X27.0 Y8.5 F500
M03  S92
G01 X26.5 Y8.5 F500
M03  S60
G01 X26.0 Y8.5 F500
M03  S33
G01 X25.5 Y8.5 F500
M03  S29
G01 X25.0 Y8.5 F500
M03  S35
G01 X24.5 Y8.5 F500
M03  S40
G01 X24.0 Y8.5 F500
M03  S43
G01 X23.5 Y8.5 F500
M03  S42
G01 X23.0 Y8.5 F500
M03  S40
G01 X22.5 Y8.5 F500
M03  S38
G01 X22.0 Y8.5 F500
M03  S35
G01 X21.5 Y8.5 F500
M03  S34
G01 X21.0 Y8.5 F500
M03  S33
G01 X20.0 Y8.5 F500
M03  S36
G01 X19.5 Y8.5 F500
M03  S41
G01 X19.0 Y8.5 F500
M03  S49
G01 X18.5 Y8.5 F500
M03  S54
G01 X17.5 Y8.5 F500
M03  S56
G01 X17.0 Y8.5 F500
M03  S61
G01 X16.5 Y8.5 F500
M03  S68
G01 X16.0 Y8.5 F500
M03  S73
G01 X15.5 Y8.5 F500
M03  S77
G01 X15.0 Y8.5 F500
M03  S79
G01 X14.5 Y8.5 F500
M03  S75
G01 X14.0 Y8.5 F500
M03  S69
G01 X13.5 Y8.5 F500
M03  S65
G01 X13.0 Y8.5 F500
M03  S63
G01 X12.5 Y8.5 F500
M03  S59
G01 X12.0 Y8.5 F500
M03  S53
G01 X11.5 Y8.5 F500
M03  S48
G01 X11.0 Y8.5 F500
M03  S44
G01 X10.5 Y8.5 F500
M03  S42
G01 X10.0 Y8.5 F500
M03  S39
G01 X9.5 Y8.5 F500
M03  S37
G01 X9.0 Y8.5 F500
M03  S41
G01 X8.5 Y8.5 F500
M03  S50
G01 X8.0 Y8.5 F500
M03  S64
G01 X7.5 Y8.5 F500
M03  S72
G01 X7.0 Y8.5 F500
M03  S71
G01 X6.5 Y8.5 F500
M03  S67
G01 X6.0 Y8.5 F500
M03  S62
G01 X5.5 Y8.5 F500
M03  S60
G01 X5.0 Y8.5 F500
M03  S61
G01 X4.5 Y8.5 F500
M03  S64
G01 X4.0 Y8.5 F500
M03  S69
G01 X3.5 Y8.5 F500
M03  S73
G01 X3.0 Y8.5 F500
M03  S74
G01 X2.5 Y8.5 F500
M03  S72
G01 X2.0 Y8.5 F500
M03  S70
G01 X1.5 Y8.5 F500
M03  S67
G01 X1.0 Y8.5 F500
M03  S7
G01 X0.5 Y8.5 F500
M03  S3
G01 X0.0 Y8.5 F500
M05
G00 X0.0 Y9.0
M03  S3
G01 X0.5 Y9.0 F500
M03  S7
G01 X1.0 Y9.0 F500
M03  S70
G01 X1.5 Y9.0 F500
M03  S71
G01 X2.0 Y9.0 F500
M03  S73
G01 X2.5 Y9.0 F500
M03  S74
G01 X3.0 Y9.0 F500
M03  S68
G01 X3.5 Y9.0 F500
M03  S61
G01 X4.0 Y9.0 F500
M03  S54
G01 X4.5 Y9.0 F500
M03  S48
G01 X5.5 Y9.0 F500
M03  S53
G01 X6.0 Y9.0 F500
M03  S62
G01 X6.5 Y9.0 F500
M03  S69
G01 X7.0 Y9.0 F500
M03  S73
G01 X7.5 Y9.0 F500
M03  S61
G01 X8.0 Y9.0 F500
M03  S43
G01 X8.5 Y9.0 F500
M03  S30
G01 X9.0 Y9.0 F500
M03  S25
G01 X9.5 Y9.0 F500
M03  S26
G01 X10.0 Y9.0 F500
M03  S28
G01 X10.5 Y9.0 F500
M03  S31
G01 X11.0 Y9.0 F500
M03  S35
G01 X11.5 Y9.0 F500
M03  S41
G01 X12.0 Y9.0 F500
M03  S51
G01 X12.5 Y9.0 F500
M03  S62
G01 X13.0 Y9.0 F500
M03  S69
G01 X13.5 Y9.0 F500
M03  S74
G01 X14.0 Y9.0 F500
M03  S76
G01 X14.5 Y9.0 F500
M03  S77
G01 X15.0 Y9.0 F500
M03  S76
G01 X15.5 Y9.0 F500
M03  S73
G01 X16.0 Y9.0 F500
M03  S68
G01 X16.5 Y9.0 F500
M03  S60
G01 X17.0 Y9.0 F500
M03  S54
G01 X17.5 Y9.0 F500
M03  S51
G01 X18.0 Y9.0 F500
M03  S48
G01 X18.5 Y9.0 F500
M03  S39
G01 X19.0 Y9.0 F500
M03  S29
G01 X19.5 Y9.0 F500
M03  S22
G01 X20.0 Y9.0 F500
M03  S21
G01 X20.5 Y9.0 F500
M03  S22
G01 X21.0 Y9.0 F500
M03  S26
G01 X21.5 Y9.0 F500
M03  S31
G01 X22.0 Y9.0 F500
M03  S37
G01 X22.5 Y9.0 F500
M03  S42
G01 X23.0 Y9.0 F500
M03  S45
G01 X23.5 Y9.0 F500
M03  S42
G01 X24.0 Y9.0 F500
M03  S36
G01 X24.5 Y9.0 F500
M03  S27
G01 X25.0 Y9.0 F500
M03  S21
G01 X25.5 Y9.0 F500
M03  S20
G01 X26.0 Y9.0 F500
M03  S44
G01 X26.5 Y9.0 F500
M03  S90
G01 X27.0 Y9.0 F500
M03  S120
G01 X27.5 Y9.0 F500
M03  S106
G01 X28.0 Y9.0 F500
M03  S110
G01 X28.5 Y9.0 F500
M03  S145
G01 X29.0 Y9.0 F500
M03  S159
G01 X29.5 Y9.0 F500
M03  S107
G01 X30.0 Y9.0 F500
M03  S102
G01 X31.0 Y9.0 F500
M03  S121
G01 X31.5 Y9.0 F500
M03  S124
G01 X32.0 Y9.0 F500
M03  S76
G01 X32.5 Y9.0 F500
M03  S53
G01 X33.5 Y9.0 F500
M03  S54
G01 X34.0 Y9.0 F500
M03  S60
G01 X34.5 Y9.0 F500
M03  S68
G01 X35.0 Y9.0 F500
M03  S90
G01 X35.5 Y9.0 F500
M03  S114
G01 X36.0 Y9.0 F500
M03  S192
G01 X36.5 Y9.0 F500
M03  S205
G01 X37.0 Y9.0 F500
M03  S216
G01 X37.5 Y9.0 F500
M03  S195
G01 X38.0 Y9.0 F500
M03  S220
G01 X38.5 Y9.0 F500
M03  S232
G01 X39.0 Y9.0 F500
M03  S225
G01 X39.5 Y9.0 F500
M03  S213
G01 X40.0 Y9.0 F500
M03  S212
G01 X40.5 Y9.0 F500
M03  S194
G01 X41.0 Y9.0 F500
M03  S169
G01 X41.5 Y9.0 F500
M03  S175
G01 X42.5 Y9.0 F500
M03  S103
G01 X43.0 Y9.0 F500
M03  S87
G01 X43.5 Y9.0 F500
M03  S100
G01 X44.0 Y9.0 F500
M03  S76
G01 X44.5 Y9.0 F500
M03  S57
G01 X45.0 Y9.0 F500
M03  S48
G01 X45.5 Y9.0 F500
M03  S73
G01 X46.0 Y9.0 F500
M03  S61
G01 X47.0 Y9.0 F500
M03  S65
G01 X47.5 Y9.0 F500
M03  S70
G01 X48.0 Y9.0 F500
M03  S75
G01 X48.5 Y9.0 F500
M03  S70
G01 X49.0 Y9.0 F500
M03  S82
G01 X49.5 Y9.0 F500
M03  S86
G01 X50.0 Y9.0 F500
M03  S91
G01 X50.5 Y9.0 F500
M03  S82
G01 X51.0 Y9.0 F500
M03  S71
G01 X51.5 Y9.0 F500
M03  S72
G01 X52.0 Y9.0 F500
M03  S62
G01 X52.5 Y9.0 F500
M03  S65
G01 X53.0 Y9.0 F500
M03  S70
G01 X53.5 Y9.0 F500
M03  S55
G01 X54.0 Y9.0 F500
M03  S63
G01 X54.5 Y9.0 F500
M03  S83
G01 X55.0 Y9.0 F500
M03  S96
G01 X56.0 Y9.0 F500
M03  S97
G01 X57.0 Y9.0 F500
M03  S95
G01 X57.5 Y9.0 F500
M03  S100
G01 X58.0 Y9.0 F500
M03  S164
G01 X58.5 Y9.0 F500
M03  S211
G01 X59.0 Y9.0 F500
M03  S235
G01 X59.5 Y9.0 F500
M03  S225
G01 X60.0 Y9.0 F500
M03  S218
G01 X60.5 Y9.0 F500
M03  S210
G01 X61.0 Y9.0 F500
M03  S204
G01 X61.5 Y9.0 F500
M03  S200
G01 X62.0 Y9.0 F500
M03  S193
G01 X62.5 Y9.0 F500
M03  S194
G01 X63.0 Y9.0 F500
M03  S198
G01 X63.5 Y9.0 F500
M03  S196
G01 X64.0 Y9.0 F500
M03  S205
G01 X64.5 Y9.0 F500
M03  S203
G01 X65.0 Y9.0 F500
M03  S206
G01 X65.5 Y9.0 F500
M03  S203
G01 X66.0 Y9.0 F500
M03  S211
G01 X66.5 Y9.0 F500
M03  S212
G01 X67.0 Y9.0 F500
M03  S216
G01 X67.5 Y9.0 F500
M03  S223
G01 X68.0 Y9.0 F500
M03  S218
G01 X68.5 Y9.0 F500
M03  S197
G01 X69.0 Y9.0 F500
M03  S139
G01 X69.5 Y9.0 F500
M03  S70
G01 X70.0 Y9.0 F500
M03  S47
G01 X70.5 Y9.0 F500
M03  S38
G01 X71.0 Y9.0 F500
M03  S27
G01 X71.5 Y9.0 F500
M03  S20
G01 X72.0 Y9.0 F500
M03  S17
G01 X73.0 Y9.0 F500
M03  S18
G01 X75.0 Y9.0 F500
M03  S17
G01 X75.5 Y9.0 F500
M03  S16
G01 X77.0 Y9.0 F500
M03  S15
G01 X78.0 Y9.0 F500
M03  S14
G01 X78.5 Y9.0 F500
M03  S15
G01 X79.0 Y9.0 F500
M03  S16
G01 X79.5 Y9.0 F500
M03  S18
G01 X80.0 Y9.0 F500
M03  S19
G01 X80.5 Y9.0 F500
M03  S23
G01 X81.0 Y9.0 F500
M03  S30
G01 X81.5 Y9.0 F500
M03  S37
G01 X82.0 Y9.0 F500
M03  S39
G01 X82.5 Y9.0 F500
M03  S37
G01 X83.0 Y9.0 F500
M03  S36
G01 X83.5 Y9.0 F500
M03  S39
G01 X84.0 Y9.0 F500
M03  S45
G01 X84.5 Y9.0 F500
M03  S48
G01 X85.0 Y9.0 F500
M03  S44
G01 X85.5 Y9.0 F500
M03  S38
G01 X86.0 Y9.0 F500
M03  S32
G01 X86.5 Y9.0 F500
M03  S29
G01 X87.0 Y9.0 F500
M03  S32
G01 X87.5 Y9.0 F500
M03  S43
G01 X88.0 Y9.0 F500
M03  S54
G01 X88.5 Y9.0 F500
M03  S64
G01 X89.0 Y9.0 F500
M03  S68
G01 X89.5 Y9.0 F500
M03  S64
G01 X90.0 Y9.0 F500
M03  S52
G01 X90.5 Y9.0 F500
M03  S35
G01 X91.0 Y9.0 F500
M03  S26
G01 X91.5 Y9.0 F500
M03  S23
G01 X92.0 Y9.0 F500
M03  S25
G01 X92.5 Y9.0 F500
M03  S28
G01 X93.0 Y9.0 F500
M03  S29
G01 X93.5 Y9.0 F500
M03  S31
G01 X94.0 Y9.0 F500
M03  S33
G01 X95.0 Y9.0 F500
M03  S35
G01 X95.5 Y9.0 F500
M03  S36
G01 X96.0 Y9.0 F500
M03  S37
G01 X97.0 Y9.0 F500
M03  S16
G01 X97.5 Y9.0 F500
M03  S3
G01 X98.5 Y9.0 F500
M05
G00 X98.5 Y9.5
M03  S3
G01 X97.5 Y9.5 F500
M03  S20
G01 X97.0 Y9.5 F500
M03  S45
G01 X96.5 Y9.5 F500
M03  S46
G01 X96.0 Y9.5 F500
M03  S44
G01 X95.5 Y9.5 F500
M03  S38
G01 X95.0 Y9.5 F500
M03  S35
G01 X94.5 Y9.5 F500
M03  S34
G01 X94.0 Y9.5 F500
M03  S33
G01 X93.5 Y9.5 F500
M03  S32
G01 X93.0 Y9.5 F500
M03  S31
G01 X92.5 Y9.5 F500
M03  S27
G01 X92.0 Y9.5 F500
M03  S23
G01 X91.5 Y9.5 F500
M03  S24
G01 X91.0 Y9.5 F500
M03  S33
G01 X90.5 Y9.5 F500
M03  S47
G01 X90.0 Y9.5 F500
M03  S61
G01 X89.5 Y9.5 F500
M03  S68
G01 X89.0 Y9.5 F500
M03  S67
G01 X88.5 Y9.5 F500
M03  S59
G01 X88.0 Y9.5 F500
M03  S49
G01 X87.5 Y9.5 F500
M03  S42
G01 X87.0 Y9.5 F500
M03  S41
G01 X86.5 Y9.5 F500
M03  S45
G01 X86.0 Y9.5 F500
M03  S49
G01 X85.5 Y9.5 F500
M03  S51
G01 X85.0 Y9.5 F500
M03  S48
G01 X84.5 Y9.5 F500
M03  S39
G01 X84.0 Y9.5 F500
M03  S32
G01 X83.5 Y9.5 F500
M03  S34
G01 X83.0 Y9.5 F500
M03  S38
G01 X82.5 Y9.5 F500
M03  S42
G01 X82.0 Y9.5 F500
M03  S38
G01 X81.5 Y9.5 F500
M03  S30
G01 X81.0 Y9.5 F500
M03  S25
G01 X80.5 Y9.5 F500
M03  S22
G01 X80.0 Y9.5 F500
M03  S21
G01 X79.5 Y9.5 F500
M03  S20
G01 X76.0 Y9.5 F500
M03  S19
G01 X75.5 Y9.5 F500
M03  S20
G01 X75.0 Y9.5 F500
M03  S21
G01 X74.5 Y9.5 F500
M03  S20
G01 X74.0 Y9.5 F500
M03  S19
G01 X73.5 Y9.5 F500
M03  S18
G01 X73.0 Y9.5 F500
M03  S19
G01 X72.5 Y9.5 F500
M03  S20
G01 X72.0 Y9.5 F500
M03  S24
G01 X71.5 Y9.5 F500
M03  S27
G01 X71.0 Y9.5 F500
M03  S26
G01 X70.5 Y9.5 F500
M03  S23
G01 X70.0 Y9.5 F500
M03  S26
G01 X69.5 Y9.5 F500
M03  S43
G01 X69.0 Y9.5 F500
M03  S93
G01 X68.5 Y9.5 F500
M03  S178
G01 X68.0 Y9.5 F500
M03  S225
G01 X67.5 Y9.5 F500
M03  S227
G01 X67.0 Y9.5 F500
M03  S220
G01 X66.5 Y9.5 F500
M03  S211
G01 X66.0 Y9.5 F500
M03  S209
G01 X65.5 Y9.5 F500
M03  S216
G01 X65.0 Y9.5 F500
M03  S217
G01 X64.5 Y9.5 F500
M03  S213
G01 X64.0 Y9.5 F500
M03  S208
G01 X63.5 Y9.5 F500
M03  S198
G01 X62.0 Y9.5 F500
M03  S200
G01 X61.5 Y9.5 F500
M03  S205
G01 X61.0 Y9.5 F500
M03  S209
G01 X60.5 Y9.5 F500
M03  S200
G01 X60.0 Y9.5 F500
M03  S204
G01 X59.5 Y9.5 F500
M03  S224
G01 X59.0 Y9.5 F500
M03  S195
G01 X58.5 Y9.5 F500
M03  S141
G01 X58.0 Y9.5 F500
M03  S98
G01 X57.0 Y9.5 F500
M03  S103
G01 X56.5 Y9.5 F500
M03  S111
G01 X55.5 Y9.5 F500
M03  S101
G01 X55.0 Y9.5 F500
M03  S89
G01 X54.5 Y9.5 F500
M03  S87
G01 X54.0 Y9.5 F500
M03  S57
G01 X53.5 Y9.5 F500
M03  S48
G01 X53.0 Y9.5 F500
M03  S57
G01 X52.5 Y9.5 F500
M03  S54
G01 X52.0 Y9.5 F500
M03  S60
G01 X51.5 Y9.5 F500
M03  S58
G01 X51.0 Y9.5 F500
M03  S71
G01 X50.0 Y9.5 F500
M03  S68
G01 X49.5 Y9.5 F500
M03  S69
G01 X49.0 Y9.5 F500
M03  S65
G01 X48.5 Y9.5 F500
M03  S71
G01 X48.0 Y9.5 F500
M03  S62
G01 X47.5 Y9.5 F500
M03  S59
G01 X47.0 Y9.5 F500
M03  S60
G01 X46.5 Y9.5 F500
M03  S62
G01 X46.0 Y9.5 F500
M03  S63
G01 X45.5 Y9.5 F500
M03  S47
G01 X45.0 Y9.5 F500
M03  S44
G01 X44.5 Y9.5 F500
M03  S92
G01 X44.0 Y9.5 F500
M03  S78
G01 X43.5 Y9.5 F500
M03  S80
G01 X43.0 Y9.5 F500
M03  S92
G01 X42.5 Y9.5 F500
M03  S113
G01 X42.0 Y9.5 F500
M03  S101
G01 X41.5 Y9.5 F500
M03  S123
G01 X41.0 Y9.5 F500
M03  S168
G01 X40.5 Y9.5 F500
M03  S173
G01 X40.0 Y9.5 F500
M03  S195
G01 X39.5 Y9.5 F500
M03  S228
G01 X39.0 Y9.5 F500
M03  S206
G01 X38.5 Y9.5 F500
M03  S222
G01 X38.0 Y9.5 F500
M03  S217
G01 X37.5 Y9.5 F500
M03  S215
G01 X37.0 Y9.5 F500
M03  S213
G01 X36.5 Y9.5 F500
M03  S203
G01 X36.0 Y9.5 F500
M03  S163
G01 X35.5 Y9.5 F500
M03  S125
G01 X35.0 Y9.5 F500
M03  S87
G01 X34.5 Y9.5 F500
M03  S65
G01 X34.0 Y9.5 F500
M03  S51
G01 X33.5 Y9.5 F500
M03  S49
G01 X33.0 Y9.5 F500
M03  S53
G01 X32.5 Y9.5 F500
M03  S65
G01 X32.0 Y9.5 F500
M03  S86
G01 X31.5 Y9.5 F500
M03  S66
G01 X31.0 Y9.5 F500
M03  S72
G01 X30.5 Y9.5 F500
M03  S95
G01 X30.0 Y9.5 F500
M03  S154
G01 X29.5 Y9.5 F500
M03  S148
G01 X29.0 Y9.5 F500
M03  S119
G01 X28.5 Y9.5 F500
M03  S107
G01 X28.0 Y9.5 F500
M03  S122
G01 X27.5 Y9.5 F500
M03  S108
G01 X27.0 Y9.5 F500
M03  S53
G01 X26.5 Y9.5 F500
M03  S24
G01 X26.0 Y9.5 F500
M03  S19
G01 X25.5 Y9.5 F500
M03  S20
G01 X25.0 Y9.5 F500
M03  S21
G01 X24.5 Y9.5 F500
M03  S28
G01 X24.0 Y9.5 F500
M03  S35
G01 X23.5 Y9.5 F500
M03  S38
G01 X23.0 Y9.5 F500
M03  S37
G01 X22.5 Y9.5 F500
M03  S30
G01 X22.0 Y9.5 F500
M03  S23
G01 X21.5 Y9.5 F500
M03  S17
G01 X21.0 Y9.5 F500
M03  S13
G01 X20.5 Y9.5 F500
M03  S11
G01 X20.0 Y9.5 F500
M03  S12
G01 X19.5 Y9.5 F500
M03  S19
G01 X19.0 Y9.5 F500
M03  S30
G01 X18.5 Y9.5 F500
M03  S41
G01 X18.0 Y9.5 F500
M03  S46
G01 X17.5 Y9.5 F500
M03  S50
G01 X17.0 Y9.5 F500
M03  S57
G01 X16.5 Y9.5 F500
M03  S64
G01 X16.0 Y9.5 F500
M03  S67
G01 X15.5 Y9.5 F500
M03  S69
G01 X15.0 Y9.5 F500
M03  S68
G01 X14.5 Y9.5 F500
M03  S72
G01 X13.5 Y9.5 F500
M03  S69
G01 X13.0 Y9.5 F500
M03  S60
G01 X12.5 Y9.5 F500
M03  S48
G01 X12.0 Y9.5 F500
M03  S36
G01 X11.5 Y9.5 F500
M03  S30
G01 X11.0 Y9.5 F500
M03  S28
G01 X10.5 Y9.5 F500
M03  S27
G01 X10.0 Y9.5 F500
M03  S25
G01 X9.5 Y9.5 F500
M03  S26
G01 X9.0 Y9.5 F500
M03  S33
G01 X8.5 Y9.5 F500
M03  S46
G01 X8.0 Y9.5 F500
M03  S63
G01 X7.5 Y9.5 F500
M03  S74
G01 X7.0 Y9.5 F500
M03  S72
G01 X6.5 Y9.5 F500
M03  S62
G01 X6.0 Y9.5 F500
M03  S53
G01 X5.5 Y9.5 F500
M03  S50
G01 X5.0 Y9.5 F500
M03  S49
G01 X4.5 Y9.5 F500
M03  S52
G01 X4.0 Y9.5 F500
M03  S59
G01 X3.5 Y9.5 F500
M03  S65
G01 X3.0 Y9.5 F500
M03  S68
G01 X2.5 Y9.5 F500
M03  S70
G01 X1.5 Y9.5 F500
M03  S71
G01 X1.0 Y9.5 F500
M03  S7
G01 X0.5 Y9.5 F500
M03  S3
G01 X0.0 Y9.5 F500
M05
G00 X0.0 Y10.0
M03  S3
G01 X0.5 Y10.0 F500
M03  S8
G01 X1.0 Y10.0 F500
M03  S77
G01 X1.5 Y10.0 F500
M03  S74
G01 X2.0 Y10.0 F500
M03  S72
G01 X2.5 Y10.0 F500
M03  S70
G01 X3.0 Y10.0 F500
M03  S68
G01 X4.0 Y10.0 F500
M03  S65
G01 X4.5 Y10.0 F500
M03  S62
G01 X5.0 Y10.0 F500
M03  S60
G01 X5.5 Y10.0 F500
M03  S62
G01 X6.0 Y10.0 F500
M03  S69
G01 X6.5 Y10.0 F500
M03  S74
G01 X7.5 Y10.0 F500
M03  S66
G01 X8.0 Y10.0 F500
M03  S53
G01 X8.5 Y10.0 F500
M03  S42
G01 X9.0 Y10.0 F500
M03  S37
G01 X9.5 Y10.0 F500
M03  S34
G01 X11.5 Y10.0 F500
M03  S38
G01 X12.0 Y10.0 F500
M03  S48
G01 X12.5 Y10.0 F500
M03  S60
G01 X13.0 Y10.0 F500
M03  S67
G01 X14.0 Y10.0 F500
M03  S63
G01 X14.5 Y10.0 F500
M03  S65
G01 X15.5 Y10.0 F500
M03  S63
G01 X16.0 Y10.0 F500
M03  S58
G01 X16.5 Y10.0 F500
M03  S54
G01 X17.0 Y10.0 F500
M03  S50
G01 X17.5 Y10.0 F500
M03  S47
G01 X18.0 Y10.0 F500
M03  S39
G01 X18.5 Y10.0 F500
M03  S28
G01 X19.0 Y10.0 F500
M03  S18
G01 X19.5 Y10.0 F500
M03  S13
G01 X20.0 Y10.0 F500
M03  S12
G01 X20.5 Y10.0 F500
M03  S13
G01 X21.0 Y10.0 F500
M03  S15
G01 X21.5 Y10.0 F500
M03  S20
G01 X22.0 Y10.0 F500
M03  S25
G01 X22.5 Y10.0 F500
M03  S30
G01 X23.0 Y10.0 F500
M03  S28
G01 X23.5 Y10.0 F500
M03  S25
G01 X24.0 Y10.0 F500
M03  S21
G01 X24.5 Y10.0 F500
M03  S18
G01 X25.0 Y10.0 F500
M03  S17
G01 X26.0 Y10.0 F500
M03  S16
G01 X26.5 Y10.0 F500
M03  S25
G01 X27.0 Y10.0 F500
M03  S56
G01 X27.5 Y10.0 F500
M03  S99
G01 X28.0 Y10.0 F500
M03  S96
G01 X28.5 Y10.0 F500
M03  S105
G01 X29.0 Y10.0 F500
M03  S133
G01 X29.5 Y10.0 F500
M03  S146
G01 X30.0 Y10.0 F500
M03  S120
G01 X30.5 Y10.0 F500
M03  S82
G01 X31.0 Y10.0 F500
M03  S87
G01 X31.5 Y10.0 F500
M03  S85
G01 X32.0 Y10.0 F500
M03  S74
G01 X32.5 Y10.0 F500
M03  S54
G01 X33.5 Y10.0 F500
M03  S72
G01 X34.0 Y10.0 F500
M03  S101
G01 X34.5 Y10.0 F500
M03  S137
G01 X35.0 Y10.0 F500
M03  S160
G01 X35.5 Y10.0 F500
M03  S196
G01 X36.0 Y10.0 F500
M03  S223
G01 X36.5 Y10.0 F500
M03  S197
G01 X37.0 Y10.0 F500
M03  S200
G01 X37.5 Y10.0 F500
M03  S230
G01 X38.0 Y10.0 F500
M03  S233
G01 X38.5 Y10.0 F500
M03  S227
G01 X39.0 Y10.0 F500
M03  S202
G01 X39.5 Y10.0 F500
M03  S178
G01 X40.0 Y10.0 F500
M03  S160
G01 X40.5 Y10.0 F500
M03  S120
G01 X41.0 Y10.0 F500
M03  S106
G01 X41.5 Y10.0 F500
M03  S79
G01 X42.0 Y10.0 F500
M03  S65
G01 X42.5 Y10.0 F500
M03  S59
G01 X43.0 Y10.0 F500
M03  S64
G01 X43.5 Y10.0 F500
M03  S62
G01 X44.0 Y10.0 F500
M03  S81
G01 X44.5 Y10.0 F500
M03  S54
G01 X45.0 Y10.0 F500
M03  S51
G01 X45.5 Y10.0 F500
M03  S59
G01 X46.0 Y10.0 F500
M03  S71
G01 X46.5 Y10.0 F500
M03  S53
G01 X47.0 Y10.0 F500
M03  S58
G01 X47.5 Y10.0 F500
M03  S59
G01 X48.5 Y10.0 F500
M03  S62
G01 X49.0 Y10.0 F500
M03  S66
G01 X49.5 Y10.0 F500
M03  S59
G01 X50.0 Y10.0 F500
M03  S58
G01 X50.5 Y10.0 F500
M03  S65
G01 X51.0 Y10.0 F500
M03  S53
G01 X51.5 Y10.0 F500
M03  S73
G01 X52.0 Y10.0 F500
M03  S68
G01 X52.5 Y10.0 F500
M03  S57
G01 X53.5 Y10.0 F500
M03  S64
G01 X54.0 Y10.0 F500
M03  S82
G01 X54.5 Y10.0 F500
M03  S114
G01 X55.0 Y10.0 F500
M03  S131
G01 X55.5 Y10.0 F500
M03  S122
G01 X56.0 Y10.0 F500
M03  S119
G01 X56.5 Y10.0 F500
M03  S111
G01 X57.0 Y10.0 F500
M03  S99
G01 X57.5 Y10.0 F500
M03  S92
G01 X58.0 Y10.0 F500
M03  S100
G01 X58.5 Y10.0 F500
M03  S151
G01 X59.0 Y10.0 F500
M03  S152
G01 X59.5 Y10.0 F500
M03  S157
G01 X60.0 Y10.0 F500
M03  S197
G01 X60.5 Y10.0 F500
M03  S214
G01 X61.0 Y10.0 F500
M03  S209
G01 X61.5 Y10.0 F500
M03  S206
G01 X62.0 Y10.0 F500
M03  S201
G01 X62.5 Y10.0 F500
M03  S202
G01 X63.0 Y10.0 F500
M03  S207
G01 X63.5 Y10.0 F500
M03  S217
G01 X64.0 Y10.0 F500
M03  S222
G01 X64.5 Y10.0 F500
M03  S225
G01 X65.0 Y10.0 F500
M03  S212
G01 X65.5 Y10.0 F500
M03  S214
G01 X66.0 Y10.0 F500
M03  S218
G01 X66.5 Y10.0 F500
M03  S227
G01 X67.0 Y10.0 F500
M03  S229
G01 X67.5 Y10.0 F500
M03  S183
G01 X68.0 Y10.0 F500
M03  S108
G01 X68.5 Y10.0 F500
M03  S47
G01 X69.0 Y10.0 F500
M03  S22
G01 X69.5 Y10.0 F500
M03  S14
G01 X70.0 Y10.0 F500
M03  S17
G01 X70.5 Y10.0 F500
M03  S24
G01 X71.0 Y10.0 F500
M03  S30
G01 X71.5 Y10.0 F500
M03  S26
G01 X72.0 Y10.0 F500
M03  S23
G01 X72.5 Y10.0 F500
M03  S20
G01 X73.0 Y10.0 F500
M03  S19
G01 X73.5 Y10.0 F500
M03  S21
G01 X74.0 Y10.0 F500
M03  S22
G01 X74.5 Y10.0 F500
M03  S24
G01 X75.5 Y10.0 F500
M03  S25
G01 X76.5 Y10.0 F500
M03  S26
G01 X77.0 Y10.0 F500
M03  S25
G01 X77.5 Y10.0 F500
M03  S26
G01 X78.5 Y10.0 F500
M03  S27
G01 X79.0 Y10.0 F500
M03  S29
G01 X79.5 Y10.0 F500
M03  S28
G01 X80.5 Y10.0 F500
M03  S29
G01 X81.0 Y10.0 F500
M03  S38
G01 X81.5 Y10.0 F500
M03  S47
G01 X82.0 Y10.0 F500
M03  S51
G01 X82.5 Y10.0 F500
M03  S47
G01 X83.0 Y10.0 F500
M03  S40
G01 X83.5 Y10.0 F500
M03  S34
G01 X84.0 Y10.0 F500
M03  S36
G01 X84.5 Y10.0 F500
M03  S43
G01 X85.0 Y10.0 F500
M03  S51
G01 X85.5 Y10.0 F500
M03  S55
G01 X86.0 Y10.0 F500
M03  S54
G01 X86.5 Y10.0 F500
M03  S52
G01 X87.0 Y10.0 F500
M03  S53
G01 X87.5 Y10.0 F500
M03  S58
G01 X88.0 Y10.0 F500
M03  S65
G01 X88.5 Y10.0 F500
M03  S70
G01 X89.0 Y10.0 F500
M03  S68
G01 X89.5 Y10.0 F500
M03  S59
G01 X90.0 Y10.0 F500
M03  S44
G01 X90.5 Y10.0 F500
M03  S33
G01 X91.0 Y10.0 F500
M03  S24
G01 X92.0 Y10.0 F500
M03  S27
G01 X92.5 Y10.0 F500
M03  S32
G01 X93.0 Y10.0 F500
M03  S34
G01 X94.0 Y10.0 F500
M03  S35
G01 X94.5 Y10.0 F500
M03  S38
G01 X95.0 Y10.0 F500
M03  S45
G01 X95.5 Y10.0 F500
M03  S56
G01 X96.0 Y10.0 F500
M03  S61
G01 X96.5 Y10.0 F500
M03  S59
G01 X97.0 Y10.0 F500
M03  S23
G01 X97.5 Y10.0 F500
M03  S3
G01 X98.5 Y10.0 F500
M05
G00 X98.5 Y10.5
M03  S3
G01 X97.5 Y10.5 F500
M03  S27
G01 X97.0 Y10.5 F500
M03  S71
G01 X96.5 Y10.5 F500
M03  S74
G01 X96.0 Y10.5 F500
M03  S68
G01 X95.5 Y10.5 F500
M03  S56
G01 X95.0 Y10.5 F500
M03  S45
G01 X94.5 Y10.5 F500
M03  S39
G01 X94.0 Y10.5 F500
M03  S35
G01 X93.5 Y10.5 F500
M03  S34
G01 X93.0 Y10.5 F500
M03  S32
G01 X92.5 Y10.5 F500
M03  S30
G01 X92.0 Y10.5 F500
M03  S27
G01 X91.5 Y10.5 F500
M03  S28
G01 X91.0 Y10.5 F500
M03  S35
G01 X90.5 Y10.5 F500
M03  S46
G01 X90.0 Y10.5 F500
M03  S58
G01 X89.5 Y10.5 F500
M03  S66
G01 X89.0 Y10.5 F500
M03  S69
G01 X88.5 Y10.5 F500
M03  S68
G01 X88.0 Y10.5 F500
M03  S64
G01 X87.5 Y10.5 F500
M03  S61
G01 X87.0 Y10.5 F500
M03  S59
G01 X86.5 Y10.5 F500
M03  S58
G01 X86.0 Y10.5 F500
M03  S54
G01 X85.5 Y10.5 F500
M03  S48
G01 X85.0 Y10.5 F500
M03  S42
G01 X84.5 Y10.5 F500
M03  S38
G01 X84.0 Y10.5 F500
M03  S42
G01 X83.5 Y10.5 F500
M03  S49
G01 X83.0 Y10.5 F500
M03  S56
G01 X82.5 Y10.5 F500
M03  S58
G01 X82.0 Y10.5 F500
M03  S55
G01 X81.5 Y10.5 F500
M03  S47
G01 X81.0 Y10.5 F500
M03  S39
G01 X80.0 Y10.5 F500
M03  S41
G01 X79.5 Y10.5 F500
M03  S43
G01 X78.5 Y10.5 F500
M03  S42
G01 X78.0 Y10.5 F500
M03  S40
G01 X77.5 Y10.5 F500
M03  S39
G01 X77.0 Y10.5 F500
M03  S37
G01 X76.5 Y10.5 F500
M03  S36
G01 X75.5 Y10.5 F500
M03  S33
G01 X75.0 Y10.5 F500
M03  S32
G01 X74.5 Y10.5 F500
M03  S29
G01 X74.0 Y10.5 F500
M03  S26
G01 X73.0 Y10.5 F500
M03  S27
G01 X72.5 Y10.5 F500
M03  S30
G01 X72.0 Y10.5 F500
M03  S32
G01 X71.5 Y10.5 F500
M03  S29
G01 X71.0 Y10.5 F500
M03  S21
G01 X70.5 Y10.5 F500
M03  S14
G01 X70.0 Y10.5 F500
M03  S11
G01 X69.5 Y10.5 F500
M03  S18
G01 X69.0 Y10.5 F500
M03  S34
G01 X68.5 Y10.5 F500
M03  S80
G01 X68.0 Y10.5 F500
M03  S130
G01 X67.5 Y10.5 F500
M03  S197
G01 X67.0 Y10.5 F500
M03  S222
G01 X66.5 Y10.5 F500
M03  S221
G01 X66.0 Y10.5 F500
M03  S219
G01 X65.5 Y10.5 F500
M03  S220
G01 X65.0 Y10.5 F500
M03  S218
G01 X64.5 Y10.5 F500
M03  S216
G01 X64.0 Y10.5 F500
M03  S210
G01 X63.5 Y10.5 F500
M03  S202
G01 X62.5 Y10.5 F500
M03  S211
G01 X62.0 Y10.5 F500
M03  S216
G01 X61.5 Y10.5 F500
M03  S212
G01 X61.0 Y10.5 F500
M03  S206
G01 X60.5 Y10.5 F500
M03  S188
G01 X60.0 Y10.5 F500
M03  S134
G01 X59.5 Y10.5 F500
M03  S99
G01 X59.0 Y10.5 F500
M03  S92
G01 X58.5 Y10.5 F500
M03  S89
G01 X58.0 Y10.5 F500
M03  S102
G01 X57.5 Y10.5 F500
M03  S117
G01 X57.0 Y10.5 F500
M03  S128
G01 X56.5 Y10.5 F500
M03  S130
G01 X56.0 Y10.5 F500
M03  S145
G01 X55.5 Y10.5 F500
M03  S150
G01 X55.0 Y10.5 F500
M03  S140
G01 X54.5 Y10.5 F500
M03  S107
G01 X54.0 Y10.5 F500
M03  S76
G01 X53.5 Y10.5 F500
M03  S78
G01 X53.0 Y10.5 F500
M03  S67
G01 X52.5 Y10.5 F500
M03  S73
G01 X52.0 Y10.5 F500
M03  S68
G01 X51.5 Y10.5 F500
M03  S58
G01 X51.0 Y10.5 F500
M03  S61
G01 X50.5 Y10.5 F500
M03  S54
G01 X50.0 Y10.5 F500
M03  S57
G01 X49.5 Y10.5 F500
M03  S63
G01 X49.0 Y10.5 F500
M03  S52
G01 X48.5 Y10.5 F500
M03  S48
G01 X48.0 Y10.5 F500
M03  S45
G01 X47.5 Y10.5 F500
M03  S52
G01 X47.0 Y10.5 F500
M03  S58
G01 X46.5 Y10.5 F500
M03  S59
G01 X46.0 Y10.5 F500
M03  S58
G01 X45.5 Y10.5 F500
M03  S60
G01 X45.0 Y10.5 F500
M03  S64
G01 X44.5 Y10.5 F500
M03  S59
G01 X44.0 Y10.5 F500
M03  S52
G01 X43.5 Y10.5 F500
M03  S51
G01 X43.0 Y10.5 F500
M03  S57
G01 X42.5 Y10.5 F500
M03  S79
G01 X42.0 Y10.5 F500
M03  S70
G01 X41.5 Y10.5 F500
M03  S89
G01 X41.0 Y10.5 F500
M03  S95
G01 X40.5 Y10.5 F500
M03  S126
G01 X40.0 Y10.5 F500
M03  S153
G01 X39.5 Y10.5 F500
M03  S182
G01 X39.0 Y10.5 F500
M03  S211
G01 X38.5 Y10.5 F500
M03  S201
G01 X38.0 Y10.5 F500
M03  S213
G01 X37.5 Y10.5 F500
M03  S195
G01 X37.0 Y10.5 F500
M03  S203
G01 X36.5 Y10.5 F500
M03  S228
G01 X36.0 Y10.5 F500
M03  S191
G01 X35.5 Y10.5 F500
M03  S182
G01 X35.0 Y10.5 F500
M03  S165
G01 X34.5 Y10.5 F500
M03  S132
G01 X34.0 Y10.5 F500
M03  S103
G01 X33.5 Y10.5 F500
M03  S80
G01 X33.0 Y10.5 F500
M03  S65
G01 X32.5 Y10.5 F500
M03  S64
G01 X32.0 Y10.5 F500
M03  S63
G01 X31.5 Y10.5 F500
M03  S69
G01 X31.0 Y10.5 F500
M03  S102
G01 X30.5 Y10.5 F500
M03  S132
G01 X30.0 Y10.5 F500
M03  S150
G01 X29.5 Y10.5 F500
M03  S134
G01 X29.0 Y10.5 F500
M03  S104
G01 X28.5 Y10.5 F500
M03  S106
G01 X28.0 Y10.5 F500
M03  S118
G01 X27.5 Y10.5 F500
M03  S64
G01 X27.0 Y10.5 F500
M03  S21
G01 X26.5 Y10.5 F500
M03  S16
G01 X26.0 Y10.5 F500
M03  S15
G01 X25.0 Y10.5 F500
M03  S16
G01 X24.5 Y10.5 F500
M03  S19
G01 X24.0 Y10.5 F500
M03  S24
G01 X23.5 Y10.5 F500
M03  S27
G01 X23.0 Y10.5 F500
M03  S29
G01 X22.5 Y10.5 F500
M03  S30
G01 X22.0 Y10.5 F500
M03  S28
G01 X21.5 Y10.5 F500
M03  S22
G01 X21.0 Y10.5 F500
M03  S19
G01 X20.5 Y10.5 F500
M03  S18
G01 X20.0 Y10.5 F500
M03  S20
G01 X19.5 Y10.5 F500
M03  S23
G01 X19.0 Y10.5 F500
M03  S31
G01 X18.5 Y10.5 F500
M03  S40
G01 X18.0 Y10.5 F500
M03  S47
G01 X17.5 Y10.5 F500
M03  S49
G01 X17.0 Y10.5 F500
M03  S50
G01 X16.5 Y10.5 F500
M03  S52
G01 X16.0 Y10.5 F500
M03  S56
G01 X15.5 Y10.5 F500
M03  S63
G01 X15.0 Y10.5 F500
M03  S68
G01 X14.5 Y10.5 F500
M03  S63
G01 X14.0 Y10.5 F500
M03  S64
G01 X13.5 Y10.5 F500
M03  S67
G01 X13.0 Y10.5 F500
M03  S65
G01 X12.5 Y10.5 F500
M03  S58
G01 X12.0 Y10.5 F500
M03  S47
G01 X11.5 Y10.5 F500
M03  S41
G01 X11.0 Y10.5 F500
M03  S42
G01 X10.5 Y10.5 F500
M03  S43
G01 X10.0 Y10.5 F500
M03  S44
G01 X9.5 Y10.5 F500
M03  S48
G01 X9.0 Y10.5 F500
M03  S54
G01 X8.5 Y10.5 F500
M03  S62
G01 X8.0 Y10.5 F500
M03  S65
G01 X7.5 Y10.5 F500
M03  S69
G01 X7.0 Y10.5 F500
M03  S70
G01 X6.5 Y10.5 F500
M03  S68
G01 X6.0 Y10.5 F500
M03  S63
G01 X5.5 Y10.5 F500
M03  S62
G01 X5.0 Y10.5 F500
M03  S65
G01 X4.5 Y10.5 F500
M03  S70
G01 X4.0 Y10.5 F500
M03  S73
G01 X3.0 Y10.5 F500
M03  S74
G01 X2.5 Y10.5 F500
M03  S75
G01 X2.0 Y10.5 F500
M03  S78
G01 X1.5 Y10.5 F500
M03  S81
G01 X1.0 Y10.5 F500
M03  S8
G01 X0.5 Y10.5 F500
M03  S3
G01 X0.0 Y10.5 F500
M05
G00 X0.0 Y11.0
M03  S3
G01 X0.5 Y11.0 F500
M03  S8
G01 X1.0 Y11.0 F500
M03  S79
G01 X1.5 Y11.0 F500
M03  S76
G01 X2.0 Y11.0 F500
M03  S75
G01 X2.5 Y11.0 F500
M03  S73
G01 X3.0 Y11.0 F500
M03  S72
G01 X3.5 Y11.0 F500
M03  S70
G01 X4.0 Y11.0 F500
M03  S67
G01 X4.5 Y11.0 F500
M03  S60
G01 X5.0 Y11.0 F500
M03  S56
G01 X6.0 Y11.0 F500
M03  S62
G01 X6.5 Y11.0 F500
M03  S63
G01 X7.0 Y11.0 F500
M03  S61
G01 X7.5 Y11.0 F500
M03  S63
G01 X8.0 Y11.0 F500
M03  S68
G01 X8.5 Y11.0 F500
M03  S66
G01 X9.0 Y11.0 F500
M03  S59
G01 X9.5 Y11.0 F500
M03  S55
G01 X10.0 Y11.0 F500
M03  S53
G01 X10.5 Y11.0 F500
M03  S51
G01 X11.0 Y11.0 F500
M03  S48
G01 X11.5 Y11.0 F500
M03  S51
G01 X12.0 Y11.0 F500
M03  S61
G01 X12.5 Y11.0 F500
M03  S67
G01 X13.0 Y11.0 F500
M03  S70
G01 X13.5 Y11.0 F500
M03  S64
G01 X14.5 Y11.0 F500
M03  S66
G01 X15.0 Y11.0 F500
M03  S57
G01 X15.5 Y11.0 F500
M03  S52
G01 X16.0 Y11.0 F500
M03  S48
G01 X17.0 Y11.0 F500
M03  S49
G01 X17.5 Y11.0 F500
M03  S45
G01 X18.0 Y11.0 F500
M03  S38
G01 X18.5 Y11.0 F500
M03  S30
G01 X19.0 Y11.0 F500
M03  S28
G01 X19.5 Y11.0 F500
M03  S27
G01 X20.5 Y11.0 F500
M03  S28
G01 X21.0 Y11.0 F500
M03  S31
G01 X21.5 Y11.0 F500
M03  S35
G01 X22.0 Y11.0 F500
M03  S38
G01 X22.5 Y11.0 F500
M03  S36
G01 X23.0 Y11.0 F500
M03  S31
G01 X23.5 Y11.0 F500
M03  S24
G01 X24.0 Y11.0 F500
M03  S19
G01 X24.5 Y11.0 F500
M03  S16
G01 X25.0 Y11.0 F500
M03  S14
G01 X26.5 Y11.0 F500
M03  S21
G01 X27.0 Y11.0 F500
M03  S41
G01 X27.5 Y11.0 F500
M03  S84
G01 X28.0 Y11.0 F500
M03  S118
G01 X28.5 Y11.0 F500
M03  S107
G01 X29.0 Y11.0 F500
M03  S127
G01 X29.5 Y11.0 F500
M03  S150
G01 X30.0 Y11.0 F500
M03  S114
G01 X30.5 Y11.0 F500
M03  S88
G01 X31.0 Y11.0 F500
M03  S78
G01 X31.5 Y11.0 F500
M03  S59
G01 X32.0 Y11.0 F500
M03  S58
G01 X32.5 Y11.0 F500
M03  S76
G01 X33.0 Y11.0 F500
M03  S102
G01 X33.5 Y11.0 F500
M03  S131
G01 X34.0 Y11.0 F500
M03  S162
G01 X34.5 Y11.0 F500
M03  S178
G01 X35.0 Y11.0 F500
M03  S186
G01 X35.5 Y11.0 F500
M03  S188
G01 X36.0 Y11.0 F500
M03  S225
G01 X36.5 Y11.0 F500
M03  S207
G01 X37.0 Y11.0 F500
M03  S229
G01 X37.5 Y11.0 F500
M03  S225
G01 X38.0 Y11.0 F500
M03  S217
G01 X38.5 Y11.0 F500
M03  S191
G01 X39.0 Y11.0 F500
M03  S162
G01 X39.5 Y11.0 F500
M03  S133
G01 X40.0 Y11.0 F500
M03  S106
G01 X40.5 Y11.0 F500
M03  S97
G01 X41.0 Y11.0 F500
M03  S85
G01 X41.5 Y11.0 F500
M03  S81
G01 X42.0 Y11.0 F500
M03  S84
G01 X42.5 Y11.0 F500
M03  S76
G01 X43.0 Y11.0 F500
M03  S64
G01 X43.5 Y11.0 F500
M03  S55
G01 X44.0 Y11.0 F500
M03  S57
G01 X45.0 Y11.0 F500
M03  S62
G01 X45.5 Y11.0 F500
M03  S53
G01 X46.0 Y11.0 F500
M03  S47
G01 X46.5 Y11.0 F500
M03  S50
G01 X47.0 Y11.0 F500
M03  S43
G01 X47.5 Y11.0 F500
M03  S42
G01 X48.0 Y11.0 F500
M03  S37
G01 X48.5 Y11.0 F500
M03  S46
G01 X49.5 Y11.0 F500
M03  S43
G01 X50.0 Y11.0 F500
M03  S50
G01 X50.5 Y11.0 F500
M03  S44
G01 X51.0 Y11.0 F500
M03  S57
G01 X51.5 Y11.0 F500
M03  S55
G01 X52.0 Y11.0 F500
M03  S65
G01 X52.5 Y11.0 F500
M03  S67
G01 X53.0 Y11.0 F500
M03  S88
G01 X53.5 Y11.0 F500
M03  S136
G01 X54.0 Y11.0 F500
M03  S148
G01 X54.5 Y11.0 F500
M03  S165
G01 X55.0 Y11.0 F500
M03  S166
G01 X55.5 Y11.0 F500
M03  S159
G01 X56.0 Y11.0 F500
M03  S154
G01 X56.5 Y11.0 F500
M03  S133
G01 X57.0 Y11.0 F500
M03  S122
G01 X57.5 Y11.0 F500
M03  S116
G01 X58.0 Y11.0 F500
M03  S108
G01 X58.5 Y11.0 F500
M03  S94
G01 X59.0 Y11.0 F500
M03  S88
G01 X59.5 Y11.0 F500
M03  S93
G01 X60.0 Y11.0 F500
M03  S119
G01 X60.5 Y11.0 F500
M03  S163
G01 X61.0 Y11.0 F500
M03  S183
G01 X61.5 Y11.0 F500
M03  S206
G01 X62.0 Y11.0 F500
M03  S213
G01 X62.5 Y11.0 F500
M03  S211
G01 X63.0 Y11.0 F500
M03  S213
G01 X63.5 Y11.0 F500
M03  S214
G01 X64.0 Y11.0 F500
M03  S216
G01 X64.5 Y11.0 F500
M03  S226
G01 X65.0 Y11.0 F500
M03  S227
G01 X65.5 Y11.0 F500
M03  S222
G01 X66.0 Y11.0 F500
M03  S221
G01 X66.5 Y11.0 F500
M03  S204
G01 X67.0 Y11.0 F500
M03  S176
G01 X67.5 Y11.0 F500
M03  S128
G01 X68.0 Y11.0 F500
M03  S70
G01 X68.5 Y11.0 F500
M03  S32
G01 X69.0 Y11.0 F500
M03  S14
G01 X69.5 Y11.0 F500
M03  S10
G01 X70.0 Y11.0 F500
M03  S13
G01 X70.5 Y11.0 F500
M03  S19
G01 X71.0 Y11.0 F500
M03  S26
G01 X71.5 Y11.0 F500
M03  S30
G01 X72.0 Y11.0 F500
M03  S33
G01 X73.0 Y11.0 F500
M03  S35
G01 X73.5 Y11.0 F500
M03  S37
G01 X74.0 Y11.0 F500
M03  S41
G01 X74.5 Y11.0 F500
M03  S43
G01 X75.0 Y11.0 F500
M03  S42
G01 X75.5 Y11.0 F500
M03  S44
G01 X76.0 Y11.0 F500
M03  S45
G01 X76.5 Y11.0 F500
M03  S46
G01 X77.0 Y11.0 F500
M03  S49
G01 X77.5 Y11.0 F500
M03  S54
G01 X78.0 Y11.0 F500
M03  S56
G01 X79.0 Y11.0 F500
M03  S53
G01 X79.5 Y11.0 F500
M03  S47
G01 X80.0 Y11.0 F500
M03  S43
G01 X80.5 Y11.0 F500
M03  S40
G01 X81.0 Y11.0 F500
M03  S42
G01 X81.5 Y11.0 F500
M03  S46
G01 X82.0 Y11.0 F500
M03  S47
G01 X82.5 Y11.0 F500
M03  S46
G01 X83.0 Y11.0 F500
M03  S44
G01 X83.5 Y11.0 F500
M03  S41
G01 X84.5 Y11.0 F500
M03  S45
G01 X85.0 Y11.0 F500
M03  S50
G01 X85.5 Y11.0 F500
M03  S55
G01 X86.0 Y11.0 F500
M03  S60
G01 X86.5 Y11.0 F500
M03  S63
G01 X87.0 Y11.0 F500
M03  S65
G01 X87.5 Y11.0 F500
M03  S67
G01 X88.0 Y11.0 F500
M03  S68
G01 X88.5 Y11.0 F500
M03  S67
G01 X89.0 Y11.0 F500
M03  S63
G01 X89.5 Y11.0 F500
M03  S59
G01 X90.0 Y11.0 F500
M03  S52
G01 X90.5 Y11.0 F500
M03  S44
G01 X91.0 Y11.0 F500
M03  S38
G01 X91.5 Y11.0 F500
M03  S37
G01 X92.0 Y11.0 F500
M03  S38
G01 X92.5 Y11.0 F500
M03  S39
G01 X93.0 Y11.0 F500
M03  S38
G01 X93.5 Y11.0 F500
M03  S40
G01 X94.0 Y11.0 F500
M03  S46
G01 X94.5 Y11.0 F500
M03  S56
G01 X95.0 Y11.0 F500
M03  S66
G01 X95.5 Y11.0 F500
M03  S76
G01 X96.0 Y11.0 F500
M03  S83
G01 X96.5 Y11.0 F500
M03  S77
G01 X97.0 Y11.0 F500
M03  S30
G01 X97.5 Y11.0 F500
M03  S3
G01 X98.5 Y11.0 F500
M05
G00 X98.5 Y11.5
M03  S3
G01 X97.5 Y11.5 F500
M03  S32
G01 X97.0 Y11.5 F500
M03  S78
G01 X96.5 Y11.5 F500
M03  S80
G01 X96.0 Y11.5 F500
M03  S78
G01 X95.5 Y11.5 F500
M03  S75
G01 X95.0 Y11.5 F500
M03  S69
G01 X94.5 Y11.5 F500
M03  S57
G01 X94.0 Y11.5 F500
M03  S50
G01 X93.5 Y11.5 F500
M03  S48
G01 X93.0 Y11.5 F500
M03  S50
G01 X92.5 Y11.5 F500
M03  S51
G01 X92.0 Y11.5 F500
M03  S52
G01 X91.5 Y11.5 F500
M03  S53
G01 X91.0 Y11.5 F500
M03  S55
G01 X90.5 Y11.5 F500
M03  S57
G01 X89.5 Y11.5 F500
M03  S56
G01 X89.0 Y11.5 F500
M03  S57
G01 X88.5 Y11.5 F500
M03  S59
G01 X87.5 Y11.5 F500
M03  S57
G01 X86.5 Y11.5 F500
M03  S59
G01 X86.0 Y11.5 F500
M03  S53
G01 X85.5 Y11.5 F500
M03  S45
G01 X85.0 Y11.5 F500
M03  S38
G01 X84.5 Y11.5 F500
M03  S34
G01 X84.0 Y11.5 F500
M03  S30
G01 X83.5 Y11.5 F500
M03  S28
G01 X83.0 Y11.5 F500
M03  S27
G01 X82.0 Y11.5 F500
M03  S28
G01 X81.5 Y11.5 F500
M03  S29
G01 X81.0 Y11.5 F500
M03  S32
G01 X80.5 Y11.5 F500
M03  S38
G01 X80.0 Y11.5 F500
M03  S45
G01 X79.5 Y11.5 F500
M03  S52
G01 X79.0 Y11.5 F500
M03  S56
G01 X78.5 Y11.5 F500
M03  S59
G01 X78.0 Y11.5 F500
M03  S51
G01 X77.5 Y11.5 F500
M03  S42
G01 X77.0 Y11.5 F500
M03  S34
G01 X76.5 Y11.5 F500
M03  S31
G01 X76.0 Y11.5 F500
M03  S29
G01 X75.5 Y11.5 F500
M03  S30
G01 X75.0 Y11.5 F500
M03  S34
G01 X74.5 Y11.5 F500
M03  S35
G01 X74.0 Y11.5 F500
M03  S31
G01 X73.5 Y11.5 F500
M03  S28
G01 X73.0 Y11.5 F500
M03  S26
G01 X72.5 Y11.5 F500
M03  S24
G01 X72.0 Y11.5 F500
M03  S23
G01 X71.5 Y11.5 F500
M03  S21
G01 X71.0 Y11.5 F500
M03  S17
G01 X70.5 Y11.5 F500
M03  S13
G01 X70.0 Y11.5 F500
M03  S10
G01 X69.5 Y11.5 F500
M03  S11
G01 X69.0 Y11.5 F500
M03  S16
G01 X68.5 Y11.5 F500
M03  S37
G01 X68.0 Y11.5 F500
M03  S94
G01 X67.5 Y11.5 F500
M03  S159
G01 X67.0 Y11.5 F500
M03  S209
G01 X66.5 Y11.5 F500
M03  S215
G01 X66.0 Y11.5 F500
M03  S217
G01 X65.5 Y11.5 F500
M03  S222
G01 X65.0 Y11.5 F500
M03  S226
G01 X64.5 Y11.5 F500
M03  S229
G01 X64.0 Y11.5 F500
M03  S225
G01 X63.5 Y11.5 F500
M03  S221
G01 X63.0 Y11.5 F500
M03  S192
G01 X62.5 Y11.5 F500
M03  S171
G01 X62.0 Y11.5 F500
M03  S119
G01 X61.5 Y11.5 F500
M03  S88
G01 X61.0 Y11.5 F500
M03  S81
G01 X60.5 Y11.5 F500
M03  S86
G01 X60.0 Y11.5 F500
M03  S89
G01 X59.5 Y11.5 F500
M03  S97
G01 X59.0 Y11.5 F500
M03  S111
G01 X58.5 Y11.5 F500
M03  S122
G01 X58.0 Y11.5 F500
M03  S128
G01 X57.5 Y11.5 F500
M03  S140
G01 X57.0 Y11.5 F500
M03  S147
G01 X56.5 Y11.5 F500
M03  S159
G01 X56.0 Y11.5 F500
M03  S167
G01 X55.5 Y11.5 F500
M03  S174
G01 X55.0 Y11.5 F500
M03  S177
G01 X54.5 Y11.5 F500
M03  S170
G01 X54.0 Y11.5 F500
M03  S156
G01 X53.5 Y11.5 F500
M03  S127
G01 X53.0 Y11.5 F500
M03  S77
G01 X52.5 Y11.5 F500
M03  S75
G01 X52.0 Y11.5 F500
M03  S53
G01 X51.5 Y11.5 F500
M03  S50
G01 X51.0 Y11.5 F500
M03  S42
G01 X50.5 Y11.5 F500
M03  S43
G01 X50.0 Y11.5 F500
M03  S41
G01 X49.5 Y11.5 F500
M03  S30
G01 X49.0 Y11.5 F500
M03  S34
G01 X48.5 Y11.5 F500
M03  S32
G01 X48.0 Y11.5 F500
M03  S35
G01 X47.5 Y11.5 F500
M03  S40
G01 X47.0 Y11.5 F500
M03  S41
G01 X46.5 Y11.5 F500
M03  S36
G01 X46.0 Y11.5 F500
M03  S42
G01 X45.0 Y11.5 F500
M03  S45
G01 X44.5 Y11.5 F500
M03  S57
G01 X44.0 Y11.5 F500
M03  S55
G01 X43.5 Y11.5 F500
M03  S61
G01 X43.0 Y11.5 F500
M03  S49
G01 X42.0 Y11.5 F500
M03  S62
G01 X41.5 Y11.5 F500
M03  S79
G01 X41.0 Y11.5 F500
M03  S99
G01 X40.5 Y11.5 F500
M03  S111
G01 X40.0 Y11.5 F500
M03  S128
G01 X39.5 Y11.5 F500
M03  S148
G01 X39.0 Y11.5 F500
M03  S192
G01 X38.5 Y11.5 F500
M03  S206
G01 X38.0 Y11.5 F500
M03  S224
G01 X37.5 Y11.5 F500
M03  S223
G01 X36.5 Y11.5 F500
M03  S220
G01 X36.0 Y11.5 F500
M03  S176
G01 X35.5 Y11.5 F500
M03  S189
G01 X35.0 Y11.5 F500
M03  S180
G01 X34.5 Y11.5 F500
M03  S178
G01 X34.0 Y11.5 F500
M03  S156
G01 X33.5 Y11.5 F500
M03  S122
G01 X33.0 Y11.5 F500
M03  S80
G01 X32.5 Y11.5 F500
M03  S61
G01 X32.0 Y11.5 F500
M03  S59
G01 X31.5 Y11.5 F500
M03  S60
G01 X31.0 Y11.5 F500
M03  S74
G01 X30.5 Y11.5 F500
M03  S145
G01 X30.0 Y11.5 F500
M03  S160
G01 X29.5 Y11.5 F500
M03  S138
G01 X29.0 Y11.5 F500
M03  S123
G01 X28.5 Y11.5 F500
M03  S99
G01 X28.0 Y11.5 F500
M03  S62
G01 X27.5 Y11.5 F500
M03  S27
G01 X27.0 Y11.5 F500
M03  S15
G01 X26.5 Y11.5 F500
M03  S13
G01 X26.0 Y11.5 F500
M03  S14
G01 X25.5 Y11.5 F500
M03  S17
G01 X25.0 Y11.5 F500
M03  S21
G01 X24.5 Y11.5 F500
M03  S27
G01 X24.0 Y11.5 F500
M03  S35
G01 X23.5 Y11.5 F500
M03  S43
G01 X23.0 Y11.5 F500
M03  S49
G01 X22.5 Y11.5 F500
M03  S46
G01 X22.0 Y11.5 F500
M03  S39
G01 X21.5 Y11.5 F500
M03  S33
G01 X21.0 Y11.5 F500
M03  S29
G01 X20.5 Y11.5 F500
M03  S28
G01 X19.5 Y11.5 F500
M03  S29
G01 X19.0 Y11.5 F500
M03  S31
G01 X18.5 Y11.5 F500
M03  S38
G01 X18.0 Y11.5 F500
M03  S47
G01 X17.5 Y11.5 F500
M03  S52
G01 X17.0 Y11.5 F500
M03  S49
G01 X16.5 Y11.5 F500
M03  S46
G01 X16.0 Y11.5 F500
M03  S50
G01 X15.5 Y11.5 F500
M03  S56
G01 X15.0 Y11.5 F500
M03  S61
G01 X14.5 Y11.5 F500
M03  S63
G01 X13.5 Y11.5 F500
M03  S66
G01 X13.0 Y11.5 F500
M03  S67
G01 X12.5 Y11.5 F500
M03  S65
G01 X12.0 Y11.5 F500
M03  S64
G01 X11.5 Y11.5 F500
M03  S67
G01 X11.0 Y11.5 F500
M03  S69
G01 X10.5 Y11.5 F500
M03  S67
G01 X10.0 Y11.5 F500
M03  S64
G01 X9.5 Y11.5 F500
M03  S70
G01 X9.0 Y11.5 F500
M03  S78
G01 X8.5 Y11.5 F500
M03  S77
G01 X8.0 Y11.5 F500
M03  S70
G01 X7.5 Y11.5 F500
M03  S63
G01 X7.0 Y11.5 F500
M03  S56
G01 X6.5 Y11.5 F500
M03  S54
G01 X6.0 Y11.5 F500
M03  S47
G01 X5.5 Y11.5 F500
M03  S46
G01 X5.0 Y11.5 F500
M03  S51
G01 X4.5 Y11.5 F500
M03  S59
G01 X4.0 Y11.5 F500
M03  S63
G01 X3.5 Y11.5 F500
M03  S66
G01 X3.0 Y11.5 F500
M03  S70
G01 X2.5 Y11.5 F500
M03  S72
G01 X1.5 Y11.5 F500
M03  S76
G01 X1.0 Y11.5 F500
M03  S8
G01 X0.5 Y11.5 F500
M03  S3
G01 X0.0 Y11.5 F500
M05
G00 X0.0 Y12.0
M03  S3
G01 X0.5 Y12.0 F500
M03  S8
G01 X1.0 Y12.0 F500
M03  S72
G01 X2.0 Y12.0 F500
M03  S74
G01 X2.5 Y12.0 F500
M03  S70
G01 X3.0 Y12.0 F500
M03  S68
G01 X3.5 Y12.0 F500
M03  S63
G01 X4.0 Y12.0 F500
M03  S59
G01 X4.5 Y12.0 F500
M03  S54
G01 X5.0 Y12.0 F500
M03  S49
G01 X5.5 Y12.0 F500
M03  S48
G01 X6.0 Y12.0 F500
M03  S56
G01 X6.5 Y12.0 F500
M03  S60
G01 X7.0 Y12.0 F500
M03  S69
G01 X7.5 Y12.0 F500
M03  S76
G01 X8.0 Y12.0 F500
M03  S87
G01 X8.5 Y12.0 F500
M03  S88
G01 X9.0 Y12.0 F500
M03  S78
G01 X9.5 Y12.0 F500
M03  S74
G01 X10.0 Y12.0 F500
M03  S83
G01 X10.5 Y12.0 F500
M03  S90
G01 X11.0 Y12.0 F500
M03  S87
G01 X11.5 Y12.0 F500
M03  S80
G01 X12.0 Y12.0 F500
M03  S72
G01 X12.5 Y12.0 F500
M03  S69
G01 X13.5 Y12.0 F500
M03  S68
G01 X14.0 Y12.0 F500
M03  S65
G01 X14.5 Y12.0 F500
M03  S60
G01 X15.0 Y12.0 F500
M03  S54
G01 X15.5 Y12.0 F500
M03  S49
G01 X16.0 Y12.0 F500
M03  S47
G01 X16.5 Y12.0 F500
M03  S51
G01 X17.0 Y12.0 F500
M03  S55
G01 X17.5 Y12.0 F500
M03  S51
G01 X18.0 Y12.0 F500
M03  S41
G01 X18.5 Y12.0 F500
M03  S33
G01 X19.0 Y12.0 F500
M03  S27
G01 X19.5 Y12.0 F500
M03  S26
G01 X20.5 Y12.0 F500
M03  S27
G01 X21.0 Y12.0 F500
M03  S29
G01 X21.5 Y12.0 F500
M03  S39
G01 X22.0 Y12.0 F500
M03  S52
G01 X22.5 Y12.0 F500
M03  S63
G01 X23.0 Y12.0 F500
M03  S57
G01 X23.5 Y12.0 F500
M03  S47
G01 X24.0 Y12.0 F500
M03  S37
G01 X24.5 Y12.0 F500
M03  S29
G01 X25.0 Y12.0 F500
M03  S23
G01 X25.5 Y12.0 F500
M03  S19
G01 X26.0 Y12.0 F500
M03  S16
G01 X27.0 Y12.0 F500
M03  S17
G01 X27.5 Y12.0 F500
M03  S20
G01 X28.0 Y12.0 F500
M03  S39
G01 X28.5 Y12.0 F500
M03  S71
G01 X29.0 Y12.0 F500
M03  S113
G01 X29.5 Y12.0 F500
M03  S123
G01 X30.0 Y12.0 F500
M03  S141
G01 X30.5 Y12.0 F500
M03  S137
G01 X31.0 Y12.0 F500
M03  S94
G01 X31.5 Y12.0 F500
M03  S67
G01 X32.0 Y12.0 F500
M03  S90
G01 X32.5 Y12.0 F500
M03  S117
G01 X33.0 Y12.0 F500
M03  S144
G01 X33.5 Y12.0 F500
M03  S161
G01 X34.0 Y12.0 F500
M03  S179
G01 X34.5 Y12.0 F500
M03  S187
G01 X35.0 Y12.0 F500
M03  S181
G01 X35.5 Y12.0 F500
M03  S189
G01 X36.0 Y12.0 F500
M03  S197
G01 X36.5 Y12.0 F500
M03  S213
G01 X37.0 Y12.0 F500
M03  S219
G01 X37.5 Y12.0 F500
M03  S213
G01 X38.0 Y12.0 F500
M03  S189
G01 X38.5 Y12.0 F500
M03  S175
G01 X39.0 Y12.0 F500
M03  S151
G01 X39.5 Y12.0 F500
M03  S126
G01 X40.0 Y12.0 F500
M03  S119
G01 X40.5 Y12.0 F500
M03  S87
G01 X41.0 Y12.0 F500
M03  S68
G01 X41.5 Y12.0 F500
M03  S48
G01 X42.0 Y12.0 F500
M03  S49
G01 X42.5 Y12.0 F500
M03  S50
G01 X43.5 Y12.0 F500
M03  S56
G01 X44.0 Y12.0 F500
M03  S49
G01 X44.5 Y12.0 F500
M03  S35
G01 X45.0 Y12.0 F500
M03  S29
G01 X45.5 Y12.0 F500
M03  S33
G01 X46.5 Y12.0 F500
M03  S32
G01 X47.0 Y12.0 F500
M03  S36
G01 X47.5 Y12.0 F500
M03  S37
G01 X48.0 Y12.0 F500
M03  S32
G01 X48.5 Y12.0 F500
M03  S34
G01 X49.0 Y12.0 F500
M03  S28
G01 X49.5 Y12.0 F500
M03  S35
G01 X50.0 Y12.0 F500
M03  S45
G01 X50.5 Y12.0 F500
M03  S44
G01 X51.0 Y12.0 F500
M03  S49
G01 X51.5 Y12.0 F500
M03  S65
G01 X52.0 Y12.0 F500
M03  S104
G01 X52.5 Y12.0 F500
M03  S119
G01 X53.0 Y12.0 F500
M03  S154
G01 X53.5 Y12.0 F500
M03  S168
G01 X54.0 Y12.0 F500
M03  S179
G01 X55.0 Y12.0 F500
M03  S175
G01 X55.5 Y12.0 F500
M03  S171
G01 X56.0 Y12.0 F500
M03  S166
G01 X56.5 Y12.0 F500
M03  S155
G01 X57.0 Y12.0 F500
M03  S148
G01 X57.5 Y12.0 F500
M03  S138
G01 X58.0 Y12.0 F500
M03  S125
G01 X58.5 Y12.0 F500
M03  S117
G01 X59.0 Y12.0 F500
M03  S110
G01 X59.5 Y12.0 F500
M03  S100
G01 X60.0 Y12.0 F500
M03  S91
G01 X60.5 Y12.0 F500
M03  S86
G01 X61.5 Y12.0 F500
M03  S85
G01 X62.0 Y12.0 F500
M03  S101
G01 X62.5 Y12.0 F500
M03  S163
G01 X63.0 Y12.0 F500
M03  S196
G01 X63.5 Y12.0 F500
M03  S220
G01 X64.0 Y12.0 F500
M03  S225
G01 X64.5 Y12.0 F500
M03  S226
G01 X65.0 Y12.0 F500
M03  S225
G01 X65.5 Y12.0 F500
M03  S219
G01 X66.0 Y12.0 F500
M03  S216
G01 X66.5 Y12.0 F500
M03  S176
G01 X67.0 Y12.0 F500
M03  S122
G01 X67.5 Y12.0 F500
M03  S69
G01 X68.0 Y12.0 F500
M03  S31
G01 X68.5 Y12.0 F500
M03  S13
G01 X69.0 Y12.0 F500
M03  S8
G01 X69.5 Y12.0 F500
M03  S10
G01 X70.0 Y12.0 F500
M03  S14
G01 X70.5 Y12.0 F500
M03  S16
G01 X71.0 Y12.0 F500
M03  S17
G01 X71.5 Y12.0 F500
M03  S16
G01 X72.0 Y12.0 F500
M03  S15
G01 X73.0 Y12.0 F500
M03  S16
G01 X73.5 Y12.0 F500
M03  S17
G01 X74.0 Y12.0 F500
M03  S20
G01 X74.5 Y12.0 F500
M03  S19
G01 X75.0 Y12.0 F500
M03  S14
G01 X75.5 Y12.0 F500
M03  S12
G01 X76.0 Y12.0 F500
M03  S14
G01 X76.5 Y12.0 F500
M03  S17
G01 X77.0 Y12.0 F500
M03  S22
G01 X77.5 Y12.0 F500
M03  S33
G01 X78.0 Y12.0 F500
M03  S45
G01 X78.5 Y12.0 F500
M03  S49
G01 X79.0 Y12.0 F500
M03  S46
G01 X79.5 Y12.0 F500
M03  S40
G01 X80.0 Y12.0 F500
M03  S31
G01 X80.5 Y12.0 F500
M03  S23
G01 X81.0 Y12.0 F500
M03  S17
G01 X81.5 Y12.0 F500
M03  S15
G01 X82.0 Y12.0 F500
M03  S14
G01 X83.5 Y12.0 F500
M03  S17
G01 X84.0 Y12.0 F500
M03  S21
G01 X84.5 Y12.0 F500
M03  S24
G01 X85.0 Y12.0 F500
M03  S30
G01 X85.5 Y12.0 F500
M03  S36
G01 X86.0 Y12.0 F500
M03  S39
G01 X86.5 Y12.0 F500
M03  S36
G01 X87.0 Y12.0 F500
M03  S39
G01 X87.5 Y12.0 F500
M03  S45
G01 X88.0 Y12.0 F500
M03  S49
G01 X88.5 Y12.0 F500
M03  S46
G01 X89.5 Y12.0 F500
M03  S49
G01 X90.0 Y12.0 F500
M03  S57
G01 X90.5 Y12.0 F500
M03  S60
G01 X91.0 Y12.0 F500
M03  S63
G01 X91.5 Y12.0 F500
M03  S64
G01 X92.0 Y12.0 F500
M03  S65
G01 X92.5 Y12.0 F500
M03  S64
G01 X93.0 Y12.0 F500
M03  S62
G01 X93.5 Y12.0 F500
M03  S65
G01 X94.0 Y12.0 F500
M03  S71
G01 X94.5 Y12.0 F500
M03  S80
G01 X95.0 Y12.0 F500
M03  S83
G01 X95.5 Y12.0 F500
M03  S85
G01 X96.0 Y12.0 F500
M03  S82
G01 X96.5 Y12.0 F500
M03  S78
G01 X97.0 Y12.0 F500
M03  S33
G01 X97.5 Y12.0 F500
M03  S3
G01 X98.5 Y12.0 F500
M05
G00 X98.5 Y12.5
M03  S3
G01 X97.5 Y12.5 F500
M03  S35
G01 X97.0 Y12.5 F500
M03  S81
G01 X96.5 Y12.5 F500
M03  S83
G01 X96.0 Y12.5 F500
M03  S86
G01 X94.5 Y12.5 F500
M03  S80
G01 X94.0 Y12.5 F500
M03  S76
G01 X93.5 Y12.5 F500
M03  S73
G01 X93.0 Y12.5 F500
M03  S72
G01 X92.5 Y12.5 F500
M03  S69
G01 X92.0 Y12.5 F500
M03  S65
G01 X91.5 Y12.5 F500
M03  S61
G01 X91.0 Y12.5 F500
M03  S56
G01 X90.5 Y12.5 F500
M03  S48
G01 X90.0 Y12.5 F500
M03  S39
G01 X89.5 Y12.5 F500
M03  S37
G01 X89.0 Y12.5 F500
M03  S39
G01 X88.5 Y12.5 F500
M03  S44
G01 X88.0 Y12.5 F500
M03  S37
G01 X87.5 Y12.5 F500
M03  S27
G01 X87.0 Y12.5 F500
M03  S20
G01 X86.5 Y12.5 F500
M03  S21
G01 X86.0 Y12.5 F500
M03  S20
G01 X85.5 Y12.5 F500
M03  S17
G01 X85.0 Y12.5 F500
M03  S15
G01 X84.5 Y12.5 F500
M03  S14
G01 X84.0 Y12.5 F500
M03  S12
G01 X83.5 Y12.5 F500
M03  S13
G01 X83.0 Y12.5 F500
M03  S15
G01 X82.5 Y12.5 F500
M03  S14
G01 X81.5 Y12.5 F500
M03  S15
G01 X81.0 Y12.5 F500
M03  S21
G01 X80.5 Y12.5 F500
M03  S31
G01 X80.0 Y12.5 F500
M03  S41
G01 X79.5 Y12.5 F500
M03  S47
G01 X79.0 Y12.5 F500
M03  S42
G01 X78.5 Y12.5 F500
M03  S30
G01 X78.0 Y12.5 F500
M03  S18
G01 X77.5 Y12.5 F500
M03  S11
G01 X77.0 Y12.5 F500
M03  S8
G01 X76.5 Y12.5 F500
M03  S7
G01 X75.5 Y12.5 F500
M03  S9
G01 X75.0 Y12.5 F500
M03  S11
G01 X74.5 Y12.5 F500
M03  S12
G01 X74.0 Y12.5 F500
M03  S10
G01 X73.5 Y12.5 F500
M03  S9
G01 X72.5 Y12.5 F500
M03  S11
G01 X72.0 Y12.5 F500
M03  S15
G01 X71.5 Y12.5 F500
M03  S17
G01 X70.5 Y12.5 F500
M03  S16
G01 X70.0 Y12.5 F500
M03  S12
G01 X69.5 Y12.5 F500
M03  S10
G01 X69.0 Y12.5 F500
M03  S12
G01 X68.5 Y12.5 F500
M03  S19
G01 X68.0 Y12.5 F500
M03  S30
G01 X67.5 Y12.5 F500
M03  S63
G01 X67.0 Y12.5 F500
M03  S126
G01 X66.5 Y12.5 F500
M03  S177
G01 X66.0 Y12.5 F500
M03  S214
G01 X65.5 Y12.5 F500
M03  S221
G01 X65.0 Y12.5 F500
M03  S223
G01 X64.5 Y12.5 F500
M03  S212
G01 X64.0 Y12.5 F500
M03  S178
G01 X63.5 Y12.5 F500
M03  S122
G01 X63.0 Y12.5 F500
M03  S91
G01 X62.5 Y12.5 F500
M03  S85
G01 X62.0 Y12.5 F500
M03  S89
G01 X61.5 Y12.5 F500
M03  S93
G01 X61.0 Y12.5 F500
M03  S94
G01 X60.5 Y12.5 F500
M03  S98
G01 X60.0 Y12.5 F500
M03  S103
G01 X59.5 Y12.5 F500
M03  S113
G01 X59.0 Y12.5 F500
M03  S126
G01 X58.5 Y12.5 F500
M03  S141
G01 X58.0 Y12.5 F500
M03  S155
G01 X57.5 Y12.5 F500
M03  S166
G01 X57.0 Y12.5 F500
M03  S164
G01 X56.5 Y12.5 F500
M03  S173
G01 X56.0 Y12.5 F500
M03  S174
G01 X55.5 Y12.5 F500
M03  S178
G01 X55.0 Y12.5 F500
M03  S177
G01 X54.5 Y12.5 F500
M03  S182
G01 X54.0 Y12.5 F500
M03  S176
G01 X53.5 Y12.5 F500
M03  S155
G01 X53.0 Y12.5 F500
M03  S145
G01 X52.5 Y12.5 F500
M03  S131
G01 X52.0 Y12.5 F500
M03  S109
G01 X51.5 Y12.5 F500
M03  S69
G01 X51.0 Y12.5 F500
M03  S46
G01 X50.5 Y12.5 F500
M03  S40
G01 X50.0 Y12.5 F500
M03  S34
G01 X49.5 Y12.5 F500
M03  S33
G01 X49.0 Y12.5 F500
M03  S36
G01 X48.5 Y12.5 F500
M03  S30
G01 X48.0 Y12.5 F500
M03  S33
G01 X47.5 Y12.5 F500
M03  S35
G01 X47.0 Y12.5 F500
M03  S23
G01 X46.5 Y12.5 F500
M03  S26
G01 X46.0 Y12.5 F500
M03  S22
G01 X45.5 Y12.5 F500
M03  S26
G01 X45.0 Y12.5 F500
M03  S39
G01 X44.5 Y12.5 F500
M03  S38
G01 X44.0 Y12.5 F500
M03  S35
G01 X43.5 Y12.5 F500
M03  S43
G01 X43.0 Y12.5 F500
M03  S52
G01 X42.5 Y12.5 F500
M03  S55
G01 X42.0 Y12.5 F500
M03  S56
G01 X41.5 Y12.5 F500
M03  S65
G01 X41.0 Y12.5 F500
M03  S84
G01 X40.5 Y12.5 F500
M03  S101
G01 X40.0 Y12.5 F500
M03  S120
G01 X39.5 Y12.5 F500
M03  S140
G01 X39.0 Y12.5 F500
M03  S156
G01 X38.5 Y12.5 F500
M03  S179
G01 X38.0 Y12.5 F500
M03  S211
G01 X37.5 Y12.5 F500
M03  S213
G01 X37.0 Y12.5 F500
M03  S195
G01 X36.5 Y12.5 F500
M03  S198
G01 X36.0 Y12.5 F500
M03  S203
G01 X35.5 Y12.5 F500
M03  S194
G01 X35.0 Y12.5 F500
M03  S189
G01 X34.5 Y12.5 F500
M03  S168
G01 X34.0 Y12.5 F500
M03  S176
G01 X33.5 Y12.5 F500
M03  S166
G01 X33.0 Y12.5 F500
M03  S140
G01 X32.5 Y12.5 F500
M03  S120
G01 X32.0 Y12.5 F500
M03  S124
G01 X31.5 Y12.5 F500
M03  S122
G01 X31.0 Y12.5 F500
M03  S103
G01 X30.5 Y12.5 F500
M03  S107
G01 X30.0 Y12.5 F500
M03  S118
G01 X29.5 Y12.5 F500
M03  S98
G01 X29.0 Y12.5 F500
M03  S48
G01 X28.5 Y12.5 F500
M03  S27
G01 X28.0 Y12.5 F500
M03  S24
G01 X27.5 Y12.5 F500
M03  S22
G01 X26.5 Y12.5 F500
M03  S24
G01 X26.0 Y12.5 F500
M03  S28
G01 X25.5 Y12.5 F500
M03  S32
G01 X25.0 Y12.5 F500
M03  S37
G01 X24.5 Y12.5 F500
M03  S42
G01 X24.0 Y12.5 F500
M03  S50
G01 X23.5 Y12.5 F500
M03  S61
G01 X23.0 Y12.5 F500
M03  S65
G01 X22.5 Y12.5 F500
M03  S55
G01 X22.0 Y12.5 F500
M03  S40
G01 X21.5 Y12.5 F500
M03  S30
G01 X21.0 Y12.5 F500
M03  S29
G01 X20.5 Y12.5 F500
M03  S28
G01 X20.0 Y12.5 F500
M03  S30
G01 X19.5 Y12.5 F500
M03  S36
G01 X19.0 Y12.5 F500
M03  S43
G01 X18.5 Y12.5 F500
M03  S52
G01 X18.0 Y12.5 F500
M03  S59
G01 X17.5 Y12.5 F500
M03  S61
G01 X17.0 Y12.5 F500
M03  S56
G01 X16.5 Y12.5 F500
M03  S52
G01 X16.0 Y12.5 F500
M03  S53
G01 X15.5 Y12.5 F500
M03  S59
G01 X15.0 Y12.5 F500
M03  S65
G01 X14.5 Y12.5 F500
M03  S70
G01 X14.0 Y12.5 F500
M03  S73
G01 X13.5 Y12.5 F500
M03  S72
G01 X12.5 Y12.5 F500
M03  S76
G01 X12.0 Y12.5 F500
M03  S86
G01 X11.5 Y12.5 F500
M03  S94
G01 X11.0 Y12.5 F500
M03  S92
G01 X10.5 Y12.5 F500
M03  S84
G01 X10.0 Y12.5 F500
M03  S79
G01 X9.5 Y12.5 F500
M03  S81
G01 X9.0 Y12.5 F500
M03  S88
G01 X8.5 Y12.5 F500
M03  S92
G01 X8.0 Y12.5 F500
M03  S83
G01 X7.5 Y12.5 F500
M03  S77
G01 X7.0 Y12.5 F500
M03  S70
G01 X6.5 Y12.5 F500
M03  S64
G01 X6.0 Y12.5 F500
M03  S60
G01 X5.0 Y12.5 F500
M03  S64
G01 X4.5 Y12.5 F500
M03  S68
G01 X4.0 Y12.5 F500
M03  S71
G01 X3.5 Y12.5 F500
M03  S77
G01 X3.0 Y12.5 F500
M03  S75
G01 X2.5 Y12.5 F500
M03  S76
G01 X2.0 Y12.5 F500
M03  S74
G01 X1.0 Y12.5 F500
M03  S7
G01 X0.5 Y12.5 F500
M03  S3
G01 X0.0 Y12.5 F500
M05
G00 X0.0 Y13.0
M03  S3
G01 X0.5 Y13.0 F500
M03  S6
G01 X1.0 Y13.0 F500
M03  S62
G01 X1.5 Y13.0 F500
M03  S66
G01 X2.0 Y13.0 F500
M03  S68
G01 X2.5 Y13.0 F500
M03  S72
G01 X3.0 Y13.0 F500
M03  S75
G01 X3.5 Y13.0 F500
M03  S73
G01 X4.0 Y13.0 F500
M03  S71
G01 X4.5 Y13.0 F500
M03  S70
G01 X5.5 Y13.0 F500
M03  S71
G01 X6.0 Y13.0 F500
M03  S73
G01 X6.5 Y13.0 F500
M03  S77
G01 X7.0 Y13.0 F500
M03  S80
G01 X7.5 Y13.0 F500
M03  S85
G01 X8.0 Y13.0 F500
M03  S90
G01 X8.5 Y13.0 F500
M03  S87
G01 X9.0 Y13.0 F500
M03  S82
G01 X9.5 Y13.0 F500
M03  S81
G01 X10.0 Y13.0 F500
M03  S82
G01 X10.5 Y13.0 F500
M03  S87
G01 X11.0 Y13.0 F500
M03  S88
G01 X11.5 Y13.0 F500
M03  S82
G01 X12.0 Y13.0 F500
M03  S76
G01 X12.5 Y13.0 F500
M03  S72
G01 X13.0 Y13.0 F500
M03  S71
G01 X13.5 Y13.0 F500
M03  S70
G01 X14.0 Y13.0 F500
M03  S68
G01 X14.5 Y13.0 F500
M03  S64
G01 X15.0 Y13.0 F500
M03  S60
G01 X15.5 Y13.0 F500
M03  S55
G01 X16.0 Y13.0 F500
M03  S52
G01 X16.5 Y13.0 F500
M03  S53
G01 X17.0 Y13.0 F500
M03  S55
G01 X17.5 Y13.0 F500
M03  S57
G01 X18.0 Y13.0 F500
M03  S56
G01 X18.5 Y13.0 F500
M03  S52
G01 X19.0 Y13.0 F500
M03  S47
G01 X19.5 Y13.0 F500
M03  S42
G01 X20.0 Y13.0 F500
M03  S40
G01 X21.5 Y13.0 F500
M03  S44
G01 X22.0 Y13.0 F500
M03  S53
G01 X22.5 Y13.0 F500
M03  S57
G01 X23.0 Y13.0 F500
M03  S54
G01 X23.5 Y13.0 F500
M03  S45
G01 X24.0 Y13.0 F500
M03  S41
G01 X24.5 Y13.0 F500
M03  S40
G01 X25.0 Y13.0 F500
M03  S38
G01 X25.5 Y13.0 F500
M03  S36
G01 X26.0 Y13.0 F500
M03  S33
G01 X26.5 Y13.0 F500
M03  S32
G01 X27.0 Y13.0 F500
M03  S33
G01 X27.5 Y13.0 F500
M03  S36
G01 X28.0 Y13.0 F500
M03  S32
G01 X28.5 Y13.0 F500
M03  S30
G01 X29.0 Y13.0 F500
M03  S64
G01 X29.5 Y13.0 F500
M03  S104
G01 X30.0 Y13.0 F500
M03  S94
G01 X30.5 Y13.0 F500
M03  S86
G01 X31.0 Y13.0 F500
M03  S128
G01 X31.5 Y13.0 F500
M03  S158
G01 X32.0 Y13.0 F500
M03  S157
G01 X32.5 Y13.0 F500
M03  S176
G01 X33.0 Y13.0 F500
M03  S178
G01 X33.5 Y13.0 F500
M03  S186
G01 X34.0 Y13.0 F500
M03  S173
G01 X34.5 Y13.0 F500
M03  S168
G01 X35.0 Y13.0 F500
M03  S179
G01 X35.5 Y13.0 F500
M03  S209
G01 X36.0 Y13.0 F500
M03  S220
G01 X36.5 Y13.0 F500
M03  S226
G01 X37.0 Y13.0 F500
M03  S222
G01 X37.5 Y13.0 F500
M03  S196
G01 X38.0 Y13.0 F500
M03  S169
G01 X38.5 Y13.0 F500
M03  S157
G01 X39.0 Y13.0 F500
M03  S121
G01 X39.5 Y13.0 F500
M03  S114
G01 X40.0 Y13.0 F500
M03  S95
G01 X40.5 Y13.0 F500
M03  S69
G01 X41.0 Y13.0 F500
M03  S62
G01 X41.5 Y13.0 F500
M03  S48
G01 X42.0 Y13.0 F500
M03  S43
G01 X42.5 Y13.0 F500
M03  S35
G01 X43.0 Y13.0 F500
M03  S32
G01 X43.5 Y13.0 F500
M03  S29
G01 X44.0 Y13.0 F500
M03  S28
G01 X44.5 Y13.0 F500
M03  S29
G01 X45.0 Y13.0 F500
M03  S30
G01 X45.5 Y13.0 F500
M03  S27
G01 X46.0 Y13.0 F500
M03  S22
G01 X46.5 Y13.0 F500
M03  S21
G01 X47.0 Y13.0 F500
M03  S26
G01 X47.5 Y13.0 F500
M03  S38
G01 X48.0 Y13.0 F500
M03  S25
G01 X48.5 Y13.0 F500
M03  S33
G01 X49.0 Y13.0 F500
M03  S31
G01 X49.5 Y13.0 F500
M03  S33
G01 X50.0 Y13.0 F500
M03  S42
G01 X50.5 Y13.0 F500
M03  S66
G01 X51.0 Y13.0 F500
M03  S103
G01 X51.5 Y13.0 F500
M03  S139
G01 X52.0 Y13.0 F500
M03  S142
G01 X52.5 Y13.0 F500
M03  S152
G01 X53.0 Y13.0 F500
M03  S162
G01 X53.5 Y13.0 F500
M03  S176
G01 X54.0 Y13.0 F500
M03  S179
G01 X54.5 Y13.0 F500
M03  S181
G01 X55.0 Y13.0 F500
M03  S176
G01 X56.0 Y13.0 F500
M03  S171
G01 X56.5 Y13.0 F500
M03  S173
G01 X57.0 Y13.0 F500
M03  S172
G01 X57.5 Y13.0 F500
M03  S160
G01 X58.0 Y13.0 F500
M03  S146
G01 X58.5 Y13.0 F500
M03  S131
G01 X59.0 Y13.0 F500
M03  S125
G01 X59.5 Y13.0 F500
M03  S121
G01 X60.0 Y13.0 F500
M03  S110
G01 X60.5 Y13.0 F500
M03  S106
G01 X61.0 Y13.0 F500
M03  S103
G01 X61.5 Y13.0 F500
M03  S98
G01 X62.0 Y13.0 F500
M03  S93
G01 X62.5 Y13.0 F500
M03  S94
G01 X63.0 Y13.0 F500
M03  S115
G01 X63.5 Y13.0 F500
M03  S152
G01 X64.0 Y13.0 F500
M03  S193
G01 X64.5 Y13.0 F500
M03  S217
G01 X65.0 Y13.0 F500
M03  S215
G01 X65.5 Y13.0 F500
M03  S204
G01 X66.0 Y13.0 F500
M03  S168
G01 X66.5 Y13.0 F500
M03  S80
G01 X67.0 Y13.0 F500
M03  S33
G01 X67.5 Y13.0 F500
M03  S19
G01 X68.0 Y13.0 F500
M03  S12
G01 X68.5 Y13.0 F500
M03  S10
G01 X69.0 Y13.0 F500
M03  S12
G01 X69.5 Y13.0 F500
M03  S15
G01 X70.0 Y13.0 F500
M03  S17
G01 X70.5 Y13.0 F500
M03  S18
G01 X71.0 Y13.0 F500
M03  S17
G01 X71.5 Y13.0 F500
M03  S15
G01 X72.0 Y13.0 F500
M03  S12
G01 X72.5 Y13.0 F500
M03  S11
G01 X73.0 Y13.0 F500
M03  S10
G01 X73.5 Y13.0 F500
M03  S11
G01 X74.0 Y13.0 F500
M03  S12
G01 X75.0 Y13.0 F500
M03  S11
G01 X75.5 Y13.0 F500
M03  S9
G01 X77.5 Y13.0 F500
M03  S12
G01 X78.0 Y13.0 F500
M03  S20
G01 X78.5 Y13.0 F500
M03  S35
G01 X79.0 Y13.0 F500
M03  S46
G01 X79.5 Y13.0 F500
M03  S44
G01 X80.0 Y13.0 F500
M03  S33
G01 X80.5 Y13.0 F500
M03  S23
G01 X81.0 Y13.0 F500
M03  S15
G01 X81.5 Y13.0 F500
M03  S14
G01 X82.0 Y13.0 F500
M03  S16
G01 X82.5 Y13.0 F500
M03  S18
G01 X83.5 Y13.0 F500
M03  S16
G01 X84.0 Y13.0 F500
M03  S14
G01 X84.5 Y13.0 F500
M03  S13
G01 X86.0 Y13.0 F500
M03  S14
G01 X86.5 Y13.0 F500
M03  S16
G01 X87.0 Y13.0 F500
M03  S27
G01 X87.5 Y13.0 F500
M03  S43
G01 X88.0 Y13.0 F500
M03  S51
G01 X88.5 Y13.0 F500
M03  S46
G01 X89.0 Y13.0 F500
M03  S40
G01 X89.5 Y13.0 F500
M03  S38
G01 X90.0 Y13.0 F500
M03  S41
G01 X90.5 Y13.0 F500
M03  S46
G01 X91.0 Y13.0 F500
M03  S53
G01 X91.5 Y13.0 F500
M03  S59
G01 X92.0 Y13.0 F500
M03  S65
G01 X92.5 Y13.0 F500
M03  S71
G01 X93.0 Y13.0 F500
M03  S76
G01 X93.5 Y13.0 F500
M03  S81
G01 X94.0 Y13.0 F500
M03  S85
G01 X94.5 Y13.0 F500
M03  S86
G01 X95.5 Y13.0 F500
M03  S85
G01 X96.0 Y13.0 F500
M03  S83
G01 X96.5 Y13.0 F500
M03  S80
G01 X97.0 Y13.0 F500
M03  S34
G01 X97.5 Y13.0 F500
M03  S3
G01 X98.5 Y13.0 F500
M05
G00 X98.5 Y13.5
M03  S3
G01 X97.5 Y13.5 F500
M03  S30
G01 X97.0 Y13.5 F500
M03  S71
G01 X96.5 Y13.5 F500
M03  S73
G01 X96.0 Y13.5 F500
M03  S76
G01 X95.5 Y13.5 F500
M03  S78
G01 X95.0 Y13.5 F500
M03  S80
G01 X94.5 Y13.5 F500
M03  S81
G01 X94.0 Y13.5 F500
M03  S80
G01 X93.5 Y13.5 F500
M03  S76
G01 X93.0 Y13.5 F500
M03  S69
G01 X92.5 Y13.5 F500
M03  S62
G01 X92.0 Y13.5 F500
M03  S55
G01 X91.5 Y13.5 F500
M03  S48
G01 X91.0 Y13.5 F500
M03  S43
G01 X90.5 Y13.5 F500
M03  S42
G01 X90.0 Y13.5 F500
M03  S44
G01 X89.5 Y13.5 F500
M03  S51
G01 X89.0 Y13.5 F500
M03  S58
G01 X88.5 Y13.5 F500
M03  S60
G01 X88.0 Y13.5 F500
M03  S50
G01 X87.5 Y13.5 F500
M03  S32
G01 X87.0 Y13.5 F500
M03  S19
G01 X86.5 Y13.5 F500
M03  S16
G01 X86.0 Y13.5 F500
M03  S15
G01 X85.0 Y13.5 F500
M03  S17
G01 X84.5 Y13.5 F500
M03  S19
G01 X84.0 Y13.5 F500
M03  S21
G01 X83.5 Y13.5 F500
M03  S23
G01 X83.0 Y13.5 F500
M03  S21
G01 X82.5 Y13.5 F500
M03  S17
G01 X82.0 Y13.5 F500
M03  S15
G01 X81.5 Y13.5 F500
M03  S18
G01 X81.0 Y13.5 F500
M03  S27
G01 X80.5 Y13.5 F500
M03  S36
G01 X80.0 Y13.5 F500
M03  S44
G01 X79.5 Y13.5 F500
M03  S41
G01 X79.0 Y13.5 F500
M03  S27
G01 X78.5 Y13.5 F500
M03  S15
G01 X78.0 Y13.5 F500
M03  S10
G01 X77.0 Y13.5 F500
M03  S11
G01 X76.5 Y13.5 F500
M03  S12
G01 X75.5 Y13.5 F500
M03  S14
G01 X74.5 Y13.5 F500
M03  S13
G01 X74.0 Y13.5 F500
M03  S11
G01 X73.5 Y13.5 F500
M03  S12
G01 X73.0 Y13.5 F500
M03  S13
G01 X72.5 Y13.5 F500
M03  S14
G01 X72.0 Y13.5 F500
M03  S15
G01 X71.5 Y13.5 F500
M03  S17
G01 X71.0 Y13.5 F500
M03  S19
G01 X70.5 Y13.5 F500
M03  S20
G01 X70.0 Y13.5 F500
M03  S19
G01 X69.5 Y13.5 F500
M03  S15
G01 X69.0 Y13.5 F500
M03  S12
G01 X68.5 Y13.5 F500
M03  S13
G01 X68.0 Y13.5 F500
M03  S18
G01 X67.5 Y13.5 F500
M03  S34
G01 X67.0 Y13.5 F500
M03  S108
G01 X66.5 Y13.5 F500
M03  S187
G01 X66.0 Y13.5 F500
M03  S221
G01 X65.5 Y13.5 F500
M03  S224
G01 X65.0 Y13.5 F500
M03  S214
G01 X64.5 Y13.5 F500
M03  S173
G01 X64.0 Y13.5 F500
M03  S127
G01 X63.5 Y13.5 F500
M03  S101
G01 X63.0 Y13.5 F500
M03  S95
G01 X62.5 Y13.5 F500
M03  S99
G01 X62.0 Y13.5 F500
M03  S107
G01 X61.5 Y13.5 F500
M03  S109
G01 X61.0 Y13.5 F500
M03  S116
G01 X60.5 Y13.5 F500
M03  S122
G01 X60.0 Y13.5 F500
M03  S127
G01 X59.5 Y13.5 F500
M03  S138
G01 X59.0 Y13.5 F500
M03  S147
G01 X58.5 Y13.5 F500
M03  S161
G01 X58.0 Y13.5 F500
M03  S163
G01 X57.5 Y13.5 F500
M03  S172
G01 X57.0 Y13.5 F500
M03  S173
G01 X55.5 Y13.5 F500
M03  S177
G01 X55.0 Y13.5 F500
M03  S179
G01 X54.5 Y13.5 F500
M03  S176
G01 X54.0 Y13.5 F500
M03  S174
G01 X53.5 Y13.5 F500
M03  S160
G01 X53.0 Y13.5 F500
M03  S156
G01 X52.5 Y13.5 F500
M03  S148
G01 X52.0 Y13.5 F500
M03  S145
G01 X51.5 Y13.5 F500
M03  S130
G01 X51.0 Y13.5 F500
M03  S101
G01 X50.5 Y13.5 F500
M03  S52
G01 X50.0 Y13.5 F500
M03  S39
G01 X49.5 Y13.5 F500
M03  S40
G01 X49.0 Y13.5 F500
M03  S35
G01 X48.5 Y13.5 F500
M03  S22
G01 X48.0 Y13.5 F500
M03  S33
G01 X47.5 Y13.5 F500
M03  S22
G01 X47.0 Y13.5 F500
M03  S25
G01 X46.0 Y13.5 F500
M03  S24
G01 X44.5 Y13.5 F500
M03  S28
G01 X43.5 Y13.5 F500
M03  S24
G01 X43.0 Y13.5 F500
M03  S27
G01 X42.5 Y13.5 F500
M03  S31
G01 X42.0 Y13.5 F500
M03  S38
G01 X41.5 Y13.5 F500
M03  S48
G01 X41.0 Y13.5 F500
M03  S69
G01 X40.5 Y13.5 F500
M03  S94
G01 X40.0 Y13.5 F500
M03  S118
G01 X39.5 Y13.5 F500
M03  S127
G01 X39.0 Y13.5 F500
M03  S118
G01 X38.5 Y13.5 F500
M03  S152
G01 X38.0 Y13.5 F500
M03  S188
G01 X37.5 Y13.5 F500
M03  S211
G01 X37.0 Y13.5 F500
M03  S228
G01 X36.5 Y13.5 F500
M03  S225
G01 X36.0 Y13.5 F500
M03  S214
G01 X35.5 Y13.5 F500
M03  S205
G01 X35.0 Y13.5 F500
M03  S199
G01 X34.5 Y13.5 F500
M03  S205
G01 X34.0 Y13.5 F500
M03  S194
G01 X33.5 Y13.5 F500
M03  S199
G01 X33.0 Y13.5 F500
M03  S185
G01 X32.0 Y13.5 F500
M03  S173
G01 X31.5 Y13.5 F500
M03  S132
G01 X31.0 Y13.5 F500
M03  S105
G01 X30.5 Y13.5 F500
M03  S122
G01 X30.0 Y13.5 F500
M03  S97
G01 X29.5 Y13.5 F500
M03  S60
G01 X29.0 Y13.5 F500
M03  S41
G01 X28.5 Y13.5 F500
M03  S48
G01 X28.0 Y13.5 F500
M03  S55
G01 X27.5 Y13.5 F500
M03  S50
G01 X27.0 Y13.5 F500
M03  S45
G01 X25.5 Y13.5 F500
M03  S43
G01 X25.0 Y13.5 F500
M03  S44
G01 X24.5 Y13.5 F500
M03  S46
G01 X24.0 Y13.5 F500
M03  S48
G01 X23.5 Y13.5 F500
M03  S51
G01 X23.0 Y13.5 F500
M03  S53
G01 X22.5 Y13.5 F500
M03  S50
G01 X22.0 Y13.5 F500
M03  S46
G01 X21.5 Y13.5 F500
M03  S48
G01 X21.0 Y13.5 F500
M03  S51
G01 X20.0 Y13.5 F500
M03  S48
G01 X19.5 Y13.5 F500
M03  S43
G01 X19.0 Y13.5 F500
M03  S42
G01 X18.5 Y13.5 F500
M03  S41
G01 X18.0 Y13.5 F500
M03  S39
G01 X17.0 Y13.5 F500
M03  S41
G01 X16.5 Y13.5 F500
M03  S45
G01 X16.0 Y13.5 F500
M03  S51
G01 X15.5 Y13.5 F500
M03  S57
G01 X15.0 Y13.5 F500
M03  S56
G01 X14.5 Y13.5 F500
M03  S53
G01 X13.5 Y13.5 F500
M03  S55
G01 X13.0 Y13.5 F500
M03  S59
G01 X12.5 Y13.5 F500
M03  S64
G01 X12.0 Y13.5 F500
M03  S70
G01 X11.5 Y13.5 F500
M03  S75
G01 X11.0 Y13.5 F500
M03  S80
G01 X10.0 Y13.5 F500
M03  S77
G01 X9.5 Y13.5 F500
M03  S80
G01 X9.0 Y13.5 F500
M03  S81
G01 X8.0 Y13.5 F500
M03  S80
G01 X7.5 Y13.5 F500
M03  S77
G01 X6.5 Y13.5 F500
M03  S76
G01 X6.0 Y13.5 F500
M03  S75
G01 X5.5 Y13.5 F500
M03  S73
G01 X5.0 Y13.5 F500
M03  S72
G01 X4.0 Y13.5 F500
M03  S73
G01 X3.5 Y13.5 F500
M03  S70
G01 X3.0 Y13.5 F500
M03  S63
G01 X2.5 Y13.5 F500
M03  S54
G01 X2.0 Y13.5 F500
M03  S47
G01 X1.5 Y13.5 F500
M03  S41
G01 X1.0 Y13.5 F500
M03  S5
G01 X0.5 Y13.5 F500
M03  S3
G01 X0.0 Y13.5 F500
M05
G00 X0.0 Y14.0
M03  S3
G01 X0.5 Y14.0 F500
M03  S5
G01 X1.0 Y14.0 F500
M03  S30
G01 X1.5 Y14.0 F500
M03  S35
G01 X2.0 Y14.0 F500
M03  S43
G01 X2.5 Y14.0 F500
M03  S55
G01 X3.0 Y14.0 F500
M03  S65
G01 X3.5 Y14.0 F500
M03  S68
G01 X5.0 Y14.0 F500
M03  S70
G01 X5.5 Y14.0 F500
M03  S71
G01 X6.0 Y14.0 F500
M03  S72
G01 X6.5 Y14.0 F500
M03  S73
G01 X7.0 Y14.0 F500
M03  S72
G01 X8.5 Y14.0 F500
M03  S70
G01 X9.0 Y14.0 F500
M03  S68
G01 X9.5 Y14.0 F500
M03  S69
G01 X10.0 Y14.0 F500
M03  S70
G01 X11.0 Y14.0 F500
M03  S67
G01 X11.5 Y14.0 F500
M03  S62
G01 X12.0 Y14.0 F500
M03  S54
G01 X12.5 Y14.0 F500
M03  S45
G01 X13.0 Y14.0 F500
M03  S38
G01 X13.5 Y14.0 F500
M03  S36
G01 X14.0 Y14.0 F500
M03  S42
G01 X14.5 Y14.0 F500
M03  S50
G01 X15.0 Y14.0 F500
M03  S52
G01 X15.5 Y14.0 F500
M03  S44
G01 X16.0 Y14.0 F500
M03  S34
G01 X16.5 Y14.0 F500
M03  S27
G01 X17.0 Y14.0 F500
M03  S25
G01 X17.5 Y14.0 F500
M03  S24
G01 X18.5 Y14.0 F500
M03  S26
G01 X19.0 Y14.0 F500
M03  S33
G01 X19.5 Y14.0 F500
M03  S42
G01 X20.0 Y14.0 F500
M03  S50
G01 X20.5 Y14.0 F500
M03  S55
G01 X21.5 Y14.0 F500
M03  S51
G01 X22.0 Y14.0 F500
M03  S50
G01 X22.5 Y14.0 F500
M03  S53
G01 X23.0 Y14.0 F500
M03  S56
G01 X23.5 Y14.0 F500
M03  S57
G01 X24.0 Y14.0 F500
M03  S58
G01 X24.5 Y14.0 F500
M03  S55
G01 X25.0 Y14.0 F500
M03  S50
G01 X25.5 Y14.0 F500
M03  S52
G01 X26.0 Y14.0 F500
M03  S55
G01 X26.5 Y14.0 F500
M03  S58
G01 X27.0 Y14.0 F500
M03  S64
G01 X27.5 Y14.0 F500
M03  S69
G01 X28.0 Y14.0 F500
M03  S58
G01 X28.5 Y14.0 F500
M03  S45
G01 X29.0 Y14.0 F500
M03  S61
G01 X29.5 Y14.0 F500
M03  S116
G01 X30.0 Y14.0 F500
M03  S112
G01 X30.5 Y14.0 F500
M03  S111
G01 X31.0 Y14.0 F500
M03  S150
G01 X31.5 Y14.0 F500
M03  S174
G01 X32.0 Y14.0 F500
M03  S192
G01 X32.5 Y14.0 F500
M03  S197
G01 X33.0 Y14.0 F500
M03  S188
G01 X33.5 Y14.0 F500
M03  S192
G01 X34.0 Y14.0 F500
M03  S198
G01 X34.5 Y14.0 F500
M03  S205
G01 X35.0 Y14.0 F500
M03  S215
G01 X35.5 Y14.0 F500
M03  S217
G01 X36.0 Y14.0 F500
M03  S211
G01 X36.5 Y14.0 F500
M03  S199
G01 X37.0 Y14.0 F500
M03  S175
G01 X37.5 Y14.0 F500
M03  S165
G01 X38.0 Y14.0 F500
M03  S152
G01 X38.5 Y14.0 F500
M03  S134
G01 X39.0 Y14.0 F500
M03  S106
G01 X39.5 Y14.0 F500
M03  S81
G01 X40.0 Y14.0 F500
M03  S60
G01 X40.5 Y14.0 F500
M03  S45
G01 X41.0 Y14.0 F500
M03  S35
G01 X41.5 Y14.0 F500
M03  S28
G01 X42.5 Y14.0 F500
M03  S24
G01 X43.0 Y14.0 F500
M03  S23
G01 X43.5 Y14.0 F500
M03  S25
G01 X44.0 Y14.0 F500
M03  S27
G01 X44.5 Y14.0 F500
M03  S24
G01 X45.0 Y14.0 F500
M03  S27
G01 X45.5 Y14.0 F500
M03  S24
G01 X46.5 Y14.0 F500
M03  S22
G01 X47.0 Y14.0 F500
M03  S24
G01 X47.5 Y14.0 F500
M03  S23
G01 X48.0 Y14.0 F500
M03  S26
G01 X49.0 Y14.0 F500
M03  S51
G01 X50.0 Y14.0 F500
M03  S82
G01 X50.5 Y14.0 F500
M03  S127
G01 X51.0 Y14.0 F500
M03  S140
G01 X51.5 Y14.0 F500
M03  S151
G01 X52.0 Y14.0 F500
M03  S153
G01 X52.5 Y14.0 F500
M03  S159
G01 X53.0 Y14.0 F500
M03  S163
G01 X53.5 Y14.0 F500
M03  S169
G01 X54.0 Y14.0 F500
M03  S177
G01 X54.5 Y14.0 F500
M03  S175
G01 X55.0 Y14.0 F500
M03  S170
G01 X55.5 Y14.0 F500
M03  S176
G01 X56.0 Y14.0 F500
M03  S173
G01 X56.5 Y14.0 F500
M03  S172
G01 X57.0 Y14.0 F500
M03  S168
G01 X57.5 Y14.0 F500
M03  S165
G01 X58.0 Y14.0 F500
M03  S161
G01 X58.5 Y14.0 F500
M03  S159
G01 X59.0 Y14.0 F500
M03  S149
G01 X59.5 Y14.0 F500
M03  S147
G01 X60.0 Y14.0 F500
M03  S140
G01 X60.5 Y14.0 F500
M03  S133
G01 X61.0 Y14.0 F500
M03  S130
G01 X61.5 Y14.0 F500
M03  S118
G01 X62.0 Y14.0 F500
M03  S108
G01 X62.5 Y14.0 F500
M03  S103
G01 X63.0 Y14.0 F500
M03  S100
G01 X63.5 Y14.0 F500
M03  S114
G01 X64.0 Y14.0 F500
M03  S144
G01 X64.5 Y14.0 F500
M03  S177
G01 X65.0 Y14.0 F500
M03  S212
G01 X65.5 Y14.0 F500
M03  S220
G01 X66.0 Y14.0 F500
M03  S190
G01 X66.5 Y14.0 F500
M03  S80
G01 X67.0 Y14.0 F500
M03  S43
G01 X67.5 Y14.0 F500
M03  S21
G01 X68.0 Y14.0 F500
M03  S13
G01 X68.5 Y14.0 F500
M03  S12
G01 X69.0 Y14.0 F500
M03  S17
G01 X69.5 Y14.0 F500
M03  S22
G01 X70.0 Y14.0 F500
M03  S20
G01 X70.5 Y14.0 F500
M03  S19
G01 X71.0 Y14.0 F500
M03  S16
G01 X71.5 Y14.0 F500
M03  S14
G01 X72.0 Y14.0 F500
M03  S13
G01 X72.5 Y14.0 F500
M03  S12
G01 X73.0 Y14.0 F500
M03  S11
G01 X74.0 Y14.0 F500
M03  S13
G01 X74.5 Y14.0 F500
M03  S16
G01 X75.5 Y14.0 F500
M03  S15
G01 X76.0 Y14.0 F500
M03  S14
G01 X76.5 Y14.0 F500
M03  S13
G01 X77.0 Y14.0 F500
M03  S12
G01 X77.5 Y14.0 F500
M03  S11
G01 X78.0 Y14.0 F500
M03  S14
G01 X78.5 Y14.0 F500
M03  S21
G01 X79.0 Y14.0 F500
M03  S32
G01 X79.5 Y14.0 F500
M03  S39
G01 X80.0 Y14.0 F500
M03  S36
G01 X80.5 Y14.0 F500
M03  S31
G01 X81.0 Y14.0 F500
M03  S23
G01 X81.5 Y14.0 F500
M03  S17
G01 X82.5 Y14.0 F500
M03  S22
G01 X83.0 Y14.0 F500
M03  S26
G01 X84.0 Y14.0 F500
M03  S24
G01 X84.5 Y14.0 F500
M03  S22
G01 X85.0 Y14.0 F500
M03  S21
G01 X85.5 Y14.0 F500
M03  S22
G01 X86.0 Y14.0 F500
M03  S24
G01 X86.5 Y14.0 F500
M03  S30
G01 X87.0 Y14.0 F500
M03  S42
G01 X87.5 Y14.0 F500
M03  S59
G01 X88.0 Y14.0 F500
M03  S68
G01 X88.5 Y14.0 F500
M03  S69
G01 X89.0 Y14.0 F500
M03  S65
G01 X89.5 Y14.0 F500
M03  S56
G01 X90.0 Y14.0 F500
M03  S49
G01 X91.0 Y14.0 F500
M03  S54
G01 X91.5 Y14.0 F500
M03  S59
G01 X92.0 Y14.0 F500
M03  S62
G01 X92.5 Y14.0 F500
M03  S67
G01 X93.0 Y14.0 F500
M03  S73
G01 X93.5 Y14.0 F500
M03  S76
G01 X94.0 Y14.0 F500
M03  S75
G01 X94.5 Y14.0 F500
M03  S71
G01 X95.0 Y14.0 F500
M03  S67
G01 X95.5 Y14.0 F500
M03  S64
G01 X96.0 Y14.0 F500
M03  S61
G01 X96.5 Y14.0 F500
M03  S57
G01 X97.0 Y14.0 F500
M03  S23
G01 X97.5 Y14.0 F500
M03  S3
G01 X98.5 Y14.0 F500
M05
G00 X98.5 Y14.5
M03  S3
G01 X97.5 Y14.5 F500
M03  S21
G01 X97.0 Y14.5 F500
M03  S51
G01 X96.5 Y14.5 F500
M03  S55
G01 X96.0 Y14.5 F500
M03  S57
G01 X95.5 Y14.5 F500
M03  S60
G01 X95.0 Y14.5 F500
M03  S62
G01 X94.5 Y14.5 F500
M03  S66
G01 X94.0 Y14.5 F500
M03  S70
G01 X93.5 Y14.5 F500
M03  S69
G01 X93.0 Y14.5 F500
M03  S65
G01 X92.5 Y14.5 F500
M03  S61
G01 X92.0 Y14.5 F500
M03  S59
G01 X91.5 Y14.5 F500
M03  S54
G01 X91.0 Y14.5 F500
M03  S49
G01 X90.5 Y14.5 F500
M03  S48
G01 X90.0 Y14.5 F500
M03  S53
G01 X89.5 Y14.5 F500
M03  S61
G01 X89.0 Y14.5 F500
M03  S69
G01 X88.5 Y14.5 F500
M03  S72
G01 X88.0 Y14.5 F500
M03  S67
G01 X87.5 Y14.5 F500
M03  S59
G01 X87.0 Y14.5 F500
M03  S49
G01 X86.5 Y14.5 F500
M03  S40
G01 X86.0 Y14.5 F500
M03  S35
G01 X85.5 Y14.5 F500
M03  S32
G01 X85.0 Y14.5 F500
M03  S31
G01 X83.5 Y14.5 F500
M03  S30
G01 X83.0 Y14.5 F500
M03  S24
G01 X82.5 Y14.5 F500
M03  S20
G01 X82.0 Y14.5 F500
M03  S23
G01 X81.5 Y14.5 F500
M03  S29
G01 X81.0 Y14.5 F500
M03  S30
G01 X80.0 Y14.5 F500
M03  S29
G01 X79.5 Y14.5 F500
M03  S25
G01 X79.0 Y14.5 F500
M03  S20
G01 X78.5 Y14.5 F500
M03  S15
G01 X76.0 Y14.5 F500
M03  S16
G01 X75.5 Y14.5 F500
M03  S17
G01 X75.0 Y14.5 F500
M03  S15
G01 X74.5 Y14.5 F500
M03  S12
G01 X74.0 Y14.5 F500
M03  S11
G01 X73.5 Y14.5 F500
M03  S10
G01 X73.0 Y14.5 F500
M03  S11
G01 X72.0 Y14.5 F500
M03  S12
G01 X71.5 Y14.5 F500
M03  S15
G01 X71.0 Y14.5 F500
M03  S18
G01 X70.5 Y14.5 F500
M03  S20
G01 X70.0 Y14.5 F500
M03  S23
G01 X69.5 Y14.5 F500
M03  S19
G01 X69.0 Y14.5 F500
M03  S14
G01 X68.0 Y14.5 F500
M03  S26
G01 X67.5 Y14.5 F500
M03  S57
G01 X67.0 Y14.5 F500
M03  S137
G01 X66.5 Y14.5 F500
M03  S190
G01 X66.0 Y14.5 F500
M03  S201
G01 X65.5 Y14.5 F500
M03  S175
G01 X65.0 Y14.5 F500
M03  S144
G01 X64.5 Y14.5 F500
M03  S118
G01 X64.0 Y14.5 F500
M03  S108
G01 X63.5 Y14.5 F500
M03  S105
G01 X63.0 Y14.5 F500
M03  S110
G01 X62.5 Y14.5 F500
M03  S118
G01 X62.0 Y14.5 F500
M03  S123
G01 X61.5 Y14.5 F500
M03  S129
G01 X61.0 Y14.5 F500
M03  S136
G01 X60.5 Y14.5 F500
M03  S139
G01 X60.0 Y14.5 F500
M03  S149
G01 X59.5 Y14.5 F500
M03  S150
G01 X59.0 Y14.5 F500
M03  S162
G01 X58.5 Y14.5 F500
M03  S170
G01 X58.0 Y14.5 F500
M03  S166
G01 X57.5 Y14.5 F500
M03  S165
G01 X56.5 Y14.5 F500
M03  S171
G01 X56.0 Y14.5 F500
M03  S172
G01 X55.5 Y14.5 F500
M03  S173
G01 X55.0 Y14.5 F500
M03  S167
G01 X54.5 Y14.5 F500
M03  S173
G01 X54.0 Y14.5 F500
M03  S168
G01 X53.5 Y14.5 F500
M03  S162
G01 X53.0 Y14.5 F500
M03  S157
G01 X52.5 Y14.5 F500
M03  S150
G01 X52.0 Y14.5 F500
M03  S149
G01 X51.5 Y14.5 F500
M03  S145
G01 X51.0 Y14.5 F500
M03  S130
G01 X50.5 Y14.5 F500
M03  S116
G01 X50.0 Y14.5 F500
M03  S83
G01 X49.5 Y14.5 F500
M03  S57
G01 X49.0 Y14.5 F500
M03  S29
G01 X48.5 Y14.5 F500
M03  S26
G01 X48.0 Y14.5 F500
M03  S27
G01 X47.5 Y14.5 F500
M03  S22
G01 X46.5 Y14.5 F500
M03  S24
G01 X46.0 Y14.5 F500
M03  S31
G01 X45.5 Y14.5 F500
M03  S27
G01 X45.0 Y14.5 F500
M03  S33
G01 X44.5 Y14.5 F500
M03  S30
G01 X44.0 Y14.5 F500
M03  S25
G01 X43.5 Y14.5 F500
M03  S28
G01 X42.5 Y14.5 F500
M03  S26
G01 X42.0 Y14.5 F500
M03  S27
G01 X41.0 Y14.5 F500
M03  S31
G01 X40.5 Y14.5 F500
M03  S38
G01 X40.0 Y14.5 F500
M03  S54
G01 X39.5 Y14.5 F500
M03  S76
G01 X39.0 Y14.5 F500
M03  S100
G01 X38.5 Y14.5 F500
M03  S136
G01 X38.0 Y14.5 F500
M03  S155
G01 X37.5 Y14.5 F500
M03  S160
G01 X37.0 Y14.5 F500
M03  S167
G01 X36.5 Y14.5 F500
M03  S193
G01 X36.0 Y14.5 F500
M03  S209
G01 X35.5 Y14.5 F500
M03  S216
G01 X35.0 Y14.5 F500
M03  S212
G01 X34.5 Y14.5 F500
M03  S201
G01 X34.0 Y14.5 F500
M03  S187
G01 X33.5 Y14.5 F500
M03  S190
G01 X33.0 Y14.5 F500
M03  S203
G01 X32.0 Y14.5 F500
M03  S188
G01 X31.5 Y14.5 F500
M03  S160
G01 X31.0 Y14.5 F500
M03  S137
G01 X30.5 Y14.5 F500
M03  S94
G01 X30.0 Y14.5 F500
M03  S51
G01 X29.5 Y14.5 F500
M03  S44
G01 X29.0 Y14.5 F500
M03  S41
G01 X28.5 Y14.5 F500
M03  S51
G01 X28.0 Y14.5 F500
M03  S59
G01 X27.0 Y14.5 F500
M03  S57
G01 X26.5 Y14.5 F500
M03  S56
G01 X26.0 Y14.5 F500
M03  S54
G01 X25.5 Y14.5 F500
M03  S52
G01 X25.0 Y14.5 F500
M03  S62
G01 X24.5 Y14.5 F500
M03  S68
G01 X24.0 Y14.5 F500
M03  S70
G01 X23.5 Y14.5 F500
M03  S68
G01 X23.0 Y14.5 F500
M03  S61
G01 X22.5 Y14.5 F500
M03  S55
G01 X22.0 Y14.5 F500
M03  S54
G01 X21.5 Y14.5 F500
M03  S56
G01 X21.0 Y14.5 F500
M03  S52
G01 X20.5 Y14.5 F500
M03  S46
G01 X20.0 Y14.5 F500
M03  S36
G01 X19.5 Y14.5 F500
M03  S28
G01 X19.0 Y14.5 F500
M03  S23
G01 X18.5 Y14.5 F500
M03  S21
G01 X18.0 Y14.5 F500
M03  S22
G01 X17.0 Y14.5 F500
M03  S26
G01 X16.5 Y14.5 F500
M03  S32
G01 X16.0 Y14.5 F500
M03  S43
G01 X15.5 Y14.5 F500
M03  S51
G01 X15.0 Y14.5 F500
M03  S49
G01 X14.5 Y14.5 F500
M03  S40
G01 X14.0 Y14.5 F500
M03  S33
G01 X13.5 Y14.5 F500
M03  S35
G01 X13.0 Y14.5 F500
M03  S40
G01 X12.5 Y14.5 F500
M03  S47
G01 X12.0 Y14.5 F500
M03  S52
G01 X11.5 Y14.5 F500
M03  S54
G01 X11.0 Y14.5 F500
M03  S56
G01 X10.5 Y14.5 F500
M03  S55
G01 X10.0 Y14.5 F500
M03  S53
G01 X9.0 Y14.5 F500
M03  S55
G01 X8.5 Y14.5 F500
M03  S60
G01 X8.0 Y14.5 F500
M03  S66
G01 X7.5 Y14.5 F500
M03  S69
G01 X7.0 Y14.5 F500
M03  S65
G01 X6.5 Y14.5 F500
M03  S62
G01 X6.0 Y14.5 F500
M03  S61
G01 X5.5 Y14.5 F500
M03  S62
G01 X5.0 Y14.5 F500
M03  S63
G01 X4.5 Y14.5 F500
M03  S64
G01 X4.0 Y14.5 F500
M03  S66
G01 X3.0 Y14.5 F500
M03  S57
G01 X2.5 Y14.5 F500
M03  S44
G01 X2.0 Y14.5 F500
M03  S36
G01 X1.5 Y14.5 F500
M03  S31
G01 X1.0 Y14.5 F500
M03  S5
G01 X0.5 Y14.5 F500
M03  S3
G01 X0.0 Y14.5 F500
M05
G00 X0.0 Y15.0
M03  S3
G01 X0.5 Y15.0 F500
M03  S5
G01 X1.0 Y15.0 F500
M03  S39
G01 X1.5 Y15.0 F500
M03  S42
G01 X2.0 Y15.0 F500
M03  S49
G01 X2.5 Y15.0 F500
M03  S60
G01 X3.0 Y15.0 F500
M03  S65
G01 X3.5 Y15.0 F500
M03  S63
G01 X4.0 Y15.0 F500
M03  S60
G01 X4.5 Y15.0 F500
M03  S57
G01 X5.0 Y15.0 F500
M03  S55
G01 X6.0 Y15.0 F500
M03  S57
G01 X6.5 Y15.0 F500
M03  S60
G01 X7.0 Y15.0 F500
M03  S64
G01 X7.5 Y15.0 F500
M03  S63
G01 X8.0 Y15.0 F500
M03  S57
G01 X8.5 Y15.0 F500
M03  S49
G01 X9.0 Y15.0 F500
M03  S47
G01 X10.5 Y15.0 F500
M03  S50
G01 X12.0 Y15.0 F500
M03  S48
G01 X12.5 Y15.0 F500
M03  S44
G01 X13.0 Y15.0 F500
M03  S42
G01 X14.0 Y15.0 F500
M03  S49
G01 X14.5 Y15.0 F500
M03  S57
G01 X15.0 Y15.0 F500
M03  S59
G01 X15.5 Y15.0 F500
M03  S52
G01 X16.0 Y15.0 F500
M03  S42
G01 X16.5 Y15.0 F500
M03  S38
G01 X17.0 Y15.0 F500
M03  S37
G01 X17.5 Y15.0 F500
M03  S39
G01 X18.5 Y15.0 F500
M03  S38
G01 X19.0 Y15.0 F500
M03  S39
G01 X19.5 Y15.0 F500
M03  S41
G01 X20.0 Y15.0 F500
M03  S47
G01 X20.5 Y15.0 F500
M03  S53
G01 X21.0 Y15.0 F500
M03  S57
G01 X21.5 Y15.0 F500
M03  S59
G01 X22.0 Y15.0 F500
M03  S62
G01 X22.5 Y15.0 F500
M03  S70
G01 X23.0 Y15.0 F500
M03  S77
G01 X23.5 Y15.0 F500
M03  S79
G01 X24.0 Y15.0 F500
M03  S69
G01 X24.5 Y15.0 F500
M03  S57
G01 X25.0 Y15.0 F500
M03  S47
G01 X25.5 Y15.0 F500
M03  S48
G01 X26.0 Y15.0 F500
M03  S49
G01 X26.5 Y15.0 F500
M03  S48
G01 X27.0 Y15.0 F500
M03  S46
G01 X27.5 Y15.0 F500
M03  S45
G01 X28.0 Y15.0 F500
M03  S43
G01 X28.5 Y15.0 F500
M03  S48
G01 X29.0 Y15.0 F500
M03  S51
G01 X29.5 Y15.0 F500
M03  S52
G01 X30.0 Y15.0 F500
M03  S68
G01 X30.5 Y15.0 F500
M03  S134
G01 X31.0 Y15.0 F500
M03  S195
G01 X31.5 Y15.0 F500
M03  S209
G01 X32.0 Y15.0 F500
M03  S212
G01 X32.5 Y15.0 F500
M03  S205
G01 X33.0 Y15.0 F500
M03  S188
G01 X33.5 Y15.0 F500
M03  S200
G01 X34.0 Y15.0 F500
M03  S217
G01 X34.5 Y15.0 F500
M03  S226
G01 X35.0 Y15.0 F500
M03  S215
G01 X35.5 Y15.0 F500
M03  S195
G01 X36.0 Y15.0 F500
M03  S180
G01 X36.5 Y15.0 F500
M03  S168
G01 X37.0 Y15.0 F500
M03  S150
G01 X37.5 Y15.0 F500
M03  S137
G01 X38.0 Y15.0 F500
M03  S113
G01 X38.5 Y15.0 F500
M03  S81
G01 X39.0 Y15.0 F500
M03  S59
G01 X39.5 Y15.0 F500
M03  S42
G01 X40.0 Y15.0 F500
M03  S30
G01 X40.5 Y15.0 F500
M03  S28
G01 X41.5 Y15.0 F500
M03  S24
G01 X42.0 Y15.0 F500
M03  S23
G01 X42.5 Y15.0 F500
M03  S25
G01 X43.0 Y15.0 F500
M03  S30
G01 X43.5 Y15.0 F500
M03  S29
G01 X44.0 Y15.0 F500
M03  S32
G01 X44.5 Y15.0 F500
M03  S42
G01 X45.5 Y15.0 F500
M03  S36
G01 X46.0 Y15.0 F500
M03  S34
G01 X46.5 Y15.0 F500
M03  S25
G01 X47.5 Y15.0 F500
M03  S28
G01 X48.0 Y15.0 F500
M03  S29
G01 X48.5 Y15.0 F500
M03  S42
G01 X49.0 Y15.0 F500
M03  S68
G01 X49.5 Y15.0 F500
M03  S105
G01 X50.0 Y15.0 F500
M03  S124
G01 X50.5 Y15.0 F500
M03  S129
G01 X51.0 Y15.0 F500
M03  S142
G01 X51.5 Y15.0 F500
M03  S139
G01 X52.0 Y15.0 F500
M03  S143
G01 X52.5 Y15.0 F500
M03  S148
G01 X53.0 Y15.0 F500
M03  S155
G01 X53.5 Y15.0 F500
M03  S168
G01 X54.0 Y15.0 F500
M03  S169
G01 X54.5 Y15.0 F500
M03  S163
G01 X55.0 Y15.0 F500
M03  S170
G01 X55.5 Y15.0 F500
M03  S167
G01 X56.5 Y15.0 F500
M03  S163
G01 X57.5 Y15.0 F500
M03  S169
G01 X58.5 Y15.0 F500
M03  S166
G01 X59.0 Y15.0 F500
M03  S152
G01 X59.5 Y15.0 F500
M03  S151
G01 X60.0 Y15.0 F500
M03  S143
G01 X60.5 Y15.0 F500
M03  S139
G01 X61.0 Y15.0 F500
M03  S137
G01 X61.5 Y15.0 F500
M03  S127
G01 X62.0 Y15.0 F500
M03  S121
G01 X62.5 Y15.0 F500
M03  S115
G01 X63.0 Y15.0 F500
M03  S111
G01 X63.5 Y15.0 F500
M03  S109
G01 X64.0 Y15.0 F500
M03  S112
G01 X64.5 Y15.0 F500
M03  S119
G01 X65.0 Y15.0 F500
M03  S133
G01 X65.5 Y15.0 F500
M03  S160
G01 X66.0 Y15.0 F500
M03  S191
G01 X66.5 Y15.0 F500
M03  S179
G01 X67.0 Y15.0 F500
M03  S140
G01 X67.5 Y15.0 F500
M03  S91
G01 X68.0 Y15.0 F500
M03  S34
G01 X68.5 Y15.0 F500
M03  S18
G01 X69.0 Y15.0 F500
M03  S21
G01 X69.5 Y15.0 F500
M03  S23
G01 X70.0 Y15.0 F500
M03  S20
G01 X70.5 Y15.0 F500
M03  S17
G01 X71.0 Y15.0 F500
M03  S15
G01 X71.5 Y15.0 F500
M03  S12
G01 X72.0 Y15.0 F500
M03  S10
G01 X74.0 Y15.0 F500
M03  S12
G01 X74.5 Y15.0 F500
M03  S14
G01 X75.0 Y15.0 F500
M03  S16
G01 X76.0 Y15.0 F500
M03  S15
G01 X76.5 Y15.0 F500
M03  S16
G01 X77.0 Y15.0 F500
M03  S18
G01 X77.5 Y15.0 F500
M03  S20
G01 X78.5 Y15.0 F500
M03  S22
G01 X79.0 Y15.0 F500
M03  S24
G01 X79.5 Y15.0 F500
M03  S23
G01 X80.0 Y15.0 F500
M03  S24
G01 X80.5 Y15.0 F500
M03  S28
G01 X81.0 Y15.0 F500
M03  S32
G01 X81.5 Y15.0 F500
M03  S31
G01 X82.0 Y15.0 F500
M03  S30
G01 X82.5 Y15.0 F500
M03  S33
G01 X83.0 Y15.0 F500
M03  S39
G01 X83.5 Y15.0 F500
M03  S42
G01 X84.0 Y15.0 F500
M03  S46
G01 X84.5 Y15.0 F500
M03  S49
G01 X85.0 Y15.0 F500
M03  S53
G01 X85.5 Y15.0 F500
M03  S59
G01 X86.0 Y15.0 F500
M03  S63
G01 X86.5 Y15.0 F500
M03  S65
G01 X87.0 Y15.0 F500
M03  S64
G01 X87.5 Y15.0 F500
M03  S60
G01 X88.0 Y15.0 F500
M03  S58
G01 X88.5 Y15.0 F500
M03  S51
G01 X89.0 Y15.0 F500
M03  S45
G01 X89.5 Y15.0 F500
M03  S39
G01 X90.0 Y15.0 F500
M03  S36
G01 X90.5 Y15.0 F500
M03  S39
G01 X91.0 Y15.0 F500
M03  S43
G01 X91.5 Y15.0 F500
M03  S44
G01 X92.0 Y15.0 F500
M03  S45
G01 X92.5 Y15.0 F500
M03  S49
G01 X93.0 Y15.0 F500
M03  S55
G01 X93.5 Y15.0 F500
M03  S61
G01 X94.5 Y15.0 F500
M03  S57
G01 X96.0 Y15.0 F500
M03  S56
G01 X96.5 Y15.0 F500
M03  S54
G01 X97.0 Y15.0 F500
M03  S23
G01 X97.5 Y15.0 F500
M03  S3
G01 X98.5 Y15.0 F500
M05
G00 X98.5 Y15.5
M03  S3
G01 X97.5 Y15.5 F500
M03  S25
G01 X97.0 Y15.5 F500
M03  S56
G01 X96.5 Y15.5 F500
M03  S55
G01 X95.5 Y15.5 F500
M03  S54
G01 X95.0 Y15.5 F500
M03  S56
G01 X94.0 Y15.5 F500
M03  S52
G01 X93.5 Y15.5 F500
M03  S44
G01 X93.0 Y15.5 F500
M03  S36
G01 X92.5 Y15.5 F500
M03  S32
G01 X92.0 Y15.5 F500
M03  S31
G01 X91.5 Y15.5 F500
M03  S29
G01 X91.0 Y15.5 F500
M03  S26
G01 X90.5 Y15.5 F500
M03  S23
G01 X90.0 Y15.5 F500
M03  S24
G01 X89.5 Y15.5 F500
M03  S27
G01 X89.0 Y15.5 F500
M03  S32
G01 X88.5 Y15.5 F500
M03  S37
G01 X88.0 Y15.5 F500
M03  S45
G01 X87.5 Y15.5 F500
M03  S55
G01 X87.0 Y15.5 F500
M03  S66
G01 X86.5 Y15.5 F500
M03  S76
G01 X86.0 Y15.5 F500
M03  S78
G01 X85.5 Y15.5 F500
M03  S74
G01 X85.0 Y15.5 F500
M03  S70
G01 X84.5 Y15.5 F500
M03  S64
G01 X84.0 Y15.5 F500
M03  S57
G01 X83.5 Y15.5 F500
M03  S53
G01 X83.0 Y15.5 F500
M03  S48
G01 X82.5 Y15.5 F500
M03  S42
G01 X82.0 Y15.5 F500
M03  S38
G01 X81.5 Y15.5 F500
M03  S33
G01 X81.0 Y15.5 F500
M03  S28
G01 X80.5 Y15.5 F500
M03  S24
G01 X80.0 Y15.5 F500
M03  S26
G01 X79.5 Y15.5 F500
M03  S29
G01 X79.0 Y15.5 F500
M03  S26
G01 X78.5 Y15.5 F500
M03  S24
G01 X78.0 Y15.5 F500
M03  S22
G01 X77.5 Y15.5 F500
M03  S18
G01 X77.0 Y15.5 F500
M03  S16
G01 X75.5 Y15.5 F500
M03  S15
G01 X74.5 Y15.5 F500
M03  S13
G01 X74.0 Y15.5 F500
M03  S12
G01 X73.5 Y15.5 F500
M03  S11
G01 X73.0 Y15.5 F500
M03  S13
G01 X72.0 Y15.5 F500
M03  S15
G01 X71.5 Y15.5 F500
M03  S16
G01 X71.0 Y15.5 F500
M03  S18
G01 X70.5 Y15.5 F500
M03  S21
G01 X70.0 Y15.5 F500
M03  S22
G01 X69.5 Y15.5 F500
M03  S23
G01 X69.0 Y15.5 F500
M03  S27
G01 X68.5 Y15.5 F500
M03  S66
G01 X68.0 Y15.5 F500
M03  S149
G01 X67.5 Y15.5 F500
M03  S206
G01 X67.0 Y15.5 F500
M03  S199
G01 X66.5 Y15.5 F500
M03  S172
G01 X66.0 Y15.5 F500
M03  S152
G01 X65.5 Y15.5 F500
M03  S135
G01 X65.0 Y15.5 F500
M03  S120
G01 X64.5 Y15.5 F500
M03  S115
G01 X64.0 Y15.5 F500
M03  S116
G01 X63.5 Y15.5 F500
M03  S122
G01 X63.0 Y15.5 F500
M03  S125
G01 X62.5 Y15.5 F500
M03  S130
G01 X62.0 Y15.5 F500
M03  S133
G01 X61.5 Y15.5 F500
M03  S139
G01 X61.0 Y15.5 F500
M03  S145
G01 X60.5 Y15.5 F500
M03  S149
G01 X60.0 Y15.5 F500
M03  S154
G01 X59.5 Y15.5 F500
M03  S153
G01 X59.0 Y15.5 F500
M03  S157
G01 X58.5 Y15.5 F500
M03  S163
G01 X58.0 Y15.5 F500
M03  S165
G01 X57.5 Y15.5 F500
M03  S161
G01 X57.0 Y15.5 F500
M03  S164
G01 X56.5 Y15.5 F500
M03  S162
G01 X56.0 Y15.5 F500
M03  S164
G01 X55.5 Y15.5 F500
M03  S165
G01 X54.5 Y15.5 F500
M03  S160
G01 X53.5 Y15.5 F500
M03  S147
G01 X53.0 Y15.5 F500
M03  S134
G01 X52.5 Y15.5 F500
M03  S137
G01 X52.0 Y15.5 F500
M03  S131
G01 X51.5 Y15.5 F500
M03  S130
G01 X51.0 Y15.5 F500
M03  S123
G01 X50.5 Y15.5 F500
M03  S122
G01 X50.0 Y15.5 F500
M03  S113
G01 X49.5 Y15.5 F500
M03  S89
G01 X49.0 Y15.5 F500
M03  S62
G01 X48.5 Y15.5 F500
M03  S34
G01 X48.0 Y15.5 F500
M03  S26
G01 X47.5 Y15.5 F500
M03  S27
G01 X47.0 Y15.5 F500
M03  S25
G01 X46.5 Y15.5 F500
M03  S37
G01 X46.0 Y15.5 F500
M03  S47
G01 X45.5 Y15.5 F500
M03  S52
G01 X45.0 Y15.5 F500
M03  S34
G01 X43.5 Y15.5 F500
M03  S31
G01 X43.0 Y15.5 F500
M03  S28
G01 X42.5 Y15.5 F500
M03  S30
G01 X42.0 Y15.5 F500
M03  S26
G01 X41.5 Y15.5 F500
M03  S23
G01 X41.0 Y15.5 F500
M03  S25
G01 X40.5 Y15.5 F500
M03  S29
G01 X40.0 Y15.5 F500
M03  S30
G01 X39.5 Y15.5 F500
M03  S38
G01 X39.0 Y15.5 F500
M03  S55
G01 X38.5 Y15.5 F500
M03  S85
G01 X38.0 Y15.5 F500
M03  S123
G01 X37.5 Y15.5 F500
M03  S147
G01 X37.0 Y15.5 F500
M03  S155
G01 X36.5 Y15.5 F500
M03  S190
G01 X36.0 Y15.5 F500
M03  S210
G01 X35.5 Y15.5 F500
M03  S211
G01 X35.0 Y15.5 F500
M03  S215
G01 X34.5 Y15.5 F500
M03  S223
G01 X34.0 Y15.5 F500
M03  S213
G01 X33.5 Y15.5 F500
M03  S193
G01 X33.0 Y15.5 F500
M03  S196
G01 X32.5 Y15.5 F500
M03  S213
G01 X32.0 Y15.5 F500
M03  S214
G01 X31.5 Y15.5 F500
M03  S203
G01 X31.0 Y15.5 F500
M03  S171
G01 X30.5 Y15.5 F500
M03  S131
G01 X30.0 Y15.5 F500
M03  S114
G01 X29.5 Y15.5 F500
M03  S107
G01 X29.0 Y15.5 F500
M03  S88
G01 X28.5 Y15.5 F500
M03  S51
G01 X28.0 Y15.5 F500
M03  S40
G01 X27.5 Y15.5 F500
M03  S37
G01 X27.0 Y15.5 F500
M03  S39
G01 X26.0 Y15.5 F500
M03  S38
G01 X25.5 Y15.5 F500
M03  S37
G01 X25.0 Y15.5 F500
M03  S46
G01 X24.5 Y15.5 F500
M03  S65
G01 X24.0 Y15.5 F500
M03  S80
G01 X23.5 Y15.5 F500
M03  S81
G01 X23.0 Y15.5 F500
M03  S76
G01 X22.5 Y15.5 F500
M03  S69
G01 X22.0 Y15.5 F500
M03  S63
G01 X21.5 Y15.5 F500
M03  S59
G01 X21.0 Y15.5 F500
M03  S55
G01 X20.0 Y15.5 F500
M03  S60
G01 X19.5 Y15.5 F500
M03  S64
G01 X19.0 Y15.5 F500
M03  S68
G01 X18.5 Y15.5 F500
M03  S64
G01 X18.0 Y15.5 F500
M03  S61
G01 X17.5 Y15.5 F500
M03  S59
G01 X16.5 Y15.5 F500
M03  S60
G01 X16.0 Y15.5 F500
M03  S64
G01 X15.5 Y15.5 F500
M03  S66
G01 X14.5 Y15.5 F500
M03  S61
G01 X14.0 Y15.5 F500
M03  S58
G01 X13.5 Y15.5 F500
M03  S57
G01 X13.0 Y15.5 F500
M03  S58
G01 X12.5 Y15.5 F500
M03  S57
G01 X12.0 Y15.5 F500
M03  S55
G01 X11.5 Y15.5 F500
M03  S54
G01 X11.0 Y15.5 F500
M03  S53
G01 X10.0 Y15.5 F500
M03  S54
G01 X9.5 Y15.5 F500
M03  S56
G01 X9.0 Y15.5 F500
M03  S58
G01 X8.5 Y15.5 F500
M03  S63
G01 X8.0 Y15.5 F500
M03  S68
G01 X7.5 Y15.5 F500
M03  S69
G01 X7.0 Y15.5 F500
M03  S64
G01 X6.5 Y15.5 F500
M03  S58
G01 X6.0 Y15.5 F500
M03  S55
G01 X5.5 Y15.5 F500
M03  S57
G01 X5.0 Y15.5 F500
M03  S60
G01 X4.5 Y15.5 F500
M03  S63
G01 X4.0 Y15.5 F500
M03  S66
G01 X3.5 Y15.5 F500
M03  S67
G01 X3.0 Y15.5 F500
M03  S63
G01 X2.5 Y15.5 F500
M03  S56
G01 X2.0 Y15.5 F500
M03  S52
G01 X1.5 Y15.5 F500
M03  S53
G01 X1.0 Y15.5 F500
M03  S6
G01 X0.5 Y15.5 F500
M03  S3
G01 X0.0 Y15.5 F500
M05
G00 X0.0 Y16.0
M03  S3
G01 X0.5 Y16.0 F500
M03  S7
G01 X1.0 Y16.0 F500
M03  S62
G01 X1.5 Y16.0 F500
M03  S61
G01 X2.0 Y16.0 F500
M03  S64
G01 X2.5 Y16.0 F500
M03  S67
G01 X3.0 Y16.0 F500
M03  S70
G01 X3.5 Y16.0 F500
M03  S68
G01 X4.0 Y16.0 F500
M03  S66
G01 X4.5 Y16.0 F500
M03  S64
G01 X5.0 Y16.0 F500
M03  S63
G01 X5.5 Y16.0 F500
M03  S62
G01 X6.0 Y16.0 F500
M03  S63
G01 X6.5 Y16.0 F500
M03  S67
G01 X7.0 Y16.0 F500
M03  S73
G01 X7.5 Y16.0 F500
M03  S74
G01 X8.0 Y16.0 F500
M03  S72
G01 X8.5 Y16.0 F500
M03  S69
G01 X9.0 Y16.0 F500
M03  S68
G01 X9.5 Y16.0 F500
M03  S65
G01 X10.0 Y16.0 F500
M03  S63
G01 X10.5 Y16.0 F500
M03  S61
G01 X11.0 Y16.0 F500
M03  S60
G01 X11.5 Y16.0 F500
M03  S58
G01 X12.0 Y16.0 F500
M03  S56
G01 X12.5 Y16.0 F500
M03  S55
G01 X13.0 Y16.0 F500
M03  S56
G01 X13.5 Y16.0 F500
M03  S59
G01 X14.0 Y16.0 F500
M03  S62
G01 X14.5 Y16.0 F500
M03  S68
G01 X15.0 Y16.0 F500
M03  S71
G01 X15.5 Y16.0 F500
M03  S70
G01 X16.0 Y16.0 F500
M03  S69
G01 X17.0 Y16.0 F500
M03  S67
G01 X17.5 Y16.0 F500
M03  S73
G01 X18.0 Y16.0 F500
M03  S80
G01 X18.5 Y16.0 F500
M03  S85
G01 X19.0 Y16.0 F500
M03  S81
G01 X19.5 Y16.0 F500
M03  S73
G01 X20.0 Y16.0 F500
M03  S67
G01 X20.5 Y16.0 F500
M03  S64
G01 X21.0 Y16.0 F500
M03  S63
G01 X21.5 Y16.0 F500
M03  S65
G01 X22.0 Y16.0 F500
M03  S70
G01 X22.5 Y16.0 F500
M03  S75
G01 X23.0 Y16.0 F500
M03  S78
G01 X23.5 Y16.0 F500
M03  S74
G01 X24.0 Y16.0 F500
M03  S60
G01 X24.5 Y16.0 F500
M03  S42
G01 X25.0 Y16.0 F500
M03  S32
