(NAAM FREES)
(T1  D=2. CR=0. - ZMIN=-6. - FLAT END MILL)
G90 G94 G91.1 G40 G49 G17
G21
G28 G91 Z0.
G90

(2D CONTOUR2)
M5
M9
T1 M6
S400 M3
G54
M8
G0 X-0.2 Y51.6
G43 Z15. H1
Z5.
G1 Z2. F400.
Z-0.8
G19 G2 Y51.4 Z-1. J-0.2 K0.
G1 Y51.2
G17 G3 X0. Y51. I0.2 J0.
G1 X100.
G2 X101. Y50. I0. J-1.
G1 Y0.
G2 X100. Y-1. I-1. J0.
G1 X0.
G2 X-1. Y0. I0. J1.
G1 Y50.
G2 X0. Y51. I1. J0.
G3 X0.2 Y51.2 I0. J0.2
G1 Y51.4
G19 G3 Y51.6 Z-0.8 J0. K0.2
G0 Z5.
X-0.2
G1 Z1. F400.
Z-1.8
G2 Y51.4 Z-2. J-0.2 K0.
G1 Y51.2
G17 G3 X0. Y51. I0.2 J0.
G1 X100.
G2 X101. Y50. I0. J-1.
G1 Y0.
G2 X100. Y-1. I-1. J0.
G1 X0.
G2 X-1. Y0. I0. J1.
G1 Y50.
G2 X0. Y51. I1. J0.
G3 X0.2 Y51.2 I0. J0.2
G1 Y51.4
G19 G3 Y51.6 Z-1.8 J0. K0.2
G0 Z5.
X-0.2
G1 Z0. F400.
Z-2.8
G2 Y51.4 Z-3. J-0.2 K0.
G1 Y51.2
G17 G3 X0. Y51. I0.2 J0.
G1 X100.
G2 X101. Y50. I0. J-1.
G1 Y0.
G2 X100. Y-1. I-1. J0.
G1 X0.
G2 X-1. Y0. I0. J1.
G1 Y50.
G2 X0. Y51. I1. J0.
G3 X0.2 Y51.2 I0. J0.2
G1 Y51.4
G19 G3 Y51.6 Z-2.8 J0. K0.2
G0 Z5.
X-0.2
G1 Z-1. F400.
Z-3.8
G2 Y51.4 Z-4. J-0.2 K0.
G1 Y51.2
G17 G3 X0. Y51. I0.2 J0.
G1 X100.
G2 X101. Y50. I0. J-1.
G1 Y0.
G2 X100. Y-1. I-1. J0.
G1 X0.
G2 X-1. Y0. I0. J1.
G1 Y50.
G2 X0. Y51. I1. J0.
G3 X0.2 Y51.2 I0. J0.2
G1 Y51.4
G19 G3 Y51.6 Z-3.8 J0. K0.2
G0 Z5.
X-0.2
G1 Z-2. F400.
Z-4.8
G2 Y51.4 Z-5. J-0.2 K0.
G1 Y51.2
G17 G3 X0. Y51. I0.2 J0.
G1 X100.
G2 X101. Y50. I0. J-1.
G1 Y0.
G2 X100. Y-1. I-1. J0.
G1 X0.
G2 X-1. Y0. I0. J1.
G1 Y50.
G2 X0. Y51. I1. J0.
G3 X0.2 Y51.2 I0. J0.2
G1 Y51.4
G19 G3 Y51.6 Z-4.8 J0. K0.2
G0 Z5.
X-0.2
G1 Z-3. F400.
Z-5.8
G2 Y51.4 Z-6. J-0.2 K0.
G1 Y51.2
G17 G3 X0. Y51. I0.2 J0.
G1 X100.
G2 X101. Y50. I0. J-1.
G1 Y0.
G2 X100. Y-1. I-1. J0.
G1 X0.
G2 X-1. Y0. I0. J1.
G1 Y50.
G2 X0. Y51. I1. J0.
G3 X0.2 Y51.2 I0. J0.2
G1 Y51.4
G19 G3 Y51.6 Z-5.8 J0. K0.2
G0 Z15.
G17

M9
G28 G91 Z0.
G28 X0. Y0.
M30
