(NAAM FREES)
(T1  D=2. CR=0. - ZMIN=-2. - FLAT END MILL)
G90 G94 G91.1 G40 G49 G17
G21
G28 G91 Z0.
G90

(2D POCKET1)
M5
M9
T1 M6
S400 M3
G54
M9
G0 X9.411 Y19.947
G43 Z12. H1
Z2.5
G1 Y17.619 Z2.419 F333.
X16.151 Z2.183
X16.286 Y17.622 Z2.179
X16.429 Y17.625 Z2.174
X16.572 Y17.628 Z2.169
X16.712 Y17.631 Z2.164
X16.852 Y17.636 Z2.159
X16.991 Y17.641 Z2.154
X17.128 Y17.647 Z2.149
X17.264 Y17.653 Z2.144
X17.398 Y17.662 Z2.14
X17.531 Y17.671 Z2.135
X17.663 Y17.682 Z2.13
X17.794 Y17.695 Z2.126
X17.923 Y17.709 Z2.121
X18.053 Y17.725 Z2.117
X18.184 Y17.743 Z2.112
X18.316 Y17.763 Z2.108
X18.449 Y17.784 Z2.103
X18.583 Y17.807 Z2.098
X18.719 Y17.832 Z2.093
X18.856 Y17.857 Z2.088
X18.994 Y17.883 Z2.083
X19.133 Y17.91 Z2.079
X19.273 Y17.938 Z2.074
X19.379 Y17.959 Z2.07
X19.456 Y17.98 Z2.067
X19.566 Y18.011 Z2.063
X19.674 Y18.041 Z2.059
X19.781 Y18.072 Z2.055
X19.885 Y18.102 Z2.051
X19.987 Y18.134 Z2.048
X20.088 Y18.165 Z2.044
X20.186 Y18.197 Z2.04
X20.282 Y18.23 Z2.037
X20.376 Y18.264 Z2.033
X20.467 Y18.299 Z2.03
X20.555 Y18.335 Z2.027
X20.643 Y18.372 Z2.023
X20.73 Y18.412 Z2.02
X20.818 Y18.454 Z2.017
X20.907 Y18.498 Z2.013
X20.998 Y18.545 Z2.009
X21.09 Y18.594 Z2.006
X21.182 Y18.645 Z2.002
X21.277 Y18.698 Z1.998
X21.372 Y18.752 Z1.995
X21.469 Y18.808 Z1.991
X21.567 Y18.866 Z1.987
X21.616 Y18.895 Z1.985
X21.661 Y18.929 Z1.983
X21.751 Y18.997 Z1.979
X21.839 Y19.065 Z1.975
X21.925 Y19.132 Z1.971
X22.009 Y19.198 Z1.967
X22.091 Y19.263 Z1.964
X22.171 Y19.329 Z1.96
X22.248 Y19.394 Z1.957
X22.322 Y19.459 Z1.953
X22.394 Y19.524 Z1.95
X22.463 Y19.589 Z1.946
X22.529 Y19.655 Z1.943
X22.595 Y19.722 Z1.94
X22.661 Y19.792 Z1.936
X22.727 Y19.865 Z1.933
X22.793 Y19.941 Z1.93
X22.86 Y20.019 Z1.926
X22.926 Y20.099 Z1.922
X22.993 Y20.181 Z1.919
X23.061 Y20.265 Z1.915
X23.128 Y20.352 Z1.911
X23.197 Y20.439 Z1.907
X23.266 Y20.529 Z1.903
X23.308 Y20.584 Z1.901
X23.36 Y20.666 Z1.897
X23.436 Y20.787 Z1.892
X23.511 Y20.906 Z1.887
X23.583 Y21.024 Z1.883
X23.654 Y21.14 Z1.878
X23.723 Y21.256 Z1.873
X23.789 Y21.37 Z1.869
X23.853 Y21.484 Z1.864
X23.915 Y21.597 Z1.86
X23.973 Y21.709 Z1.855
X24.029 Y21.821 Z1.851
X24.082 Y21.933 Z1.846
X24.134 Y22.047 Z1.842
X24.184 Y22.164 Z1.838
X24.233 Y22.283 Z1.833
X24.281 Y22.405 Z1.829
X24.328 Y22.528 Z1.824
X24.374 Y22.654 Z1.819
X24.419 Y22.782 Z1.815
X24.465 Y22.912 Z1.81
X24.509 Y23.044 Z1.805
X24.554 Y23.178 Z1.8
X24.599 Y23.313 Z1.795
X24.632 Y23.414 Z1.791
X24.667 Y23.555 Z1.786
X24.71 Y23.73 Z1.78
X24.752 Y23.905 Z1.774
X24.793 Y24.077 Z1.767
X24.832 Y24.248 Z1.761
X24.87 Y24.418 Z1.755
X24.906 Y24.587 Z1.749
X24.939 Y24.754 Z1.743
X24.97 Y24.92 Z1.737
X24.998 Y25.085 Z1.731
X25.024 Y25.248 Z1.726
X25.046 Y25.411 Z1.72
X25.066 Y25.576 Z1.714
X25.083 Y25.742 Z1.708
X25.098 Y25.91 Z1.702
X25.111 Y26.08 Z1.696
X25.122 Y26.251 Z1.69
X25.131 Y26.425 Z1.684
X25.139 Y26.6 Z1.678
X25.146 Y26.776 Z1.672
X25.151 Y26.954 Z1.666
X25.156 Y27.134 Z1.66
X25.161 Y27.315 Z1.653
X25.165 Y27.47 Z1.648
X25.159 Y27.659 Z1.641
X25.152 Y27.874 Z1.634
X25.144 Y28.087 Z1.626
X25.135 Y28.298 Z1.619
X25.125 Y28.507 Z1.612
X25.113 Y28.714 Z1.604
X25.099 Y28.918 Z1.597
X25.083 Y29.12 Z1.59
X25.064 Y29.321 Z1.583
X25.042 Y29.518 Z1.576
X25.016 Y29.713 Z1.569
X24.987 Y29.906 Z1.563
X24.954 Y30.097 Z1.556
X24.917 Y30.289 Z1.549
X24.876 Y30.481 Z1.542
X24.83 Y30.675 Z1.535
X24.781 Y30.871 Z1.528
X24.729 Y31.067 Z1.521
X24.674 Y31.266 Z1.514
X24.616 Y31.466 Z1.507
X24.556 Y31.668 Z1.499
X24.495 Y31.871 Z1.492
X24.432 Y32.076 Z1.484
X24.384 Y32.228 Z1.479
X24.332 Y32.348 Z1.474
X24.256 Y32.517 Z1.468
X24.182 Y32.684 Z1.461
X24.106 Y32.848 Z1.455
X24.031 Y33.008 Z1.449
X23.955 Y33.164 Z1.443
X23.877 Y33.316 Z1.437
X23.799 Y33.465 Z1.431
X23.719 Y33.608 Z1.425
X23.637 Y33.747 Z1.42
X23.553 Y33.882 Z1.414
X23.467 Y34.011 Z1.409
X23.376 Y34.138 Z1.403
X23.281 Y34.263 Z1.398
X23.181 Y34.388 Z1.392
X23.075 Y34.513 Z1.386
X22.965 Y34.638 Z1.381
X22.85 Y34.763 Z1.375
X22.731 Y34.889 Z1.369
X22.607 Y35.015 Z1.362
X22.481 Y35.142 Z1.356
X22.351 Y35.271 Z1.35
X22.219 Y35.4 Z1.343
X22.132 Y35.484 Z1.339
X22.068 Y35.532 Z1.336
X21.952 Y35.617 Z1.331
X21.837 Y35.701 Z1.326
X21.724 Y35.782 Z1.321
X21.612 Y35.86 Z1.317
X21.502 Y35.935 Z1.312
X21.393 Y36.007 Z1.307
X21.286 Y36.075 Z1.303
X21.179 Y36.14 Z1.299
X21.074 Y36.2 Z1.294
X20.969 Y36.257 Z1.29
X20.865 Y36.309 Z1.286
X20.758 Y36.359 Z1.282
X20.648 Y36.407 Z1.278
X20.534 Y36.453 Z1.274
X20.416 Y36.498 Z1.269
X20.295 Y36.541 Z1.265
X20.171 Y36.583 Z1.26
X20.043 Y36.624 Z1.255
X19.912 Y36.665 Z1.251
X19.778 Y36.704 Z1.246
X19.641 Y36.744 Z1.241
X19.502 Y36.784 Z1.236
X19.413 Y36.809 Z1.232
X19.311 Y36.826 Z1.229
X19.155 Y36.851 Z1.223
X18.999 Y36.877 Z1.218
X18.846 Y36.901 Z1.212
X18.693 Y36.924 Z1.207
X18.542 Y36.946 Z1.202
X18.392 Y36.967 Z1.196
X18.243 Y36.986 Z1.191
X18.096 Y37.003 Z1.186
X17.949 Y37.019 Z1.181
X17.803 Y37.032 Z1.176
X17.655 Y37.044 Z1.171
X17.507 Y37.054 Z1.165
X17.357 Y37.063 Z1.16
X17.207 Y37.07 Z1.155
X17.055 Y37.076 Z1.15
X16.903 Y37.081 Z1.144
X16.748 Y37.084 Z1.139
X16.594 Y37.087 Z1.133
X16.438 Y37.09 Z1.128
X16.281 Y37.091 Z1.122
X16.123 Y37.092 Z1.117
X15.964 Y37.093 Z1.111
X15.806 Y37.094 Z1.106
X9.411 Z0.883
Y17.619 Z0.203
X16.151 Z-0.033
X16.286 Y17.622 Z-0.038
X16.429 Y17.625 Z-0.043
X16.572 Y17.628 Z-0.048
X16.712 Y17.631 Z-0.052
X16.852 Y17.636 Z-0.057
X16.991 Y17.641 Z-0.062
X17.128 Y17.647 Z-0.067
X17.264 Y17.653 Z-0.072
X17.398 Y17.662 Z-0.076
X17.531 Y17.671 Z-0.081
X17.663 Y17.682 Z-0.086
X17.794 Y17.695 Z-0.09
X17.923 Y17.709 Z-0.095
X18.053 Y17.725 Z-0.099
X18.184 Y17.743 Z-0.104
X18.316 Y17.763 Z-0.109
X18.449 Y17.784 Z-0.113
X18.583 Y17.807 Z-0.118
X18.719 Y17.832 Z-0.123
X18.856 Y17.857 Z-0.128
X18.994 Y17.883 Z-0.133
X19.133 Y17.91 Z-0.138
X19.273 Y17.938 Z-0.143
X19.379 Y17.959 Z-0.146
X19.456 Y17.98 Z-0.149
X19.566 Y18.011 Z-0.153
X19.674 Y18.041 Z-0.157
X19.781 Y18.072 Z-0.161
X19.885 Y18.102 Z-0.165
X19.987 Y18.134 Z-0.169
X20.088 Y18.165 Z-0.172
X20.186 Y18.197 Z-0.176
X20.282 Y18.23 Z-0.179
X20.376 Y18.264 Z-0.183
X20.467 Y18.299 Z-0.186
X20.555 Y18.335 Z-0.19
X20.643 Y18.372 Z-0.193
X20.73 Y18.412 Z-0.196
X20.818 Y18.454 Z-0.2
X20.907 Y18.498 Z-0.203
X20.998 Y18.545 Z-0.207
X21.09 Y18.594 Z-0.21
X21.182 Y18.645 Z-0.214
X21.277 Y18.698 Z-0.218
X21.372 Y18.752 Z-0.222
X21.469 Y18.808 Z-0.226
X21.567 Y18.866 Z-0.23
X21.616 Y18.895 Z-0.232
X21.661 Y18.929 Z-0.233
X21.751 Y18.997 Z-0.237
X21.839 Y19.065 Z-0.241
X21.925 Y19.132 Z-0.245
X22.009 Y19.198 Z-0.249
X22.091 Y19.263 Z-0.252
X22.171 Y19.329 Z-0.256
X22.248 Y19.394 Z-0.26
X22.322 Y19.459 Z-0.263
X22.394 Y19.524 Z-0.266
X22.463 Y19.589 Z-0.27
X22.529 Y19.655 Z-0.273
X22.595 Y19.722 Z-0.276
X22.661 Y19.792 Z-0.28
X22.727 Y19.865 Z-0.283
X22.793 Y19.941 Z-0.287
X22.86 Y20.019 Z-0.29
X22.926 Y20.099 Z-0.294
X22.993 Y20.181 Z-0.298
X23.061 Y20.265 Z-0.301
X23.128 Y20.352 Z-0.305
X23.197 Y20.439 Z-0.309
X23.266 Y20.529 Z-0.313
X23.308 Y20.584 Z-0.315
X23.36 Y20.666 Z-0.319
X23.436 Y20.787 Z-0.324
X23.511 Y20.906 Z-0.329
X23.583 Y21.024 Z-0.334
X23.654 Y21.14 Z-0.338
X23.723 Y21.256 Z-0.343
X23.789 Y21.37 Z-0.348
X23.853 Y21.484 Z-0.352
X23.915 Y21.597 Z-0.357
X23.973 Y21.709 Z-0.361
X24.029 Y21.821 Z-0.365
X24.082 Y21.933 Z-0.37
X24.134 Y22.047 Z-0.374
X24.184 Y22.164 Z-0.379
X24.233 Y22.283 Z-0.383
X24.281 Y22.405 Z-0.388
X24.328 Y22.528 Z-0.392
X24.374 Y22.654 Z-0.397
X24.419 Y22.782 Z-0.402
X24.465 Y22.912 Z-0.406
X24.509 Y23.044 Z-0.411
X24.554 Y23.178 Z-0.416
X24.599 Y23.313 Z-0.421
X24.632 Y23.414 Z-0.425
X24.667 Y23.555 Z-0.43
X24.71 Y23.73 Z-0.436
X24.752 Y23.905 Z-0.443
X24.793 Y24.077 Z-0.449
X24.832 Y24.248 Z-0.455
X24.87 Y24.418 Z-0.461
X24.906 Y24.587 Z-0.467
X24.939 Y24.754 Z-0.473
X24.97 Y24.92 Z-0.479
X24.998 Y25.085 Z-0.485
X25.024 Y25.248 Z-0.49
X25.046 Y25.411 Z-0.496
X25.066 Y25.576 Z-0.502
X25.083 Y25.742 Z-0.508
X25.098 Y25.91 Z-0.514
X25.111 Y26.08 Z-0.52
X25.122 Y26.251 Z-0.526
X25.131 Y26.425 Z-0.532
X25.139 Y26.6 Z-0.538
X25.146 Y26.776 Z-0.544
X25.151 Y26.954 Z-0.55
X25.156 Y27.134 Z-0.557
X25.161 Y27.315 Z-0.563
X25.165 Y27.47 Z-0.568
X25.159 Y27.659 Z-0.575
X25.152 Y27.874 Z-0.582
X25.144 Y28.087 Z-0.59
X25.135 Y28.298 Z-0.597
X25.125 Y28.507 Z-0.604
X25.113 Y28.714 Z-0.612
X25.099 Y28.918 Z-0.619
X25.083 Y29.12 Z-0.626
X25.064 Y29.321 Z-0.633
X25.042 Y29.518 Z-0.64
X25.016 Y29.713 Z-0.647
X24.987 Y29.906 Z-0.654
X24.954 Y30.097 Z-0.66
X24.917 Y30.289 Z-0.667
X24.876 Y30.481 Z-0.674
X24.83 Y30.675 Z-0.681
X24.781 Y30.871 Z-0.688
X24.729 Y31.067 Z-0.695
X24.674 Y31.266 Z-0.702
X24.616 Y31.466 Z-0.71
X24.556 Y31.668 Z-0.717
X24.495 Y31.871 Z-0.724
X24.432 Y32.076 Z-0.732
X24.384 Y32.228 Z-0.737
X24.332 Y32.348 Z-0.742
X24.256 Y32.517 Z-0.749
X24.182 Y32.684 Z-0.755
X24.106 Y32.848 Z-0.761
X24.031 Y33.008 Z-0.767
X23.955 Y33.164 Z-0.773
X23.877 Y33.316 Z-0.779
X23.799 Y33.465 Z-0.785
X23.719 Y33.608 Z-0.791
X23.637 Y33.747 Z-0.797
X23.553 Y33.882 Z-0.802
X23.467 Y34.011 Z-0.808
X23.376 Y34.138 Z-0.813
X23.281 Y34.263 Z-0.819
X23.181 Y34.388 Z-0.824
X23.075 Y34.513 Z-0.83
X22.965 Y34.638 Z-0.836
X22.85 Y34.763 Z-0.842
X22.731 Y34.889 Z-0.848
X22.607 Y35.015 Z-0.854
X22.481 Y35.142 Z-0.86
X22.351 Y35.271 Z-0.866
X22.219 Y35.4 Z-0.873
X22.132 Y35.484 Z-0.877
X22.068 Y35.532 Z-0.88
X21.952 Y35.617 Z-0.885
X21.837 Y35.701 Z-0.89
X21.724 Y35.782 Z-0.895
X21.612 Y35.86 Z-0.9
X21.502 Y35.935 Z-0.904
X21.393 Y36.007 Z-0.909
X21.286 Y36.075 Z-0.913
X21.179 Y36.14 Z-0.918
X21.074 Y36.2 Z-0.922
X20.969 Y36.257 Z-0.926
X20.865 Y36.309 Z-0.93
X20.758 Y36.359 Z-0.934
X20.648 Y36.407 Z-0.938
X20.534 Y36.453 Z-0.943
X20.416 Y36.498 Z-0.947
X20.295 Y36.541 Z-0.952
X20.171 Y36.583 Z-0.956
X20.043 Y36.624 Z-0.961
X19.912 Y36.665 Z-0.966
X19.778 Y36.704 Z-0.97
X19.641 Y36.744 Z-0.975
X19.502 Y36.784 Z-0.98
X19.413 Y36.809 Z-0.984
X19.311 Y36.826 Z-0.987
X19.155 Y36.851 Z-0.993
X18.999 Y36.877 Z-0.998
X18.846 Y36.901 Z-1.004
X18.693 Y36.924 Z-1.009
X18.542 Y36.946 Z-1.014
X18.392 Y36.967 Z-1.02
X18.243 Y36.986 Z-1.025
X18.096 Y37.003 Z-1.03
X17.949 Y37.019 Z-1.035
X17.803 Y37.032 Z-1.04
X17.655 Y37.044 Z-1.046
X17.507 Y37.054 Z-1.051
X17.357 Y37.063 Z-1.056
X17.207 Y37.07 Z-1.061
X17.055 Y37.076 Z-1.067
X16.903 Y37.081 Z-1.072
X16.748 Y37.084 Z-1.077
X16.594 Y37.087 Z-1.083
X16.438 Y37.09 Z-1.088
X16.281 Y37.091 Z-1.094
X16.123 Y37.092 Z-1.099
X15.964 Y37.093 Z-1.105
X15.806 Y37.094 Z-1.11
X9.411 Z-1.334
Y18.01 Z-2.
Y17.619 F400.
X16.151
X16.286 Y17.622
X16.429 Y17.625
X16.572 Y17.628
X16.712 Y17.631
X16.852 Y17.636
X16.991 Y17.641
X17.128 Y17.647
X17.264 Y17.653
X17.398 Y17.662
X17.531 Y17.671
X17.663 Y17.682
X17.794 Y17.695
X17.923 Y17.709
X18.053 Y17.725
X18.184 Y17.743
X18.316 Y17.763
X18.449 Y17.784
X18.583 Y17.807
X18.719 Y17.832
X18.856 Y17.857
X18.994 Y17.883
X19.133 Y17.91
X19.273 Y17.938
X19.379 Y17.959
X19.456 Y17.98
X19.566 Y18.011
X19.674 Y18.041
X19.781 Y18.072
X19.885 Y18.102
X19.987 Y18.134
X20.088 Y18.165
X20.186 Y18.197
X20.282 Y18.23
X20.376 Y18.264
X20.467 Y18.299
X20.555 Y18.335
X20.643 Y18.372
X20.73 Y18.412
X20.818 Y18.454
X20.907 Y18.498
X20.998 Y18.545
X21.09 Y18.594
X21.182 Y18.645
X21.277 Y18.698
X21.372 Y18.752
X21.469 Y18.808
X21.567 Y18.866
X21.616 Y18.895
X21.661 Y18.929
X21.751 Y18.997
X21.839 Y19.065
X21.925 Y19.132
X22.009 Y19.198
X22.091 Y19.263
X22.171 Y19.329
X22.248 Y19.394
X22.322 Y19.459
X22.394 Y19.524
X22.463 Y19.589
X22.529 Y19.655
X22.595 Y19.722
X22.661 Y19.792
X22.727 Y19.865
X22.793 Y19.941
X22.86 Y20.019
X22.926 Y20.099
X22.993 Y20.181
X23.061 Y20.265
X23.128 Y20.352
X23.197 Y20.439
X23.266 Y20.529
X23.308 Y20.584
X23.36 Y20.666
X23.436 Y20.787
X23.511 Y20.906
X23.583 Y21.024
X23.654 Y21.14
X23.723 Y21.256
X23.789 Y21.37
X23.853 Y21.484
X23.915 Y21.597
X23.973 Y21.709
X24.029 Y21.821
X24.082 Y21.933
X24.134 Y22.047
X24.184 Y22.164
X24.233 Y22.283
X24.281 Y22.405
X24.328 Y22.528
X24.374 Y22.654
X24.419 Y22.782
X24.465 Y22.912
X24.509 Y23.044
X24.554 Y23.178
X24.599 Y23.313
X24.632 Y23.414
X24.667 Y23.555
X24.71 Y23.73
X24.752 Y23.905
X24.793 Y24.077
X24.832 Y24.248
X24.87 Y24.418
X24.906 Y24.587
X24.939 Y24.754
X24.97 Y24.92
X24.998 Y25.085
X25.024 Y25.248
X25.046 Y25.411
X25.066 Y25.576
X25.083 Y25.742
X25.098 Y25.91
X25.111 Y26.08
X25.122 Y26.251
X25.131 Y26.425
X25.139 Y26.6
X25.146 Y26.776
X25.151 Y26.954
X25.156 Y27.134
X25.161 Y27.315
X25.165 Y27.47
X25.159 Y27.659
X25.152 Y27.874
X25.144 Y28.087
X25.135 Y28.298
X25.125 Y28.507
X25.113 Y28.714
X25.099 Y28.918
X25.083 Y29.12
X25.064 Y29.321
X25.042 Y29.518
X25.016 Y29.713
X24.987 Y29.906
X24.954 Y30.097
X24.917 Y30.289
X24.876 Y30.481
X24.83 Y30.675
X24.781 Y30.871
X24.729 Y31.067
X24.674 Y31.266
X24.616 Y31.466
X24.556 Y31.668
X24.495 Y31.871
X24.432 Y32.076
X24.384 Y32.228
X24.332 Y32.348
X24.256 Y32.517
X24.182 Y32.684
X24.106 Y32.848
X24.031 Y33.008
X23.955 Y33.164
X23.877 Y33.316
X23.799 Y33.465
X23.719 Y33.608
X23.637 Y33.747
X23.553 Y33.882
X23.467 Y34.011
X23.376 Y34.138
X23.281 Y34.263
X23.181 Y34.388
X23.075 Y34.513
X22.965 Y34.638
X22.85 Y34.763
X22.731 Y34.889
X22.607 Y35.015
X22.481 Y35.142
X22.351 Y35.271
X22.219 Y35.4
X22.132 Y35.484
X22.068 Y35.532
X21.952 Y35.617
X21.837 Y35.701
X21.724 Y35.782
X21.612 Y35.86
X21.502 Y35.935
X21.393 Y36.007
X21.286 Y36.075
X21.179 Y36.14
X21.074 Y36.2
X20.969 Y36.257
X20.865 Y36.309
X20.758 Y36.359
X20.648 Y36.407
X20.534 Y36.453
X20.416 Y36.498
X20.295 Y36.541
X20.171 Y36.583
X20.043 Y36.624
X19.912 Y36.665
X19.778 Y36.704
X19.641 Y36.744
X19.502 Y36.784
X19.413 Y36.809
X19.311 Y36.826
X19.155 Y36.851
X18.999 Y36.877
X18.846 Y36.901
X18.693 Y36.924
X18.542 Y36.946
X18.392 Y36.967
X18.243 Y36.986
X18.096 Y37.003
X17.949 Y37.019
X17.803 Y37.032
X17.655 Y37.044
X17.507 Y37.054
X17.357 Y37.063
X17.207 Y37.07
X17.055 Y37.076
X16.903 Y37.081
X16.748 Y37.084
X16.594 Y37.087
X16.438 Y37.09
X16.281 Y37.091
X16.123 Y37.092
X15.964 Y37.093
X15.806 Y37.094
X9.411
Y18.01
X9.791 Z-1.962
G0 Z6.
X10.253 Y22.544
Z2.5
G1 Y35.56 Z2.045 F333.
G2 X11.253 Y36.56 Z1.991 I1. J0.
G1 X15.765 Z1.833
X15.921 Y36.559 Z1.828
X16.079 Z1.822
X16.238 Y36.558 Z1.817
X16.397 Y36.556 Z1.811
X16.558 Y36.554 Z1.805
X16.721 Y36.55 Z1.8
X16.885 Y36.545 Z1.794
G2 X16.895 Y36.544 I-0.032 J-0.999
G1 X17.05 Y36.538 Z1.788
G2 X17.062 Y36.537 I-0.043 J-0.999
G1 X17.217 Y36.529 Z1.782
G2 X17.229 Y36.528 I-0.055 J-0.998
G1 X17.383 Y36.517 Z1.777
G2 X17.398 Y36.516 Z1.776 I-0.067 J-0.998
G1 X17.552 Y36.504 Z1.771
G2 X17.569 Y36.502 Z1.77 I-0.082 J-0.997
G1 X17.723 Y36.487 Z1.765
G2 X17.74 Y36.485 Z1.764 I-0.099 J-0.995
G1 X17.893 Y36.467 Z1.759
G2 X17.912 Y36.465 Z1.758 I-0.116 J-0.993
G1 X18.065 Y36.444 Z1.753
G2 X18.085 Y36.441 Z1.752 I-0.135 J-0.991
G1 X18.238 Y36.417 Z1.746
G2 X18.256 Y36.414 I-0.156 J-0.988
G1 X18.408 Y36.387 Z1.74
G2 X18.426 Y36.383 I-0.174 J-0.985
G1 X18.577 Y36.354 Z1.734
G2 X18.591 Y36.351 I-0.192 J-0.981
G1 X18.743 Y36.319 Z1.729
G2 X18.755 Y36.317 Z1.728 I-0.206 J-0.979
G1 X18.906 Y36.283 Z1.723
G2 X18.917 Y36.28 Z1.722 I-0.218 J-0.976
G1 X19.067 Y36.245 Z1.717
X19.226 Y36.206 Z1.711
X19.383 Y36.167 Z1.706
X19.538 Y36.128 Z1.7
X19.69 Y36.089 Z1.694
G2 X19.906 Y36.006 Z1.686 I-0.248 J-0.969
G1 X20.044 Y35.933 Z1.681
X20.184 Y35.859 Z1.675
X20.327 Y35.782 Z1.67
X20.471 Y35.703 Z1.664
G2 X20.483 Y35.696 Z1.663 I-0.483 J-0.875
G1 X20.617 Y35.619 Z1.658
G2 X20.632 Y35.61 Z1.657 I-0.496 J-0.868
G1 X20.764 Y35.532 Z1.652
G2 X20.783 Y35.521 Z1.651 I-0.511 J-0.86
G1 X20.913 Y35.44 Z1.646
G2 X20.934 Y35.426 Z1.645 I-0.53 J-0.848
G1 X21.061 Y35.342 Z1.64
G2 X21.085 Y35.326 Z1.639 I-0.551 J-0.835
G1 X21.209 Y35.238 Z1.633
G2 X21.236 Y35.219 Z1.632 I-0.575 J-0.818
G1 X21.357 Y35.128 Z1.627
G2 X21.386 Y35.105 Z1.626 I-0.602 J-0.799
G1 X21.503 Y35.01 Z1.62
G2 X21.534 Y34.984 Z1.619 I-0.631 J-0.776
G1 X21.647 Y34.884 Z1.614
G2 X21.676 Y34.858 Z1.612 I-0.662 J-0.75
G1 X21.785 Y34.753 Z1.607
G2 X21.81 Y34.728 Z1.606 I-0.69 J-0.723
G1 X21.916 Y34.62 Z1.601
G2 X21.939 Y34.596 Z1.599 I-0.716 J-0.698
G1 X22.041 Y34.484 Z1.594
G2 X22.06 Y34.463 Z1.593 I-0.739 J-0.674
G1 X22.159 Y34.347 Z1.588
G2 X22.176 Y34.327 Z1.587 I-0.757 J-0.653
G1 X22.273 Y34.209 Z1.582
G2 X22.287 Y34.191 Z1.581 I-0.775 J-0.633
G1 X22.381 Y34.071 Z1.576
G2 X22.393 Y34.055 Z1.575 I-0.788 J-0.615
G1 X22.485 Y33.932 Z1.569
G2 X22.494 Y33.92 I-0.8 J-0.6
G1 X22.585 Y33.795 Z1.564
G2 X22.592 Y33.785 Z1.563 I-0.809 J-0.588
G1 X22.682 Y33.658 Z1.558
X22.776 Y33.523 Z1.552
X22.867 Y33.389 Z1.546
X22.956 Y33.258 Z1.541
G2 X23.043 Y33.102 Z1.534 I-0.827 J-0.563
G1 X23.134 Y32.896 Z1.527
X23.226 Y32.688 Z1.519
X23.318 Y32.476 Z1.511
X23.409 Y32.262 Z1.502
G2 X23.413 Y32.25 I-0.921 J-0.389
G1 X23.498 Y32.043 Z1.494
G2 X23.503 Y32.029 I-0.926 J-0.377
G1 X23.584 Y31.821 Z1.486
G2 X23.591 Y31.804 Z1.485 I-0.932 J-0.363
G1 X23.668 Y31.595 Z1.478
G2 X23.675 Y31.574 Z1.477 I-0.938 J-0.345
G1 X23.747 Y31.364 Z1.469
G2 X23.755 Y31.34 Z1.468 I-0.946 J-0.325
G1 X23.822 Y31.129 Z1.46
G2 X23.83 Y31.102 Z1.459 I-0.954 J-0.3
G1 X23.89 Y30.889 Z1.452
G2 X23.898 Y30.858 Z1.451 I-0.962 J-0.273
G1 X23.952 Y30.644 Z1.443
G2 X23.959 Y30.613 Z1.442 I-0.97 J-0.242
G1 X24.006 Y30.397 Z1.434
G2 X24.011 Y30.368 Z1.433 I-0.978 J-0.211
G1 X24.051 Y30.15 Z1.425
G2 X24.056 Y30.123 Z1.424 I-0.983 J-0.181
G1 X24.09 Y29.905 Z1.417
G2 X24.094 Y29.88 Z1.416 I-0.988 J-0.154
G1 X24.122 Y29.661 Z1.408
G2 X24.125 Y29.638 Z1.407 I-0.992 J-0.13
G1 X24.149 Y29.417 Z1.399
G2 X24.151 Y29.398 I-0.994 J-0.107
G1 X24.17 Y29.176 Z1.391
G2 X24.172 Y29.158 Z1.39 I-0.996 J-0.088
G1 X24.187 Y28.936 Z1.383
G2 X24.188 Y28.921 Z1.382 I-0.998 J-0.07
G1 X24.201 Y28.698 Z1.374
G2 Y28.686 I-0.998 J-0.056
G1 X24.211 Y28.461 Z1.366
X24.219 Y28.227 Z1.358
X24.226 Y27.995 Z1.35
X24.231 Y27.765 Z1.342
X24.235 Y27.537 Z1.334
G2 Y27.497 Z1.332 I-1. J-0.02
G1 X24.231 Y27.322 Z1.326
X24.228 Y27.145 Z1.32
X24.223 Y26.967 Z1.314
X24.218 Y26.787 Z1.307
X24.211 Y26.606 Z1.301
X24.203 Y26.424 Z1.295
X24.194 Y26.241 Z1.288
G2 X24.193 Y26.23 I-0.999 J0.052
G1 X24.182 Y26.056 Z1.282
G2 X24.181 Y26.043 Z1.281 I-0.998 J0.063
G1 X24.168 Y25.869 Z1.275
G2 X24.167 Y25.856 I-0.997 J0.076
G1 X24.152 Y25.682 Z1.269
G2 X24.15 Y25.667 Z1.268 I-0.996 J0.089
G1 X24.132 Y25.494 Z1.262
G2 X24.13 Y25.477 I-0.995 J0.104
G1 X24.109 Y25.305 Z1.256
G2 X24.107 Y25.286 Z1.255 I-0.993 J0.121
G1 X24.082 Y25.114 Z1.249
G2 X24.08 Y25.095 Z1.248 I-0.99 J0.139
G1 X24.052 Y24.923 Z1.242
G2 X24.049 Y24.905 Z1.241 I-0.987 J0.158
G1 X24.019 Y24.734 Z1.235
G2 X24.016 Y24.719 I-0.984 J0.176
G1 X23.982 Y24.548 Z1.229
G2 X23.98 Y24.533 Z1.228 I-0.982 J0.191
G1 X23.944 Y24.363 Z1.222
G2 X23.941 Y24.35 I-0.979 J0.205
G1 X23.903 Y24.18 Z1.216
G2 X23.901 Y24.17 Z1.215 I-0.976 J0.218
G1 X23.861 Y24. Z1.209
X23.818 Y23.821 Z1.203
X23.773 Y23.645 Z1.196
X23.729 Y23.47 Z1.19
X23.684 Y23.297 Z1.184
X23.639 Y23.126 Z1.178
G2 X23.609 Y23.032 Z1.174 I-0.967 J0.253
G1 X23.563 Y22.907 Z1.17
X23.516 Y22.781 Z1.165
X23.467 Y22.653 Z1.16
X23.417 Y22.522 Z1.155
X23.365 Y22.391 Z1.15
G2 X23.361 Y22.38 I-0.93 J0.368
G1 X23.311 Y22.258 Z1.145
G2 X23.305 Y22.245 I-0.925 J0.379
G1 X23.254 Y22.124 Z1.14
G2 X23.248 Y22.11 I-0.92 J0.392
G1 X23.194 Y21.99 Z1.135
G2 X23.186 Y21.972 Z1.134 I-0.914 J0.405
G1 X23.131 Y21.853 Z1.13
G2 X23.122 Y21.834 Z1.129 I-0.906 J0.423
G1 X23.064 Y21.717 Z1.124
G2 X23.054 Y21.696 I-0.897 J0.441
G1 X22.993 Y21.58 Z1.119
G2 X22.981 Y21.558 Z1.118 I-0.887 J0.462
G1 X22.918 Y21.443 Z1.114
G2 X22.904 Y21.419 Z1.113 I-0.875 J0.484
G1 X22.837 Y21.306 Z1.108
G2 X22.823 Y21.282 Z1.107 I-0.861 J0.508
G1 X22.753 Y21.171 Z1.103
G2 X22.739 Y21.15 Z1.102 I-0.846 J0.532
G1 X22.666 Y21.041 Z1.097
G2 X22.653 Y21.021 Z1.096 I-0.833 J0.554
G1 X22.578 Y20.913 Z1.092
G2 X22.566 Y20.897 Z1.091 I-0.819 J0.574
G1 X22.488 Y20.791 Z1.086
G2 X22.478 Y20.777 I-0.807 J0.59
G1 X22.398 Y20.672 Z1.081
G2 X22.388 Y20.659 I-0.797 J0.604
G1 X22.307 Y20.555 Z1.076
G2 X22.299 Y20.546 I-0.787 J0.617
G1 X22.216 Y20.442 Z1.071
G2 X22.21 Y20.435 I-0.779 J0.627
G1 X22.126 Y20.332 Z1.066
X22.036 Y20.224 Z1.061
X21.947 Y20.119 Z1.056
X21.86 Y20.016 Z1.051
G2 X21.743 Y19.899 Z1.046 I-0.763 J0.646
G1 X21.672 Y19.839 Z1.042
X21.597 Y19.776 Z1.039
X21.522 Y19.713 Z1.036
X21.443 Y19.648 Z1.032
G2 X21.434 Y19.641 I-0.634 J0.773
G1 X21.361 Y19.583 Z1.028
G2 X21.352 Y19.575 I-0.626 J0.78
G1 X21.279 Y19.518 Z1.025
G2 X21.266 Y19.508 Z1.024 I-0.617 J0.787
G1 X21.191 Y19.451 Z1.021
G2 X21.178 Y19.441 Z1.02 I-0.604 J0.797
G1 X21.102 Y19.386 Z1.017
G2 X21.085 Y19.374 Z1.016 I-0.59 J0.807
G1 X21.009 Y19.32 Z1.013
G2 X20.99 Y19.307 Z1.012 I-0.573 J0.819
G1 X20.912 Y19.256 Z1.009
G2 X20.89 Y19.241 Z1.008 I-0.554 J0.833
G1 X20.811 Y19.192 Z1.005
G2 X20.787 Y19.177 Z1.004 I-0.531 J0.847
G1 X20.707 Y19.13 Z1.001
G2 X20.683 Y19.117 Z1. I-0.507 J0.862
G1 X20.602 Y19.072 Z0.996
G2 X20.579 Y19.06 Z0.995 I-0.483 J0.876
G1 X20.496 Y19.017 Z0.992
G2 X20.477 Y19.007 Z0.991 I-0.46 J0.888
G1 X20.393 Y18.966 Z0.988
G2 X20.374 Y18.957 Z0.987 I-0.44 J0.898
G1 X20.289 Y18.917 Z0.984
G2 X20.272 Y18.91 I-0.421 J0.907
G1 X20.187 Y18.872 Z0.98
G2 X20.173 Y18.866 I-0.404 J0.915
G1 X20.087 Y18.83 Z0.977
G2 X20.074 Y18.824 Z0.976 I-0.39 J0.921
G1 X19.987 Y18.789 Z0.973
G2 X19.976 Y18.784 Z0.972 I-0.377 J0.926
G1 X19.889 Y18.75 Z0.969
X19.794 Y18.714 Z0.966
X19.698 Y18.678 Z0.962
X19.606 Y18.644 Z0.959
X19.515 Y18.61 Z0.955
G2 X19.404 Y18.577 Z0.951 I-0.345 J0.939
G1 X19.267 Y18.544 Z0.946
X19.13 Y18.511 Z0.941
X18.988 Y18.478 Z0.936
X18.847 Y18.445 Z0.931
X18.702 Y18.413 Z0.926
X18.557 Y18.382 Z0.921
G2 X18.546 Y18.38 Z0.92 I-0.208 J0.978
G1 X18.408 Y18.352 Z0.915
G2 X18.396 Y18.35 I-0.197 J0.98
G1 X18.258 Y18.324 Z0.91
G2 X18.244 Y18.322 I-0.184 J0.983
G1 X18.107 Y18.298 Z0.905
G2 X18.09 Y18.295 Z0.904 I-0.171 J0.985
G1 X17.951 Y18.273 Z0.899
G2 X17.934 Y18.271 I-0.154 J0.988
G1 X17.796 Y18.252 Z0.894
G2 X17.778 Y18.249 Z0.893 I-0.137 J0.991
G1 X17.639 Y18.233 Z0.888
G2 X17.622 Y18.231 I-0.119 J0.993
G1 X17.483 Y18.217 Z0.883
G2 X17.468 Y18.215 Z0.882 I-0.102 J0.995
G1 X17.328 Y18.203 Z0.877
G2 X17.315 Y18.202 I-0.086 J0.996
G1 X17.175 Y18.192 Z0.872
G2 X17.162 Y18.191 I-0.073 J0.997
G1 X17.022 Y18.183 Z0.867
G2 X17.011 Y18.182 Z0.866 I-0.06 J0.998
G1 X16.87 Y18.175 Z0.861
X16.721 Y18.169 Z0.856
X16.572 Y18.165 Z0.851
X16.425 Y18.161 Z0.846
X16.278 Y18.159 Z0.841
X16.134 Y18.157 Z0.836
X15.99 Y18.155 Z0.831
X15.848 Y18.153 Z0.826
X11.253 Z0.665
G2 X10.253 Y19.153 Z0.61 I0. J1.
G1 Y35.56 Z0.037
G2 X11.253 Y36.56 Z-0.017 I1. J0.
G1 X15.765 Z-0.175
X15.921 Y36.559 Z-0.181
X16.079 Z-0.186
X16.238 Y36.558 Z-0.192
X16.397 Y36.556 Z-0.197
X16.558 Y36.554 Z-0.203
X16.721 Y36.55 Z-0.208
X16.885 Y36.545 Z-0.214
G2 X16.895 Y36.544 Z-0.215 I-0.032 J-0.999
G1 X17.05 Y36.538 Z-0.22
G2 X17.062 Y36.537 I-0.043 J-0.999
G1 X17.217 Y36.529 Z-0.226
G2 X17.229 Y36.528 I-0.055 J-0.998
G1 X17.383 Y36.517 Z-0.232
G2 X17.398 Y36.516 I-0.067 J-0.998
G1 X17.552 Y36.504 Z-0.238
G2 X17.569 Y36.502 I-0.082 J-0.997
G1 X17.723 Y36.487 Z-0.243
G2 X17.74 Y36.485 Z-0.244 I-0.099 J-0.995
G1 X17.893 Y36.467 Z-0.249
G2 X17.912 Y36.465 Z-0.25 I-0.116 J-0.993
G1 X18.065 Y36.444 Z-0.256
G2 X18.085 Y36.441 I-0.135 J-0.991
G1 X18.238 Y36.417 Z-0.262
G2 X18.256 Y36.414 I-0.156 J-0.988
G1 X18.408 Y36.387 Z-0.268
G2 X18.426 Y36.383 I-0.174 J-0.985
G1 X18.577 Y36.354 Z-0.274
G2 X18.591 Y36.351 I-0.192 J-0.981
G1 X18.743 Y36.319 Z-0.28
G2 X18.755 Y36.317 I-0.206 J-0.979
G1 X18.906 Y36.283 Z-0.285
G2 X18.917 Y36.28 Z-0.286 I-0.218 J-0.976
G1 X19.067 Y36.245 Z-0.291
X19.226 Y36.206 Z-0.297
X19.383 Y36.167 Z-0.303
X19.538 Y36.128 Z-0.308
X19.69 Y36.089 Z-0.314
G2 X19.906 Y36.006 Z-0.322 I-0.248 J-0.969
G1 X20.044 Y35.933 Z-0.327
X20.184 Y35.859 Z-0.333
X20.327 Y35.782 Z-0.338
X20.471 Y35.703 Z-0.344
G2 X20.483 Y35.696 Z-0.345 I-0.483 J-0.875
G1 X20.617 Y35.619 Z-0.35
G2 X20.632 Y35.61 Z-0.351 I-0.496 J-0.868
G1 X20.764 Y35.532 Z-0.356
G2 X20.783 Y35.521 Z-0.357 I-0.511 J-0.86
G1 X20.913 Y35.44 Z-0.362
G2 X20.934 Y35.426 Z-0.363 I-0.53 J-0.848
G1 X21.061 Y35.342 Z-0.368
G2 X21.085 Y35.326 Z-0.369 I-0.551 J-0.835
G1 X21.209 Y35.238 Z-0.375
G2 X21.236 Y35.219 Z-0.376 I-0.575 J-0.818
G1 X21.357 Y35.128 Z-0.381
G2 X21.386 Y35.105 Z-0.382 I-0.602 J-0.799
G1 X21.503 Y35.01 Z-0.388
G2 X21.534 Y34.984 Z-0.389 I-0.631 J-0.776
G1 X21.647 Y34.884 Z-0.394
G2 X21.676 Y34.858 Z-0.396 I-0.662 J-0.75
G1 X21.785 Y34.753 Z-0.401
G2 X21.81 Y34.728 Z-0.402 I-0.69 J-0.723
G1 X21.916 Y34.62 Z-0.407
G2 X21.939 Y34.596 Z-0.409 I-0.716 J-0.698
G1 X22.041 Y34.484 Z-0.414
G2 X22.06 Y34.463 Z-0.415 I-0.739 J-0.674
G1 X22.159 Y34.347 Z-0.42
G2 X22.176 Y34.327 Z-0.421 I-0.757 J-0.653
G1 X22.273 Y34.209 Z-0.426
G2 X22.287 Y34.191 Z-0.427 I-0.775 J-0.633
G1 X22.381 Y34.071 Z-0.433
G2 X22.393 Y34.055 I-0.788 J-0.615
G1 X22.485 Y33.932 Z-0.439
G2 X22.494 Y33.92 I-0.8 J-0.6
G1 X22.585 Y33.795 Z-0.445
G2 X22.592 Y33.785 I-0.809 J-0.588
G1 X22.682 Y33.658 Z-0.45
X22.776 Y33.523 Z-0.456
X22.867 Y33.389 Z-0.462
X22.956 Y33.258 Z-0.467
G2 X23.043 Y33.102 Z-0.474 I-0.827 J-0.563
G1 X23.134 Y32.896 Z-0.481
X23.226 Y32.688 Z-0.489
X23.318 Y32.476 Z-0.497
X23.409 Y32.262 Z-0.506
G2 X23.413 Y32.25 I-0.921 J-0.389
G1 X23.498 Y32.043 Z-0.514
G2 X23.503 Y32.029 I-0.926 J-0.377
G1 X23.584 Y31.821 Z-0.522
G2 X23.591 Y31.804 Z-0.523 I-0.932 J-0.363
G1 X23.668 Y31.595 Z-0.531
G2 X23.675 Y31.574 I-0.938 J-0.345
G1 X23.747 Y31.364 Z-0.539
G2 X23.755 Y31.34 Z-0.54 I-0.946 J-0.325
G1 X23.822 Y31.129 Z-0.548
G2 X23.83 Y31.102 Z-0.549 I-0.954 J-0.3
G1 X23.89 Y30.889 Z-0.556
G2 X23.898 Y30.858 Z-0.558 I-0.962 J-0.273
G1 X23.952 Y30.644 Z-0.565
G2 X23.959 Y30.613 Z-0.566 I-0.97 J-0.242
G1 X24.006 Y30.397 Z-0.574
G2 X24.011 Y30.368 Z-0.575 I-0.978 J-0.211
G1 X24.051 Y30.15 Z-0.583
G2 X24.056 Y30.123 Z-0.584 I-0.983 J-0.181
G1 X24.09 Y29.905 Z-0.592
G2 X24.094 Y29.88 I-0.988 J-0.154
G1 X24.122 Y29.661 Z-0.6
G2 X24.125 Y29.638 Z-0.601 I-0.992 J-0.13
G1 X24.149 Y29.417 Z-0.609
G2 X24.151 Y29.398 I-0.994 J-0.107
G1 X24.17 Y29.176 Z-0.617
G2 X24.172 Y29.158 Z-0.618 I-0.996 J-0.088
G1 X24.187 Y28.936 Z-0.626
G2 X24.188 Y28.921 I-0.998 J-0.07
G1 X24.201 Y28.698 Z-0.634
G2 Y28.686 I-0.998 J-0.056
G1 X24.211 Y28.461 Z-0.642
X24.219 Y28.227 Z-0.65
X24.226 Y27.995 Z-0.658
X24.231 Y27.765 Z-0.666
X24.235 Y27.537 Z-0.674
G2 Y27.497 Z-0.676 I-1. J-0.02
G1 X24.231 Y27.322 Z-0.682
X24.228 Y27.145 Z-0.688
X24.223 Y26.967 Z-0.694
X24.218 Y26.787 Z-0.701
X24.211 Y26.606 Z-0.707
X24.203 Y26.424 Z-0.713
X24.194 Y26.241 Z-0.72
G2 X24.193 Y26.23 I-0.999 J0.052
G1 X24.182 Y26.056 Z-0.726
G2 X24.181 Y26.043 Z-0.727 I-0.998 J0.063
G1 X24.168 Y25.869 Z-0.733
G2 X24.167 Y25.856 I-0.997 J0.076
G1 X24.152 Y25.682 Z-0.739
G2 X24.15 Y25.667 Z-0.74 I-0.996 J0.089
G1 X24.132 Y25.494 Z-0.746
G2 X24.13 Y25.477 I-0.995 J0.104
G1 X24.109 Y25.305 Z-0.753
G2 X24.107 Y25.286 I-0.993 J0.121
G1 X24.082 Y25.114 Z-0.759
G2 X24.08 Y25.095 Z-0.76 I-0.99 J0.139
G1 X24.052 Y24.923 Z-0.766
G2 X24.049 Y24.905 Z-0.767 I-0.987 J0.158
G1 X24.019 Y24.734 Z-0.773
G2 X24.016 Y24.719 I-0.984 J0.176
G1 X23.982 Y24.548 Z-0.779
G2 X23.98 Y24.533 Z-0.78 I-0.982 J0.191
G1 X23.944 Y24.363 Z-0.786
G2 X23.941 Y24.35 I-0.979 J0.205
G1 X23.903 Y24.18 Z-0.793
G2 X23.901 Y24.17 I-0.976 J0.218
G1 X23.861 Y24. Z-0.799
X23.818 Y23.821 Z-0.805
X23.773 Y23.645 Z-0.812
X23.729 Y23.47 Z-0.818
X23.684 Y23.297 Z-0.824
X23.639 Y23.126 Z-0.83
G2 X23.609 Y23.032 Z-0.834 I-0.967 J0.253
G1 X23.563 Y22.907 Z-0.839
X23.516 Y22.781 Z-0.843
X23.467 Y22.653 Z-0.848
X23.417 Y22.522 Z-0.853
X23.365 Y22.391 Z-0.858
G2 X23.361 Y22.38 I-0.93 J0.368
G1 X23.311 Y22.258 Z-0.863
G2 X23.305 Y22.245 I-0.925 J0.379
G1 X23.254 Y22.124 Z-0.868
G2 X23.248 Y22.11 I-0.92 J0.392
G1 X23.194 Y21.99 Z-0.873
G2 X23.186 Y21.972 Z-0.874 I-0.914 J0.405
G1 X23.131 Y21.853 Z-0.878
G2 X23.122 Y21.834 Z-0.879 I-0.906 J0.423
G1 X23.064 Y21.717 Z-0.884
G2 X23.054 Y21.696 I-0.897 J0.441
G1 X22.993 Y21.58 Z-0.889
G2 X22.981 Y21.558 Z-0.89 I-0.887 J0.462
G1 X22.918 Y21.443 Z-0.894
G2 X22.904 Y21.419 Z-0.895 I-0.875 J0.484
G1 X22.837 Y21.306 Z-0.9
G2 X22.823 Y21.282 Z-0.901 I-0.861 J0.508
G1 X22.753 Y21.171 Z-0.906
G2 X22.739 Y21.15 I-0.846 J0.532
G1 X22.666 Y21.041 Z-0.911
G2 X22.653 Y21.021 Z-0.912 I-0.833 J0.554
G1 X22.578 Y20.913 Z-0.916
G2 X22.566 Y20.897 Z-0.917 I-0.819 J0.574
G1 X22.488 Y20.791 Z-0.922
G2 X22.478 Y20.777 I-0.807 J0.59
G1 X22.398 Y20.672 Z-0.927
G2 X22.388 Y20.659 Z-0.928 I-0.797 J0.604
G1 X22.307 Y20.555 Z-0.932
G2 X22.299 Y20.546 Z-0.933 I-0.787 J0.617
G1 X22.216 Y20.442 Z-0.937
G2 X22.21 Y20.435 Z-0.938 I-0.779 J0.627
G1 X22.126 Y20.332 Z-0.942
X22.036 Y20.224 Z-0.947
X21.947 Y20.119 Z-0.952
X21.86 Y20.016 Z-0.957
G2 X21.743 Y19.899 Z-0.962 I-0.763 J0.646
G1 X21.672 Y19.839 Z-0.966
X21.597 Y19.776 Z-0.969
X21.522 Y19.713 Z-0.973
X21.443 Y19.648 Z-0.976
G2 X21.434 Y19.641 I-0.634 J0.773
G1 X21.361 Y19.583 Z-0.98
G2 X21.352 Y19.575 I-0.626 J0.78
G1 X21.279 Y19.518 Z-0.983
G2 X21.266 Y19.508 Z-0.984 I-0.617 J0.787
G1 X21.191 Y19.451 Z-0.987
G2 X21.178 Y19.441 Z-0.988 I-0.604 J0.797
G1 X21.102 Y19.386 Z-0.991
G2 X21.085 Y19.374 Z-0.992 I-0.59 J0.807
G1 X21.009 Y19.32 Z-0.995
G2 X20.99 Y19.307 Z-0.996 I-0.573 J0.819
G1 X20.912 Y19.256 Z-0.999
G2 X20.89 Y19.241 Z-1. I-0.554 J0.833
G1 X20.811 Y19.192 Z-1.003
G2 X20.787 Y19.177 Z-1.004 I-0.531 J0.847
G1 X20.707 Y19.13 Z-1.008
G2 X20.683 Y19.117 I-0.507 J0.862
G1 X20.602 Y19.072 Z-1.012
G2 X20.579 Y19.06 Z-1.013 I-0.483 J0.876
G1 X20.496 Y19.017 Z-1.016
G2 X20.477 Y19.007 Z-1.017 I-0.46 J0.888
G1 X20.393 Y18.966 Z-1.02
G2 X20.374 Y18.957 Z-1.021 I-0.44 J0.898
G1 X20.289 Y18.917 Z-1.024
G2 X20.272 Y18.91 Z-1.025 I-0.421 J0.907
G1 X20.187 Y18.872 Z-1.028
G2 X20.173 Y18.866 I-0.404 J0.915
G1 X20.087 Y18.83 Z-1.032
G2 X20.074 Y18.824 I-0.39 J0.921
G1 X19.987 Y18.789 Z-1.035
G2 X19.976 Y18.784 Z-1.036 I-0.377 J0.926
G1 X19.889 Y18.75 Z-1.039
X19.794 Y18.714 Z-1.043
X19.698 Y18.678 Z-1.046
X19.606 Y18.644 Z-1.05
X19.515 Y18.61 Z-1.053
G2 X19.404 Y18.577 Z-1.057 I-0.345 J0.939
G1 X19.267 Y18.544 Z-1.062
X19.13 Y18.511 Z-1.067
X18.988 Y18.478 Z-1.072
X18.847 Y18.445 Z-1.077
X18.702 Y18.413 Z-1.082
X18.557 Y18.382 Z-1.087
G2 X18.546 Y18.38 Z-1.088 I-0.208 J0.978
G1 X18.408 Y18.352 Z-1.093
G2 X18.396 Y18.35 I-0.197 J0.98
G1 X18.258 Y18.324 Z-1.098
G2 X18.244 Y18.322 Z-1.099 I-0.184 J0.983
G1 X18.107 Y18.298 Z-1.103
G2 X18.09 Y18.295 Z-1.104 I-0.171 J0.985
G1 X17.951 Y18.273 Z-1.109
G2 X17.934 Y18.271 I-0.154 J0.988
G1 X17.796 Y18.252 Z-1.114
G2 X17.778 Y18.249 Z-1.115 I-0.137 J0.991
G1 X17.639 Y18.233 Z-1.12
G2 X17.622 Y18.231 I-0.119 J0.993
G1 X17.483 Y18.217 Z-1.125
G2 X17.468 Y18.215 Z-1.126 I-0.102 J0.995
G1 X17.328 Y18.203 Z-1.131
G2 X17.315 Y18.202 I-0.086 J0.996
G1 X17.175 Y18.192 Z-1.136
G2 X17.162 Y18.191 Z-1.137 I-0.073 J0.997
G1 X17.022 Y18.183 Z-1.142
G2 X17.011 Y18.182 I-0.06 J0.998
G1 X16.87 Y18.175 Z-1.147
X16.721 Y18.169 Z-1.152
X16.572 Y18.165 Z-1.157
X16.425 Y18.161 Z-1.162
X16.278 Y18.159 Z-1.168
X16.134 Y18.157 Z-1.173
X15.99 Y18.155 Z-1.178
X15.848 Y18.153 Z-1.183
X11.253 Z-1.343
G2 X10.253 Y19.153 Z-1.398 I0. J1.
G1 Y35.56 Z-1.971
G2 X10.583 Y36.302 Z-2. I1. J0.
X11.253 Y36.56 I0.669 J-0.743 F400.
G1 X15.765
X15.921 Y36.559
X16.079
X16.238 Y36.558
X16.397 Y36.556
X16.558 Y36.554
X16.721 Y36.55
X16.885 Y36.545
G2 X16.895 Y36.544 I-0.032 J-0.999
G1 X17.05 Y36.538
G2 X17.062 Y36.537 I-0.043 J-0.999
G1 X17.217 Y36.529
G2 X17.229 Y36.528 I-0.055 J-0.998
G1 X17.383 Y36.517
G2 X17.398 Y36.516 I-0.067 J-0.998
G1 X17.552 Y36.504
G2 X17.569 Y36.502 I-0.082 J-0.997
G1 X17.723 Y36.487
G2 X17.74 Y36.485 I-0.099 J-0.995
G1 X17.893 Y36.467
G2 X17.912 Y36.465 I-0.116 J-0.993
G1 X18.065 Y36.444
G2 X18.085 Y36.441 I-0.135 J-0.991
G1 X18.238 Y36.417
G2 X18.256 Y36.414 I-0.156 J-0.988
G1 X18.408 Y36.387
G2 X18.426 Y36.383 I-0.174 J-0.985
G1 X18.577 Y36.354
G2 X18.591 Y36.351 I-0.192 J-0.981
G1 X18.743 Y36.319
G2 X18.755 Y36.317 I-0.206 J-0.979
G1 X18.906 Y36.283
G2 X18.917 Y36.28 I-0.218 J-0.976
G1 X19.067 Y36.245
X19.226 Y36.206
X19.383 Y36.167
X19.538 Y36.128
X19.69 Y36.089
G2 X19.906 Y36.006 I-0.248 J-0.969
G1 X20.044 Y35.933
X20.184 Y35.859
X20.327 Y35.782
X20.471 Y35.703
G2 X20.483 Y35.696 I-0.483 J-0.875
G1 X20.617 Y35.619
G2 X20.632 Y35.61 I-0.496 J-0.868
G1 X20.764 Y35.532
G2 X20.783 Y35.521 I-0.511 J-0.86
G1 X20.913 Y35.44
G2 X20.934 Y35.426 I-0.53 J-0.848
G1 X21.061 Y35.342
G2 X21.085 Y35.326 I-0.551 J-0.835
G1 X21.209 Y35.238
G2 X21.236 Y35.219 I-0.575 J-0.818
G1 X21.357 Y35.128
G2 X21.386 Y35.105 I-0.602 J-0.799
G1 X21.503 Y35.01
G2 X21.534 Y34.984 I-0.631 J-0.776
G1 X21.647 Y34.884
G2 X21.676 Y34.858 I-0.662 J-0.75
G1 X21.785 Y34.753
G2 X21.81 Y34.728 I-0.69 J-0.723
G1 X21.916 Y34.62
G2 X21.939 Y34.596 I-0.716 J-0.698
G1 X22.041 Y34.484
G2 X22.06 Y34.463 I-0.739 J-0.674
G1 X22.159 Y34.347
G2 X22.176 Y34.327 I-0.757 J-0.653
G1 X22.273 Y34.209
G2 X22.287 Y34.191 I-0.775 J-0.633
G1 X22.381 Y34.071
G2 X22.393 Y34.055 I-0.788 J-0.615
G1 X22.485 Y33.932
G2 X22.494 Y33.92 I-0.8 J-0.6
G1 X22.585 Y33.795
G2 X22.592 Y33.785 I-0.809 J-0.588
G1 X22.682 Y33.658
X22.776 Y33.523
X22.867 Y33.389
X22.956 Y33.258
G2 X23.043 Y33.102 I-0.827 J-0.563
G1 X23.134 Y32.896
X23.226 Y32.688
X23.318 Y32.476
X23.409 Y32.262
G2 X23.413 Y32.25 I-0.921 J-0.389
G1 X23.498 Y32.043
G2 X23.503 Y32.029 I-0.926 J-0.377
G1 X23.584 Y31.821
G2 X23.591 Y31.804 I-0.932 J-0.363
G1 X23.668 Y31.595
G2 X23.675 Y31.574 I-0.938 J-0.345
G1 X23.747 Y31.364
G2 X23.755 Y31.34 I-0.946 J-0.325
G1 X23.822 Y31.129
G2 X23.83 Y31.102 I-0.954 J-0.3
G1 X23.89 Y30.889
G2 X23.898 Y30.858 I-0.962 J-0.273
G1 X23.952 Y30.644
G2 X23.959 Y30.613 I-0.97 J-0.242
G1 X24.006 Y30.397
G2 X24.011 Y30.368 I-0.978 J-0.211
G1 X24.051 Y30.15
G2 X24.056 Y30.123 I-0.983 J-0.181
G1 X24.09 Y29.905
G2 X24.094 Y29.88 I-0.988 J-0.154
G1 X24.122 Y29.661
G2 X24.125 Y29.638 I-0.992 J-0.13
G1 X24.149 Y29.417
G2 X24.151 Y29.398 I-0.994 J-0.107
G1 X24.17 Y29.176
G2 X24.172 Y29.158 I-0.996 J-0.088
G1 X24.187 Y28.936
G2 X24.188 Y28.921 I-0.998 J-0.07
G1 X24.201 Y28.698
G2 Y28.686 I-0.998 J-0.056
G1 X24.211 Y28.461
X24.219 Y28.227
X24.226 Y27.995
X24.231 Y27.765
X24.235 Y27.537
G2 Y27.497 I-1. J-0.02
G1 X24.231 Y27.322
X24.228 Y27.145
X24.223 Y26.967
X24.218 Y26.787
X24.211 Y26.606
X24.203 Y26.424
X24.194 Y26.241
G2 X24.193 Y26.23 I-0.999 J0.052
G1 X24.182 Y26.056
G2 X24.181 Y26.043 I-0.998 J0.063
G1 X24.168 Y25.869
G2 X24.167 Y25.856 I-0.997 J0.076
G1 X24.152 Y25.682
G2 X24.15 Y25.667 I-0.996 J0.089
G1 X24.132 Y25.494
G2 X24.13 Y25.477 I-0.995 J0.104
G1 X24.109 Y25.305
G2 X24.107 Y25.286 I-0.993 J0.121
G1 X24.082 Y25.114
G2 X24.08 Y25.095 I-0.99 J0.139
G1 X24.052 Y24.923
G2 X24.049 Y24.905 I-0.987 J0.158
G1 X24.019 Y24.734
G2 X24.016 Y24.719 I-0.984 J0.176
G1 X23.982 Y24.548
G2 X23.98 Y24.533 I-0.982 J0.191
G1 X23.944 Y24.363
G2 X23.941 Y24.35 I-0.979 J0.205
G1 X23.903 Y24.18
G2 X23.901 Y24.17 I-0.976 J0.218
G1 X23.861 Y24.
X23.818 Y23.821
X23.773 Y23.645
X23.729 Y23.47
X23.684 Y23.297
X23.639 Y23.126
G2 X23.609 Y23.032 I-0.967 J0.253
G1 X23.563 Y22.907
X23.516 Y22.781
X23.467 Y22.653
X23.417 Y22.522
X23.365 Y22.391
G2 X23.361 Y22.38 I-0.93 J0.368
G1 X23.311 Y22.258
G2 X23.305 Y22.245 I-0.925 J0.379
G1 X23.254 Y22.124
G2 X23.248 Y22.11 I-0.92 J0.392
G1 X23.194 Y21.99
G2 X23.186 Y21.972 I-0.914 J0.405
G1 X23.131 Y21.853
G2 X23.122 Y21.834 I-0.906 J0.423
G1 X23.064 Y21.717
G2 X23.054 Y21.696 I-0.897 J0.441
G1 X22.993 Y21.58
G2 X22.981 Y21.558 I-0.887 J0.462
G1 X22.918 Y21.443
G2 X22.904 Y21.419 I-0.875 J0.484
G1 X22.837 Y21.306
G2 X22.823 Y21.282 I-0.861 J0.508
G1 X22.753 Y21.171
G2 X22.739 Y21.15 I-0.846 J0.532
G1 X22.666 Y21.041
G2 X22.653 Y21.021 I-0.833 J0.554
G1 X22.578 Y20.913
G2 X22.566 Y20.897 I-0.819 J0.574
G1 X22.488 Y20.791
G2 X22.478 Y20.777 I-0.807 J0.59
G1 X22.398 Y20.672
G2 X22.388 Y20.659 I-0.797 J0.604
G1 X22.307 Y20.555
G2 X22.299 Y20.546 I-0.787 J0.617
G1 X22.216 Y20.442
G2 X22.21 Y20.435 I-0.779 J0.627
G1 X22.126 Y20.332
X22.036 Y20.224
X21.947 Y20.119
X21.86 Y20.016
G2 X21.743 Y19.899 I-0.763 J0.646
G1 X21.672 Y19.839
X21.597 Y19.776
X21.522 Y19.713
X21.443 Y19.648
G2 X21.434 Y19.641 I-0.634 J0.773
G1 X21.361 Y19.583
G2 X21.352 Y19.575 I-0.626 J0.78
G1 X21.279 Y19.518
G2 X21.266 Y19.508 I-0.617 J0.787
G1 X21.191 Y19.451
G2 X21.178 Y19.441 I-0.604 J0.797
G1 X21.102 Y19.386
G2 X21.085 Y19.374 I-0.59 J0.807
G1 X21.009 Y19.32
G2 X20.99 Y19.307 I-0.573 J0.819
G1 X20.912 Y19.256
G2 X20.89 Y19.241 I-0.554 J0.833
G1 X20.811 Y19.192
G2 X20.787 Y19.177 I-0.531 J0.847
G1 X20.707 Y19.13
G2 X20.683 Y19.117 I-0.507 J0.862
G1 X20.602 Y19.072
G2 X20.579 Y19.06 I-0.483 J0.876
G1 X20.496 Y19.017
G2 X20.477 Y19.007 I-0.46 J0.888
G1 X20.393 Y18.966
G2 X20.374 Y18.957 I-0.44 J0.898
G1 X20.289 Y18.917
G2 X20.272 Y18.91 I-0.421 J0.907
G1 X20.187 Y18.872
G2 X20.173 Y18.866 I-0.404 J0.915
G1 X20.087 Y18.83
G2 X20.074 Y18.824 I-0.39 J0.921
G1 X19.987 Y18.789
G2 X19.976 Y18.784 I-0.377 J0.926
G1 X19.889 Y18.75
X19.794 Y18.714
X19.698 Y18.678
X19.606 Y18.644
X19.515 Y18.61
G2 X19.404 Y18.577 I-0.345 J0.939
G1 X19.267 Y18.544
X19.13 Y18.511
X18.988 Y18.478
X18.847 Y18.445
X18.702 Y18.413
X18.557 Y18.382
G2 X18.546 Y18.38 I-0.208 J0.978
G1 X18.408 Y18.352
G2 X18.396 Y18.35 I-0.197 J0.98
G1 X18.258 Y18.324
G2 X18.244 Y18.322 I-0.184 J0.983
G1 X18.107 Y18.298
G2 X18.09 Y18.295 I-0.171 J0.985
G1 X17.951 Y18.273
G2 X17.934 Y18.271 I-0.154 J0.988
G1 X17.796 Y18.252
G2 X17.778 Y18.249 I-0.137 J0.991
G1 X17.639 Y18.233
G2 X17.622 Y18.231 I-0.119 J0.993
G1 X17.483 Y18.217
G2 X17.468 Y18.215 I-0.102 J0.995
G1 X17.328 Y18.203
G2 X17.315 Y18.202 I-0.086 J0.996
G1 X17.175 Y18.192
G2 X17.162 Y18.191 I-0.073 J0.997
G1 X17.022 Y18.183
G2 X17.011 Y18.182 I-0.06 J0.998
G1 X16.87 Y18.175
X16.721 Y18.169
X16.572 Y18.165
X16.425 Y18.161
X16.278 Y18.159
X16.134 Y18.157
X15.99 Y18.155
X15.848 Y18.153
X11.253
G2 X10.253 Y19.153 I0. J1.
G1 Y35.56
G2 X10.583 Y36.302 I1. J0.
G1 X10.329 Y36.585 Z-1.962
G0 Z12.
X32.625 Y30.824
Z2.5
G1 X32.551 Y30.791 Z2.497 F333.
X32.46 Y30.747 Z2.494
X32.373 Y30.704 Z2.49
X32.289 Y30.66 Z2.487
X32.21 Y30.615 Z2.484
X32.134 Y30.57 Z2.481
X32.062 Y30.524 Z2.478
X31.993 Y30.477 Z2.475
X31.925 Y30.426 Z2.472
X31.857 Y30.372 Z2.469
X31.787 Y30.314 Z2.466
X31.715 Y30.251 Z2.462
X31.643 Y30.185 Z2.459
X31.569 Y30.115 Z2.455
X31.494 Y30.042 Z2.452
X31.418 Y29.965 Z2.448
X31.339 Y29.885 Z2.444
X31.259 Y29.802 Z2.44
X31.241 Y29.783 Z2.439
X31.224 Y29.758 Z2.438
X31.159 Y29.658 Z2.434
X31.095 Y29.56 Z2.43
X31.034 Y29.464 Z2.426
X30.975 Y29.37 Z2.422
X30.919 Y29.278 Z2.418
X30.865 Y29.186 Z2.414
X30.815 Y29.097 Z2.411
X30.768 Y29.009 Z2.407
X30.724 Y28.922 Z2.404
X30.683 Y28.837 Z2.401
X30.645 Y28.751 Z2.397
X30.609 Y28.663 Z2.394
X30.575 Y28.573 Z2.391
X31.175 Y28.491 Z2.369
X31.218 Y28.605 Z2.365
G2 X31.227 Y28.628 Z2.364 I0.935 J-0.354
G1 X31.269 Y28.731 Z2.36
G2 X31.28 Y28.758 Z2.359 I0.926 J-0.377
G1 X31.325 Y28.86 Z2.356
G2 X31.338 Y28.888 Z2.354 I0.915 J-0.403
G1 X31.386 Y28.988 Z2.351
G2 X31.401 Y29.019 Z2.349 I0.902 J-0.432
G1 X31.452 Y29.117 Z2.346
G2 X31.471 Y29.152 Z2.344 I0.887 J-0.462
G1 X31.526 Y29.248 Z2.34
G2 X31.547 Y29.282 Z2.339 I0.868 J-0.497
G1 X31.606 Y29.376 Z2.335
G2 X31.628 Y29.41 Z2.334 I0.847 J-0.532
G1 X31.691 Y29.501 Z2.33
G2 X31.712 Y29.531 Z2.328 I0.825 J-0.565
G1 X31.778 Y29.62 Z2.325
G2 X31.797 Y29.646 Z2.323 I0.804 J-0.595
G1 X31.866 Y29.733 Z2.32
G2 X31.884 Y29.755 Z2.319 I0.784 J-0.62
G1 X31.956 Y29.84 Z2.315
G2 X31.971 Y29.858 Z2.314 I0.767 J-0.642
G1 X32.045 Y29.943 Z2.31
G2 X32.059 Y29.958 Z2.309 I0.751 J-0.66
G1 X32.135 Y30.041 Z2.305
G2 X32.145 Y30.052 I0.738 J-0.674
G1 X32.223 Y30.134 Z2.301
G2 X32.23 Y30.143 Z2.3 I0.728 J-0.686
G1 X32.309 Y30.224 Z2.296
X32.394 Y30.311 Z2.292
X32.477 Y30.395 Z2.288
G2 X32.734 Y30.583 Z2.277 I0.712 J-0.702
G1 X32.841 Y30.638 Z2.273
X32.951 Y30.694 Z2.268
X33.066 Y30.751 Z2.264
G2 X33.076 Y30.756 I0.445 J-0.895
G1 X33.184 Y30.808 Z2.259
G2 X33.196 Y30.814 I0.435 J-0.9
G1 X33.304 Y30.864 Z2.255
G2 X33.321 Y30.872 Z2.254 I0.423 J-0.906
G1 X33.43 Y30.921 Z2.25
G2 X33.451 Y30.929 Z2.249 I0.406 J-0.914
G1 X33.56 Y30.975 Z2.245
G2 X33.584 Y30.985 Z2.244 I0.386 J-0.923
G1 X33.694 Y31.028 Z2.24
G2 X33.722 Y31.038 Z2.239 I0.362 J-0.932
G1 X33.834 Y31.077 Z2.235
G2 X33.865 Y31.088 Z2.234 I0.334 J-0.943
G1 X33.978 Y31.124 Z2.23
G2 X34.013 Y31.134 Z2.228 I0.302 J-0.953
G1 X34.126 Y31.166 Z2.224
G2 X34.163 Y31.175 Z2.223 I0.267 J-0.964
G1 X34.277 Y31.202 Z2.219
G2 X34.31 Y31.209 Z2.218 I0.23 J-0.973
G1 X34.425 Y31.233 Z2.213
G2 X34.456 Y31.238 Z2.212 I0.198 J-0.98
G1 X34.573 Y31.258 Z2.208
G2 X34.6 Y31.262 Z2.207 I0.167 J-0.986
G1 X34.717 Y31.279 Z2.203
G2 X34.742 Y31.282 Z2.202 I0.139 J-0.99
G1 X34.86 Y31.296 Z2.198
G2 X34.882 Y31.298 Z2.197 I0.114 J-0.993
G1 X35.001 Y31.309 Z2.193
G2 X35.02 Y31.31 Z2.192 I0.092 J-0.996
G1 X35.14 Y31.319 Z2.188
G2 X35.156 Y31.32 I0.073 J-0.997
G1 X35.275 Y31.327 Z2.184
G2 X35.289 Y31.328 Z2.183 I0.057 J-0.998
G1 X35.409 Y31.333 Z2.179
G2 X35.42 Z2.178 I0.043 J-0.999
G1 X35.541 Y31.337 Z2.174
X35.67 Y31.34 Z2.17
X35.796 Y31.343 Z2.165
X35.919 Y31.345 Z2.161
G2 X35.967 Y31.344 Z2.159 I0.017 J-1.
G1 X36.103 Y31.34 Z2.155
X36.241 Y31.335 Z2.15
X36.383 Y31.329 Z2.145
X36.528 Y31.322 Z2.14
G2 X36.541 Y31.321 Z2.139 I-0.051 J-0.999
G1 X36.675 Y31.313 Z2.135
G2 X36.691 Y31.312 Z2.134 I-0.064 J-0.998
G1 X36.824 Y31.301 Z2.129
G2 X36.844 Y31.299 I-0.08 J-0.997
G1 X36.977 Y31.286 Z2.124
G2 X37. Y31.283 Z2.123 I-0.1 J-0.995
G1 X37.132 Y31.267 Z2.119
G2 X37.159 Y31.263 Z2.118 I-0.123 J-0.992
G1 X37.289 Y31.243 Z2.113
G2 X37.319 Y31.238 Z2.112 I-0.15 J-0.989
G1 X37.448 Y31.215 Z2.107
G2 X37.483 Y31.208 Z2.106 I-0.179 J-0.984
G1 X37.611 Y31.18 Z2.102
G2 X37.647 Y31.171 Z2.1 I-0.214 J-0.977
G1 X37.773 Y31.139 Z2.096
G2 X37.813 Y31.128 Z2.094 I-0.25 J-0.968
G1 X37.938 Y31.09 Z2.09
G2 X37.981 Y31.076 Z2.088 I-0.289 J-0.957
G1 X38.104 Y31.032 Z2.084
G2 X38.143 Y31.018 Z2.082 I-0.333 J-0.943
G1 X38.265 Y30.969 Z2.078
G2 X38.301 Y30.954 Z2.076 I-0.371 J-0.928
G1 X38.421 Y30.9 Z2.072
G2 X38.45 Y30.887 Z2.07 I-0.407 J-0.913
G1 X38.569 Y30.829 Z2.066
G2 X38.596 Y30.815 Z2.065 I-0.437 J-0.9
G1 X38.713 Y30.754 Z2.06
G2 X38.735 Y30.742 Z2.059 I-0.464 J-0.886
G1 X38.851 Y30.678 Z2.055
G2 X38.869 Y30.668 Z2.054 I-0.485 J-0.874
G1 X38.984 Y30.601 Z2.049
G2 X38.998 Y30.592 I-0.503 J-0.864
G1 X39.113 Y30.523 Z2.044
G2 X39.124 Y30.516 I-0.517 J-0.856
G1 X39.238 Y30.445 Z2.039
X39.359 Y30.369 Z2.034
X39.476 Y30.294 Z2.029
G2 X39.737 Y30.052 Z2.017 I-0.538 J-0.843
G1 X39.8 Y29.969 Z2.013
X39.866 Y29.881 Z2.009
X39.932 Y29.79 Z2.005
G2 X39.941 Y29.778 I-0.808 J-0.59
G1 X40. Y29.694 Z2.001
G2 X40.011 Y29.679 Z2. I-0.817 J-0.577
G1 X40.069 Y29.594 Z1.997
G2 X40.083 Y29.572 Z1.996 I-0.827 J-0.562
G1 X40.138 Y29.486 Z1.992
G2 X40.153 Y29.462 Z1.991 I-0.841 J-0.541
G1 X40.206 Y29.375 Z1.988
G2 X40.223 Y29.345 Z1.987 I-0.856 J-0.516
G1 X40.272 Y29.257 Z1.983
G2 X40.291 Y29.221 Z1.982 I-0.874 J-0.486
G1 X40.336 Y29.131 Z1.978
G2 X40.356 Y29.09 Z1.977 I-0.893 J-0.45
G1 X40.397 Y28.999 Z1.973
G2 X40.417 Y28.951 Z1.971 I-0.913 J-0.409
G1 X40.453 Y28.858 Z1.968
G2 X40.47 Y28.809 Z1.966 I-0.932 J-0.361
G1 X40.501 Y28.715 Z1.962
G2 X40.515 Y28.671 Z1.961 I-0.95 J-0.312
G1 X40.541 Y28.575 Z1.957
G2 X40.552 Y28.533 Z1.956 I-0.963 J-0.268
G1 X40.575 Y28.435 Z1.952
G2 X40.583 Y28.397 Z1.951 I-0.974 J-0.227
G1 X40.602 Y28.298 Z1.948
G2 X40.608 Y28.264 Z1.946 I-0.982 J-0.188
G1 X40.623 Y28.164 Z1.943
G2 X40.628 Y28.134 Z1.942 I-0.988 J-0.155
G1 X40.64 Y28.033 Z1.938
G2 X40.643 Y28.007 Z1.937 I-0.992 J-0.125
G1 X40.653 Y27.904 Z1.934
G2 X40.655 Y27.882 Z1.933 I-0.995 J-0.098
G1 X40.663 Y27.779 Z1.929
G2 X40.664 Y27.762 I-0.997 J-0.076
G1 X40.671 Y27.658 Z1.925
G2 Y27.643 I-0.998 J-0.059
G1 X40.676 Y27.539 Z1.921
G2 Y27.529 Z1.92 I-0.999 J-0.044
G1 X40.68 Y27.424 Z1.917
X40.683 Y27.311 Z1.913
X40.685 Y27.204 Z1.909
G2 Y27.167 Z1.908 I-1. J-0.023
G1 Y27.14 Z1.907
Y27.113 Z1.906
X40.684 Y27.081 Z1.905
Y27.052 Z1.904
X40.683 Y27.021 Z1.903
Y26.995 Z1.902
X40.682 Y26.962 Z1.901
X40.681 Y26.876 Z1.898
X40.68 Y26.844 Z1.897
Y26.814 Z1.896
X40.679 Y26.787 Z1.895
X40.678 Y26.755 Z1.893
X40.676 Y26.669 Z1.89
X40.675 Y26.636 Z1.889
X40.674 Y26.609 Z1.888
Y26.583 Z1.887
X40.673 Y26.55 Z1.886
X40.671 Y26.464 Z1.883
G2 X39.937 Y25.528 Z1.839 I-1. J0.028
G1 X39.744 Y25.475 Z1.832
X39.55 Y25.422 Z1.825
X39.534 Y25.417 Z1.824
G2 X40.671 Y24.427 Z1.765 I0.137 J-0.991
G1 Y23.46 Z1.731
G2 Y23.449 Z1.73 I-1. J0.
G1 X40.67 Y23.337 Z1.727
X40.668 Y23.223 Z1.723
X40.666 Y23.106 Z1.718
X40.664 Y22.988 Z1.714
X40.66 Y22.867 Z1.71
X40.656 Y22.746 Z1.706
G2 X40.655 Y22.735 I-0.999 J0.038
G1 X40.65 Y22.623 Z1.702
G2 X40.649 Y22.609 Z1.701 I-0.999 J0.05
G1 X40.642 Y22.497 Z1.697
G2 X40.641 Y22.483 I-0.998 J0.063
G1 X40.632 Y22.372 Z1.693
G2 X40.631 Y22.354 Z1.692 I-0.997 J0.078
G1 X40.62 Y22.242 Z1.688
G2 X40.618 Y22.224 I-0.995 J0.096
G1 X40.605 Y22.113 Z1.684
G2 X40.602 Y22.092 Z1.683 I-0.993 J0.115
G1 X40.587 Y21.982 Z1.679
G2 X40.584 Y21.958 Z1.678 I-0.991 J0.136
G1 X40.566 Y21.848 Z1.674
G2 X40.562 Y21.824 I-0.987 J0.159
G1 X40.542 Y21.715 Z1.67
G2 X40.537 Y21.69 Z1.669 I-0.983 J0.183
G1 X40.513 Y21.581 Z1.665
G2 X40.508 Y21.559 Z1.664 I-0.978 J0.208
G1 X40.483 Y21.45 Z1.66
G2 X40.478 Y21.43 Z1.659 I-0.973 J0.23
G1 X40.45 Y21.322 Z1.656
G2 X40.445 Y21.304 Z1.655 I-0.968 J0.251
G1 X40.415 Y21.197 Z1.651
G2 X40.411 Y21.182 Z1.65 I-0.963 J0.268
G1 X40.379 Y21.074 Z1.647
G2 X40.376 Y21.063 Z1.646 I-0.959 J0.283
G1 X40.343 Y20.956 Z1.642
G2 X40.339 Y20.945 I-0.956 J0.294
G1 X40.305 Y20.838 Z1.638
X40.268 Y20.725 Z1.634
X40.231 Y20.613 Z1.63
X40.194 Y20.504 Z1.626
G2 X40.109 Y20.318 Z1.618 I-0.948 J0.319
G1 X40.054 Y20.225 Z1.615
X39.998 Y20.128 Z1.611
X39.939 Y20.031 Z1.607
X39.878 Y19.931 Z1.603
G2 X39.871 Y19.92 Z1.602 I-0.853 J0.522
G1 X39.814 Y19.829 Z1.599
G2 X39.806 Y19.816 Z1.598 I-0.846 J0.533
G1 X39.747 Y19.727 Z1.594
G2 X39.737 Y19.711 I-0.838 J0.546
G1 X39.677 Y19.622 Z1.59
G2 X39.663 Y19.603 Z1.589 I-0.827 J0.562
G1 X39.601 Y19.517 Z1.585
G2 X39.587 Y19.496 Z1.584 I-0.813 J0.582
X40.881 Y18.674 Z1.523 I0.301 J-0.956
G1 X40.893 Y18.593 Z1.521
X40.904 Y18.512 Z1.518
X40.915 Y18.434 Z1.515
X40.926 Y18.357 Z1.512
X40.938 Y18.283 Z1.51
X40.95 Y18.21 Z1.507
X40.962 Y18.139 Z1.505
X40.975 Y18.071 Z1.502
X40.989 Y18.004 Z1.5
X41.003 Y17.939 Z1.497
X41.018 Y17.877 Z1.495
X41.034 Y17.816 Z1.493
X41.05 Y17.757 Z1.491
X41.069 Y17.697 Z1.489
X41.089 Y17.636 Z1.486
X41.094 Y17.619
X41.683 Z1.465
X41.673 Y17.657 Z1.464
G2 X41.67 Y17.67 Z1.463 I0.965 J0.263
G1 X41.649 Y17.751 Z1.461
G2 X41.646 Y17.761 Z1.46 I0.968 J0.25
G1 X41.626 Y17.841 Z1.457
X41.605 Y17.93 Z1.454
X41.585 Y18.019 Z1.451
X41.566 Y18.104 Z1.448
X41.547 Y18.19 Z1.445
X41.529 Y18.272 Z1.442
G2 X41.509 Y18.4 Z1.437 I0.977 J0.215
G1 X41.492 Y18.593 Z1.431
X41.475 Y18.787 Z1.424
X41.459 Y18.982 Z1.417
X41.443 Y19.178 Z1.41
X41.427 Y19.375 Z1.403
X41.413 Y19.573 Z1.396
X41.399 Y19.773 Z1.389
X41.387 Y19.973 Z1.382
X41.376 Y20.173 Z1.375
X41.366 Y20.375 Z1.368
X41.358 Y20.576 Z1.361
X41.351 Y20.776 Z1.354
X41.346 Y20.976 Z1.347
X41.342 Y21.175 Z1.34
X41.338 Y21.374 Z1.333
X41.336 Y21.572 Z1.326
X41.334 Y21.771 Z1.319
X41.333 Y21.968 Z1.313
Y22.165 Z1.306
Y22.362 Z1.299
X41.334 Y22.558 Z1.292
X41.335 Y22.754 Z1.285
X41.336 Y22.949 Z1.278
X41.337 Y23.141 Z1.272
Y26.653 Z1.149
Y26.757 Z1.145
Y26.858 Z1.142
Y26.958 Z1.138
Y27.057 Z1.135
Y27.156 Z1.131
X41.336 Y27.253 Z1.128
X41.335 Y27.35 Z1.125
X41.333 Y27.447 Z1.121
X41.331 Y27.542 Z1.118
X41.328 Y27.637 Z1.115
X41.325 Y27.732 Z1.111
X41.321 Y27.824 Z1.108
X41.316 Y27.917 Z1.105
X41.311 Y28.009 Z1.102
X41.304 Y28.101 Z1.098
X41.297 Y28.192 Z1.095
X41.288 Y28.285 Z1.092
X41.279 Y28.379 Z1.089
X41.269 Y28.474 Z1.085
X41.259 Y28.57 Z1.082
X41.248 Y28.668 Z1.078
X41.236 Y28.766 Z1.075
X41.224 Y28.865 Z1.072
X41.22 Y28.899 Z1.07
X41.216 Y28.915
X41.196 Y28.992 Z1.067
X41.176 Y29.067 Z1.064
X41.156 Y29.14 Z1.062
X41.136 Y29.21 Z1.059
X41.116 Y29.277 Z1.057
X41.096 Y29.341 Z1.054
X41.076 Y29.403 Z1.052
X41.055 Y29.462 Z1.05
X41.034 Y29.518 Z1.048
X41.013 Y29.571 Z1.046
X40.991 Y29.621 Z1.044
X40.968 Y29.669 Z1.042
X40.944 Y29.718 Z1.04
X40.917 Y29.769 Z1.038
X40.887 Y29.821 Z1.036
X40.855 Y29.875 Z1.034
X40.82 Y29.931 Z1.031
X40.783 Y29.989 Z1.029
X40.743 Y30.048 Z1.027
X40.701 Y30.11 Z1.024
X40.658 Y30.174 Z1.021
X40.62 Y30.228 Z1.019
X40.56 Y30.286 Z1.016
X40.498 Y30.345 Z1.013
X40.439 Y30.401 Z1.01
X40.381 Y30.454 Z1.007
X40.324 Y30.504 Z1.005
X40.269 Y30.551 Z1.002
X40.216 Y30.595 Z1.
X40.164 Y30.636 Z0.998
X40.114 Y30.673 Z0.995
X40.064 Y30.707 Z0.993
X40.014 Y30.74 Z0.991
X39.961 Y30.772 Z0.989
X39.904 Y30.805 Z0.987
X39.845 Y30.837 Z0.984
X39.782 Y30.869 Z0.982
X39.716 Y30.902 Z0.979
X39.647 Y30.934 Z0.977
X39.575 Y30.966 Z0.974
X39.501 Y30.998 Z0.971
X39.424 Y31.031 Z0.968
X39.344 Y31.064 Z0.965
X39.261 Y31.098 Z0.962
X39.226 Y31.112 Z0.961
X39.146 Y31.135 Z0.958
X39.017 Y31.172 Z0.953
X38.89 Y31.208 Z0.949
X38.765 Y31.242 Z0.944
X38.641 Y31.275 Z0.939
X38.519 Y31.306 Z0.935
X38.399 Y31.335 Z0.931
X38.281 Y31.362 Z0.927
X38.164 Y31.386 Z0.922
X38.049 Y31.408 Z0.918
X37.935 Y31.427 Z0.914
X37.821 Y31.444 Z0.91
X37.705 Y31.459 Z0.906
X37.587 Y31.472 Z0.902
X37.466 Y31.483 Z0.898
X37.344 Y31.492 Z0.893
X37.22 Y31.5 Z0.889
X37.094 Y31.506 Z0.885
X36.966 Y31.512 Z0.88
X36.836 Y31.516 Z0.876
X36.704 Y31.52 Z0.871
X36.571 Y31.523 Z0.866
X36.436 Y31.525 Z0.862
X36.322 Y31.527 Z0.858
X36.195 Y31.524 Z0.853
X36.048 Y31.519 Z0.848
X35.902 Y31.514 Z0.843
X35.758 Y31.509 Z0.838
X35.615 Y31.503 Z0.833
X35.475 Y31.495 Z0.828
X35.337 Y31.486 Z0.823
X35.201 Y31.476 Z0.819
X35.067 Y31.464 Z0.814
X34.935 Y31.45 Z0.809
X34.804 Y31.435 Z0.805
X34.677 Y31.417 Z0.8
X34.55 Y31.396 Z0.796
X34.423 Y31.373 Z0.791
X34.295 Y31.347 Z0.787
X34.165 Y31.318 Z0.782
X34.034 Y31.287 Z0.777
X33.901 Y31.254 Z0.772
X33.766 Y31.218 Z0.768
X33.63 Y31.181 Z0.763
X33.492 Y31.142 Z0.758
X33.352 Y31.102 Z0.753
X33.211 Y31.061 Z0.747
X33.117 Y31.033 Z0.744
X33.055 Y31.008 Z0.742
X32.948 Y30.964 Z0.738
X32.845 Y30.92 Z0.734
X32.743 Y30.877 Z0.73
X32.645 Y30.834 Z0.726
X32.551 Y30.791 Z0.723
X32.46 Y30.747 Z0.719
X32.373 Y30.704 Z0.716
X32.289 Y30.66 Z0.712
X32.21 Y30.615 Z0.709
X32.134 Y30.57 Z0.706
X32.062 Y30.524 Z0.703
X31.993 Y30.477 Z0.7
X31.925 Y30.426 Z0.697
X31.857 Y30.372 Z0.694
X31.787 Y30.314 Z0.691
X31.715 Y30.251 Z0.688
X31.643 Y30.185 Z0.684
X31.569 Y30.115 Z0.681
X31.494 Y30.042 Z0.677
X31.418 Y29.965 Z0.673
X31.339 Y29.885 Z0.669
X31.259 Y29.802 Z0.665
X31.241 Y29.783 Z0.664
X31.224 Y29.758 Z0.663
X31.159 Y29.658 Z0.659
X31.095 Y29.56 Z0.655
X31.034 Y29.464 Z0.651
X30.975 Y29.37 Z0.647
X30.919 Y29.278 Z0.643
X30.865 Y29.186 Z0.64
X30.815 Y29.097 Z0.636
X30.768 Y29.009 Z0.633
X30.724 Y28.922 Z0.629
X30.683 Y28.837 Z0.626
X30.645 Y28.751 Z0.623
X30.609 Y28.663 Z0.619
X30.575 Y28.573 Z0.616
X31.175 Y28.491 Z0.595
X31.218 Y28.605 Z0.591
G2 X31.227 Y28.628 Z0.59 I0.935 J-0.354
G1 X31.269 Y28.731 Z0.586
G2 X31.28 Y28.758 Z0.585 I0.926 J-0.377
G1 X31.325 Y28.86 Z0.581
G2 X31.338 Y28.888 Z0.58 I0.915 J-0.403
G1 X31.386 Y28.988 Z0.576
G2 X31.401 Y29.019 Z0.575 I0.902 J-0.432
G1 X31.452 Y29.117 Z0.571
G2 X31.471 Y29.152 Z0.57 I0.887 J-0.462
G1 X31.526 Y29.248 Z0.566
G2 X31.547 Y29.282 Z0.564 I0.868 J-0.497
G1 X31.606 Y29.376 Z0.56
G2 X31.628 Y29.41 Z0.559 I0.847 J-0.532
G1 X31.691 Y29.501 Z0.555
G2 X31.712 Y29.531 Z0.554 I0.825 J-0.565
G1 X31.778 Y29.62 Z0.55
G2 X31.797 Y29.646 Z0.549 I0.804 J-0.595
G1 X31.866 Y29.733 Z0.545
G2 X31.884 Y29.755 Z0.544 I0.784 J-0.62
G1 X31.956 Y29.84 Z0.54
G2 X31.971 Y29.858 Z0.539 I0.767 J-0.642
G1 X32.045 Y29.943 Z0.535
G2 X32.059 Y29.958 I0.751 J-0.66
G1 X32.135 Y30.041 Z0.531
G2 X32.145 Y30.052 Z0.53 I0.738 J-0.674
G1 X32.223 Y30.134 Z0.526
G2 X32.23 Y30.143 I0.728 J-0.686
G1 X32.309 Y30.224 Z0.522
X32.394 Y30.311 Z0.518
X32.477 Y30.395 Z0.514
G2 X32.734 Y30.583 Z0.502 I0.712 J-0.702
G1 X32.841 Y30.638 Z0.498
X32.951 Y30.694 Z0.494
X33.066 Y30.751 Z0.489
G2 X33.076 Y30.756 I0.445 J-0.895
G1 X33.184 Y30.808 Z0.485
G2 X33.196 Y30.814 Z0.484 I0.435 J-0.9
G1 X33.304 Y30.864 Z0.48
G2 X33.321 Y30.872 Z0.479 I0.423 J-0.906
G1 X33.43 Y30.921 Z0.475
G2 X33.451 Y30.929 I0.406 J-0.914
G1 X33.56 Y30.975 Z0.47
G2 X33.584 Y30.985 I0.386 J-0.923
G1 X33.694 Y31.028 Z0.465
G2 X33.722 Y31.038 Z0.464 I0.362 J-0.932
G1 X33.834 Y31.077 Z0.46
G2 X33.865 Y31.088 Z0.459 I0.334 J-0.943
G1 X33.978 Y31.124 Z0.455
G2 X34.013 Y31.134 Z0.454 I0.302 J-0.953
G1 X34.126 Y31.166 Z0.45
G2 X34.163 Y31.175 Z0.448 I0.267 J-0.964
G1 X34.277 Y31.202 Z0.444
G2 X34.31 Y31.209 Z0.443 I0.23 J-0.973
G1 X34.425 Y31.233 Z0.439
G2 X34.456 Y31.238 Z0.438 I0.198 J-0.98
G1 X34.573 Y31.258 Z0.434
G2 X34.6 Y31.262 Z0.433 I0.167 J-0.986
G1 X34.717 Y31.279 Z0.428
G2 X34.742 Y31.282 I0.139 J-0.99
G1 X34.86 Y31.296 Z0.423
G2 X34.882 Y31.298 I0.114 J-0.993
G1 X35.001 Y31.309 Z0.419
G2 X35.02 Y31.31 Z0.418 I0.092 J-0.996
G1 X35.14 Y31.319 Z0.414
G2 X35.156 Y31.32 Z0.413 I0.073 J-0.997
G1 X35.275 Y31.327 Z0.409
G2 X35.289 Y31.328 Z0.408 I0.057 J-0.998
G1 X35.409 Y31.333 Z0.404
G2 X35.42 I0.043 J-0.999
G1 X35.541 Y31.337 Z0.4
X35.67 Y31.34 Z0.395
X35.796 Y31.343 Z0.391
X35.919 Y31.345 Z0.386
G2 X35.967 Y31.344 Z0.385 I0.017 J-1.
G1 X36.103 Y31.34 Z0.38
X36.241 Y31.335 Z0.375
X36.383 Y31.329 Z0.37
X36.528 Y31.322 Z0.365
G2 X36.541 Y31.321 I-0.051 J-0.999
G1 X36.675 Y31.313 Z0.36
G2 X36.691 Y31.312 Z0.359 I-0.064 J-0.998
G1 X36.824 Y31.301 Z0.355
G2 X36.844 Y31.299 Z0.354 I-0.08 J-0.997
G1 X36.977 Y31.286 Z0.349
G2 X37. Y31.283 I-0.1 J-0.995
G1 X37.132 Y31.267 Z0.344
G2 X37.159 Y31.263 Z0.343 I-0.123 J-0.992
G1 X37.289 Y31.243 Z0.338
G2 X37.319 Y31.238 Z0.337 I-0.15 J-0.989
G1 X37.448 Y31.215 Z0.333
G2 X37.483 Y31.208 Z0.332 I-0.179 J-0.984
G1 X37.611 Y31.18 Z0.327
G2 X37.647 Y31.171 Z0.326 I-0.214 J-0.977
G1 X37.773 Y31.139 Z0.321
G2 X37.813 Y31.128 Z0.32 I-0.25 J-0.968
G1 X37.938 Y31.09 Z0.315
G2 X37.981 Y31.076 Z0.314 I-0.289 J-0.957
G1 X38.104 Y31.032 Z0.309
G2 X38.143 Y31.018 Z0.308 I-0.333 J-0.943
G1 X38.265 Y30.969 Z0.303
G2 X38.301 Y30.954 Z0.302 I-0.371 J-0.928
G1 X38.421 Y30.9 Z0.297
G2 X38.45 Y30.887 Z0.296 I-0.407 J-0.913
G1 X38.569 Y30.829 Z0.291
G2 X38.596 Y30.815 Z0.29 I-0.437 J-0.9
G1 X38.713 Y30.754 Z0.286
G2 X38.735 Y30.742 Z0.285 I-0.464 J-0.886
G1 X38.851 Y30.678 Z0.28
G2 X38.869 Y30.668 Z0.279 I-0.485 J-0.874
G1 X38.984 Y30.601 Z0.275
G2 X38.998 Y30.592 Z0.274 I-0.503 J-0.864
G1 X39.113 Y30.523 Z0.269
G2 X39.124 Y30.516 I-0.517 J-0.856
G1 X39.238 Y30.445 Z0.264
X39.359 Y30.369 Z0.259
X39.476 Y30.294 Z0.254
G2 X39.737 Y30.052 Z0.242 I-0.538 J-0.843
G1 X39.8 Y29.969 Z0.238
X39.866 Y29.881 Z0.234
X39.932 Y29.79 Z0.231
G2 X39.941 Y29.778 Z0.23 I-0.808 J-0.59
G1 X40. Y29.694 Z0.226
G2 X40.011 Y29.679 I-0.817 J-0.577
G1 X40.069 Y29.594 Z0.222
G2 X40.083 Y29.572 Z0.221 I-0.827 J-0.562
G1 X40.138 Y29.486 Z0.218
G2 X40.153 Y29.462 Z0.217 I-0.841 J-0.541
G1 X40.206 Y29.375 Z0.213
G2 X40.223 Y29.345 Z0.212 I-0.856 J-0.516
G1 X40.272 Y29.257 Z0.208
G2 X40.291 Y29.221 Z0.207 I-0.874 J-0.486
G1 X40.336 Y29.131 Z0.204
G2 X40.356 Y29.09 Z0.202 I-0.893 J-0.45
G1 X40.397 Y28.999 Z0.198
G2 X40.417 Y28.951 Z0.197 I-0.913 J-0.409
G1 X40.453 Y28.858 Z0.193
G2 X40.47 Y28.809 Z0.191 I-0.932 J-0.361
G1 X40.501 Y28.715 Z0.188
G2 X40.515 Y28.671 Z0.186 I-0.95 J-0.312
G1 X40.541 Y28.575 Z0.183
G2 X40.552 Y28.533 Z0.181 I-0.963 J-0.268
G1 X40.575 Y28.435 Z0.178
G2 X40.583 Y28.397 Z0.176 I-0.974 J-0.227
G1 X40.602 Y28.298 Z0.173
G2 X40.608 Y28.264 Z0.172 I-0.982 J-0.188
G1 X40.623 Y28.164 Z0.168
G2 X40.628 Y28.134 Z0.167 I-0.988 J-0.155
G1 X40.64 Y28.033 Z0.164
G2 X40.643 Y28.007 Z0.163 I-0.992 J-0.125
G1 X40.653 Y27.904 Z0.159
G2 X40.655 Y27.882 Z0.158 I-0.995 J-0.098
G1 X40.663 Y27.779 Z0.155
G2 X40.664 Y27.762 Z0.154 I-0.997 J-0.076
G1 X40.671 Y27.658 Z0.15
G2 Y27.643 I-0.998 J-0.059
G1 X40.676 Y27.539 Z0.146
G2 Y27.529 I-0.999 J-0.044
G1 X40.68 Y27.424 Z0.142
X40.683 Y27.311 Z0.138
X40.685 Y27.204 Z0.135
G2 Y27.167 Z0.133 I-1. J-0.023
G1 Y27.14 Z0.132
Y27.113 Z0.131
X40.684 Y27.081 Z0.13
Y27.052 Z0.129
X40.683 Y27.021 Z0.128
Y26.995 Z0.127
X40.682 Y26.962 Z0.126
X40.681 Y26.876 Z0.123
X40.68 Y26.844 Z0.122
Y26.814 Z0.121
X40.679 Y26.787 Z0.12
X40.678 Y26.755 Z0.119
X40.676 Y26.669 Z0.116
X40.675 Y26.636 Z0.115
X40.674 Y26.609 Z0.114
Y26.583 Z0.113
X40.673 Y26.55 Z0.112
X40.671 Y26.464 Z0.109
G2 X39.937 Y25.528 Z0.064 I-1. J0.028
G1 X39.744 Y25.475 Z0.057
X39.55 Y25.422 Z0.05
X39.534 Y25.417
G2 X40.671 Y24.427 Z-0.01 I0.137 J-0.991
G1 Y23.46 Z-0.044
G2 Y23.449 I-1. J0.
G1 X40.67 Y23.337 Z-0.048
X40.668 Y23.223 Z-0.052
X40.666 Y23.106 Z-0.056
X40.664 Y22.988 Z-0.06
X40.66 Y22.867 Z-0.064
X40.656 Y22.746 Z-0.069
G2 X40.655 Y22.735 I-0.999 J0.038
G1 X40.65 Y22.623 Z-0.073
G2 X40.649 Y22.609 I-0.999 J0.05
G1 X40.642 Y22.497 Z-0.077
G2 X40.641 Y22.483 Z-0.078 I-0.998 J0.063
G1 X40.632 Y22.372 Z-0.082
G2 X40.631 Y22.354 I-0.997 J0.078
G1 X40.62 Y22.242 Z-0.086
G2 X40.618 Y22.224 Z-0.087 I-0.995 J0.096
G1 X40.605 Y22.113 Z-0.091
G2 X40.602 Y22.092 Z-0.092 I-0.993 J0.115
G1 X40.587 Y21.982 Z-0.096
G2 X40.584 Y21.958 I-0.991 J0.136
G1 X40.566 Y21.848 Z-0.1
G2 X40.562 Y21.824 Z-0.101 I-0.987 J0.159
G1 X40.542 Y21.715 Z-0.105
G2 X40.537 Y21.69 Z-0.106 I-0.983 J0.183
G1 X40.513 Y21.581 Z-0.11
G2 X40.508 Y21.559 Z-0.111 I-0.978 J0.208
G1 X40.483 Y21.45 Z-0.114
G2 X40.478 Y21.43 Z-0.115 I-0.973 J0.23
G1 X40.45 Y21.322 Z-0.119
G2 X40.445 Y21.304 Z-0.12 I-0.968 J0.251
G1 X40.415 Y21.197 Z-0.124
G2 X40.411 Y21.182 I-0.963 J0.268
G1 X40.379 Y21.074 Z-0.128
G2 X40.376 Y21.063 I-0.959 J0.283
G1 X40.343 Y20.956 Z-0.132
G2 X40.339 Y20.945 Z-0.133 I-0.956 J0.294
G1 X40.305 Y20.838 Z-0.137
X40.268 Y20.725 Z-0.141
X40.231 Y20.613 Z-0.145
X40.194 Y20.504 Z-0.149
G2 X40.109 Y20.318 Z-0.156 I-0.948 J0.319
G1 X40.054 Y20.225 Z-0.16
X39.998 Y20.128 Z-0.164
X39.939 Y20.031 Z-0.168
X39.878 Y19.931 Z-0.172
G2 X39.871 Y19.92 I-0.853 J0.522
G1 X39.814 Y19.829 Z-0.176
G2 X39.806 Y19.816 Z-0.177 I-0.846 J0.533
G1 X39.747 Y19.727 Z-0.18
G2 X39.737 Y19.711 Z-0.181 I-0.838 J0.546
G1 X39.677 Y19.622 Z-0.185
G2 X39.663 Y19.603 Z-0.186 I-0.827 J0.562
G1 X39.601 Y19.517 Z-0.189
G2 X39.587 Y19.496 Z-0.19 I-0.813 J0.582
X40.881 Y18.674 Z-0.251 I0.301 J-0.956
G1 X40.893 Y18.593 Z-0.254
X40.904 Y18.512 Z-0.257
X40.915 Y18.434 Z-0.26
X40.926 Y18.357 Z-0.262
X40.938 Y18.283 Z-0.265
X40.95 Y18.21 Z-0.268
X40.962 Y18.139 Z-0.27
X40.975 Y18.071 Z-0.272
X40.989 Y18.004 Z-0.275
X41.003 Y17.939 Z-0.277
X41.018 Y17.877 Z-0.279
X41.034 Y17.816 Z-0.282
X41.05 Y17.757 Z-0.284
X41.069 Y17.697 Z-0.286
X41.089 Y17.636 Z-0.288
X41.094 Y17.619 Z-0.289
X41.683 Z-0.309
X41.673 Y17.657 Z-0.311
G2 X41.67 Y17.67 I0.965 J0.263
G1 X41.649 Y17.751 Z-0.314
G2 X41.646 Y17.761 I0.968 J0.25
G1 X41.626 Y17.841 Z-0.317
X41.605 Y17.93 Z-0.321
X41.585 Y18.019 Z-0.324
X41.566 Y18.104 Z-0.327
X41.547 Y18.19 Z-0.33
X41.529 Y18.272 Z-0.333
G2 X41.509 Y18.4 Z-0.337 I0.977 J0.215
G1 X41.492 Y18.593 Z-0.344
X41.475 Y18.787 Z-0.351
X41.459 Y18.982 Z-0.358
X41.443 Y19.178 Z-0.365
X41.427 Y19.375 Z-0.371
X41.413 Y19.573 Z-0.378
X41.399 Y19.773 Z-0.385
X41.387 Y19.973 Z-0.392
X41.376 Y20.173 Z-0.399
X41.366 Y20.375 Z-0.406
X41.358 Y20.576 Z-0.413
X41.351 Y20.776 Z-0.42
X41.346 Y20.976 Z-0.427
X41.342 Y21.175 Z-0.434
X41.338 Y21.374 Z-0.441
X41.336 Y21.572 Z-0.448
X41.334 Y21.771 Z-0.455
X41.333 Y21.968 Z-0.462
Y22.165 Z-0.469
Y22.362 Z-0.476
X41.334 Y22.558 Z-0.483
X41.335 Y22.754 Z-0.49
X41.336 Y22.949 Z-0.496
X41.337 Y23.141 Z-0.503
Y26.653 Z-0.626
Y26.757 Z-0.629
Y26.858 Z-0.633
Y26.958 Z-0.636
Y27.057 Z-0.64
Y27.156 Z-0.643
X41.336 Y27.253 Z-0.647
X41.335 Y27.35 Z-0.65
X41.333 Y27.447 Z-0.653
X41.331 Y27.542 Z-0.657
X41.328 Y27.637 Z-0.66
X41.325 Y27.732 Z-0.663
X41.321 Y27.824 Z-0.667
X41.316 Y27.917 Z-0.67
X41.311 Y28.009 Z-0.673
X41.304 Y28.101 Z-0.676
X41.297 Y28.192 Z-0.679
X41.288 Y28.285 Z-0.683
X41.279 Y28.379 Z-0.686
X41.269 Y28.474 Z-0.689
X41.259 Y28.57 Z-0.693
X41.248 Y28.668 Z-0.696
X41.236 Y28.766 Z-0.7
X41.224 Y28.865 Z-0.703
X41.22 Y28.899 Z-0.704
X41.216 Y28.915 Z-0.705
X41.196 Y28.992 Z-0.708
X41.176 Y29.067 Z-0.71
X41.156 Y29.14 Z-0.713
X41.136 Y29.21 Z-0.716
X41.116 Y29.277 Z-0.718
X41.096 Y29.341 Z-0.72
X41.076 Y29.403 Z-0.723
X41.055 Y29.462 Z-0.725
X41.034 Y29.518 Z-0.727
X41.013 Y29.571 Z-0.729
X40.991 Y29.621 Z-0.731
X40.968 Y29.669 Z-0.733
X40.944 Y29.718 Z-0.735
X40.917 Y29.769 Z-0.737
X40.887 Y29.821 Z-0.739
X40.855 Y29.875 Z-0.741
X40.82 Y29.931 Z-0.743
X40.783 Y29.989 Z-0.746
X40.743 Y30.048 Z-0.748
X40.701 Y30.11 Z-0.751
X40.658 Y30.174 Z-0.753
X40.62 Y30.228 Z-0.756
X40.56 Y30.286 Z-0.759
X40.498 Y30.345 Z-0.762
X40.439 Y30.401 Z-0.764
X40.381 Y30.454 Z-0.767
X40.324 Y30.504 Z-0.77
X40.269 Y30.551 Z-0.772
X40.216 Y30.595 Z-0.775
X40.164 Y30.636 Z-0.777
X40.114 Y30.673 Z-0.779
X40.064 Y30.707 Z-0.781
X40.014 Y30.74 Z-0.783
X39.961 Y30.772 Z-0.786
X39.904 Y30.805 Z-0.788
X39.845 Y30.837 Z-0.79
X39.782 Y30.869 Z-0.793
X39.716 Y30.902 Z-0.795
X39.647 Y30.934 Z-0.798
X39.575 Y30.966 Z-0.801
X39.501 Y30.998 Z-0.804
X39.424 Y31.031 Z-0.806
X39.344 Y31.064 Z-0.809
X39.261 Y31.098 Z-0.813
X39.226 Y31.112 Z-0.814
X39.146 Y31.135 Z-0.817
X39.017 Y31.172 Z-0.822
X38.89 Y31.208 Z-0.826
X38.765 Y31.242 Z-0.831
X38.641 Y31.275 Z-0.835
X38.519 Y31.306 Z-0.84
X38.399 Y31.335 Z-0.844
X38.281 Y31.362 Z-0.848
X38.164 Y31.386 Z-0.852
X38.049 Y31.408 Z-0.856
X37.935 Y31.427 Z-0.86
X37.821 Y31.444 Z-0.864
X37.705 Y31.459 Z-0.868
X37.587 Y31.472 Z-0.873
X37.466 Y31.483 Z-0.877
X37.344 Y31.492 Z-0.881
X37.22 Y31.5 Z-0.885
X37.094 Y31.506 Z-0.89
X36.966 Y31.512 Z-0.894
X36.836 Y31.516 Z-0.899
X36.704 Y31.52 Z-0.903
X36.571 Y31.523 Z-0.908
X36.436 Y31.525 Z-0.913
X36.322 Y31.527 Z-0.917
X36.195 Y31.524 Z-0.921
X36.048 Y31.519 Z-0.926
X35.902 Y31.514 Z-0.932
X35.758 Y31.509 Z-0.937
X35.615 Y31.503 Z-0.942
X35.475 Y31.495 Z-0.946
X35.337 Y31.486 Z-0.951
X35.201 Y31.476 Z-0.956
X35.067 Y31.464 Z-0.961
X34.935 Y31.45 Z-0.965
X34.804 Y31.435 Z-0.97
X34.677 Y31.417 Z-0.974
X34.55 Y31.396 Z-0.979
X34.423 Y31.373 Z-0.983
X34.295 Y31.347 Z-0.988
X34.165 Y31.318 Z-0.993
X34.034 Y31.287 Z-0.997
X33.901 Y31.254 Z-1.002
X33.766 Y31.218 Z-1.007
X33.63 Y31.181 Z-1.012
X33.492 Y31.142 Z-1.017
X33.352 Y31.102 Z-1.022
X33.211 Y31.061 Z-1.027
X33.117 Y31.033 Z-1.031
X33.055 Y31.008 Z-1.033
X32.948 Y30.964 Z-1.037
X32.845 Y30.92 Z-1.041
X32.743 Y30.877 Z-1.045
X32.645 Y30.834 Z-1.048
X32.551 Y30.791 Z-1.052
X32.46 Y30.747 Z-1.056
X32.373 Y30.704 Z-1.059
X32.289 Y30.66 Z-1.062
X32.21 Y30.615 Z-1.066
X32.134 Y30.57 Z-1.069
X32.062 Y30.524 Z-1.072
X31.993 Y30.477 Z-1.074
X31.925 Y30.426 Z-1.077
X31.857 Y30.372 Z-1.08
X31.787 Y30.314 Z-1.084
X31.715 Y30.251 Z-1.087
X31.643 Y30.185 Z-1.09
X31.569 Y30.115 Z-1.094
X31.494 Y30.042 Z-1.098
X31.418 Y29.965 Z-1.101
X31.339 Y29.885 Z-1.105
X31.259 Y29.802 Z-1.109
X31.241 Y29.783 Z-1.11
X31.224 Y29.758 Z-1.111
X31.159 Y29.658 Z-1.115
X31.095 Y29.56 Z-1.12
X31.034 Y29.464 Z-1.124
X30.975 Y29.37 Z-1.127
X30.919 Y29.278 Z-1.131
X30.865 Y29.186 Z-1.135
X30.815 Y29.097 Z-1.138
X30.768 Y29.009 Z-1.142
X30.724 Y28.922 Z-1.145
X30.683 Y28.837 Z-1.149
X30.645 Y28.751 Z-1.152
X30.609 Y28.663 Z-1.155
X30.575 Y28.573 Z-1.159
X31.175 Y28.491 Z-1.18
X31.218 Y28.605 Z-1.184
G2 X31.227 Y28.628 Z-1.185 I0.935 J-0.354
G1 X31.269 Y28.731 Z-1.189
G2 X31.28 Y28.758 Z-1.19 I0.926 J-0.377
G1 X31.325 Y28.86 Z-1.194
G2 X31.338 Y28.888 Z-1.195 I0.915 J-0.403
G1 X31.386 Y28.988 Z-1.199
G2 X31.401 Y29.019 Z-1.2 I0.902 J-0.432
G1 X31.452 Y29.117 Z-1.204
G2 X31.471 Y29.152 Z-1.205 I0.887 J-0.462
G1 X31.526 Y29.248 Z-1.209
G2 X31.547 Y29.282 Z-1.21 I0.868 J-0.497
G1 X31.606 Y29.376 Z-1.214
G2 X31.628 Y29.41 Z-1.216 I0.847 J-0.532
G1 X31.691 Y29.501 Z-1.22
G2 X31.712 Y29.531 Z-1.221 I0.825 J-0.565
G1 X31.778 Y29.62 Z-1.225
G2 X31.797 Y29.646 Z-1.226 I0.804 J-0.595
G1 X31.866 Y29.733 Z-1.23
G2 X31.884 Y29.755 Z-1.231 I0.784 J-0.62
G1 X31.956 Y29.84 Z-1.235
G2 X31.971 Y29.858 I0.767 J-0.642
G1 X32.045 Y29.943 Z-1.239
G2 X32.059 Y29.958 Z-1.24 I0.751 J-0.66
G1 X32.135 Y30.041 Z-1.244
G2 X32.145 Y30.052 I0.738 J-0.674
G1 X32.223 Y30.134 Z-1.248
G2 X32.23 Y30.143 Z-1.249 I0.728 J-0.686
G1 X32.309 Y30.224 Z-1.253
X32.394 Y30.311 Z-1.257
X32.477 Y30.395 Z-1.261
G2 X32.734 Y30.583 Z-1.272 I0.712 J-0.702
G1 X32.841 Y30.638 Z-1.277
X32.951 Y30.694 Z-1.281
X33.066 Y30.751 Z-1.285
G2 X33.076 Y30.756 Z-1.286 I0.445 J-0.895
G1 X33.184 Y30.808 Z-1.29
G2 X33.196 Y30.814 I0.435 J-0.9
G1 X33.304 Y30.864 Z-1.294
G2 X33.321 Y30.872 Z-1.295 I0.423 J-0.906
G1 X33.43 Y30.921 Z-1.299
G2 X33.451 Y30.929 Z-1.3 I0.406 J-0.914
G1 X33.56 Y30.975 Z-1.304
G2 X33.584 Y30.985 Z-1.305 I0.386 J-0.923
G1 X33.694 Y31.028 Z-1.309
G2 X33.722 Y31.038 Z-1.31 I0.362 J-0.932
G1 X33.834 Y31.077 Z-1.314
G2 X33.865 Y31.088 Z-1.316 I0.334 J-0.943
G1 X33.978 Y31.124 Z-1.32
G2 X34.013 Y31.134 Z-1.321 I0.302 J-0.953
G1 X34.126 Y31.166 Z-1.325
G2 X34.163 Y31.175 Z-1.326 I0.267 J-0.964
G1 X34.277 Y31.202 Z-1.331
G2 X34.31 Y31.209 Z-1.332 I0.23 J-0.973
G1 X34.425 Y31.233 Z-1.336
G2 X34.456 Y31.238 Z-1.337 I0.198 J-0.98
G1 X34.573 Y31.258 Z-1.341
G2 X34.6 Y31.262 Z-1.342 I0.167 J-0.986
G1 X34.717 Y31.279 Z-1.346
G2 X34.742 Y31.282 Z-1.347 I0.139 J-0.99
G1 X34.86 Y31.296 Z-1.351
G2 X34.882 Y31.298 Z-1.352 I0.114 J-0.993
G1 X35.001 Y31.309 Z-1.356
G2 X35.02 Y31.31 Z-1.357 I0.092 J-0.996
G1 X35.14 Y31.319 Z-1.361
G2 X35.156 Y31.32 Z-1.362 I0.073 J-0.997
G1 X35.275 Y31.327 Z-1.366
G2 X35.289 Y31.328 I0.057 J-0.998
G1 X35.409 Y31.333 Z-1.37
G2 X35.42 Z-1.371 I0.043 J-0.999
G1 X35.541 Y31.337 Z-1.375
X35.67 Y31.34 Z-1.379
X35.796 Y31.343 Z-1.384
X35.919 Y31.345 Z-1.388
G2 X35.967 Y31.344 Z-1.39 I0.017 J-1.
G1 X36.103 Y31.34 Z-1.395
X36.241 Y31.335 Z-1.399
X36.383 Y31.329 Z-1.404
X36.528 Y31.322 Z-1.409
G2 X36.541 Y31.321 Z-1.41 I-0.051 J-0.999
G1 X36.675 Y31.313 Z-1.415
G2 X36.691 Y31.312 I-0.064 J-0.998
G1 X36.824 Y31.301 Z-1.42
G2 X36.844 Y31.299 Z-1.421 I-0.08 J-0.997
G1 X36.977 Y31.286 Z-1.425
G2 X37. Y31.283 Z-1.426 I-0.1 J-0.995
G1 X37.132 Y31.267 Z-1.431
G2 X37.159 Y31.263 Z-1.432 I-0.123 J-0.992
G1 X37.289 Y31.243 Z-1.436
G2 X37.319 Y31.238 Z-1.437 I-0.15 J-0.989
G1 X37.448 Y31.215 Z-1.442
G2 X37.483 Y31.208 Z-1.443 I-0.179 J-0.984
G1 X37.611 Y31.18 Z-1.448
G2 X37.647 Y31.171 Z-1.449 I-0.214 J-0.977
G1 X37.773 Y31.139 Z-1.454
G2 X37.813 Y31.128 Z-1.455 I-0.25 J-0.968
G1 X37.938 Y31.09 Z-1.46
G2 X37.981 Y31.076 Z-1.461 I-0.289 J-0.957
G1 X38.104 Y31.032 Z-1.466
G2 X38.143 Y31.018 Z-1.467 I-0.333 J-0.943
G1 X38.265 Y30.969 Z-1.472
G2 X38.301 Y30.954 Z-1.473 I-0.371 J-0.928
G1 X38.421 Y30.9 Z-1.478
G2 X38.45 Y30.887 Z-1.479 I-0.407 J-0.913
G1 X38.569 Y30.829 Z-1.483
G2 X38.596 Y30.815 Z-1.484 I-0.437 J-0.9
G1 X38.713 Y30.754 Z-1.489
G2 X38.735 Y30.742 Z-1.49 I-0.464 J-0.886
G1 X38.851 Y30.678 Z-1.495
G2 X38.869 Y30.668 I-0.485 J-0.874
G1 X38.984 Y30.601 Z-1.5
G2 X38.998 Y30.592 Z-1.501 I-0.503 J-0.864
G1 X39.113 Y30.523 Z-1.505
G2 X39.124 Y30.516 Z-1.506 I-0.517 J-0.856
G1 X39.238 Y30.445 Z-1.51
X39.359 Y30.369 Z-1.515
X39.476 Y30.294 Z-1.52
G2 X39.737 Y30.052 Z-1.533 I-0.538 J-0.843
G1 X39.8 Y29.969 Z-1.536
X39.866 Y29.881 Z-1.54
X39.932 Y29.79 Z-1.544
G2 X39.941 Y29.778 Z-1.545 I-0.808 J-0.59
G1 X40. Y29.694 Z-1.548
G2 X40.011 Y29.679 Z-1.549 I-0.817 J-0.577
G1 X40.069 Y29.594 Z-1.552
G2 X40.083 Y29.572 Z-1.553 I-0.827 J-0.562
G1 X40.138 Y29.486 Z-1.557
G2 X40.153 Y29.462 Z-1.558 I-0.841 J-0.541
G1 X40.206 Y29.375 Z-1.561
G2 X40.223 Y29.345 Z-1.563 I-0.856 J-0.516
G1 X40.272 Y29.257 Z-1.566
G2 X40.291 Y29.221 Z-1.568 I-0.874 J-0.486
G1 X40.336 Y29.131 Z-1.571
G2 X40.356 Y29.09 Z-1.573 I-0.893 J-0.45
G1 X40.397 Y28.999 Z-1.576
G2 X40.417 Y28.951 Z-1.578 I-0.913 J-0.409
G1 X40.453 Y28.858 Z-1.581
G2 X40.47 Y28.809 Z-1.583 I-0.932 J-0.361
G1 X40.501 Y28.715 Z-1.587
G2 X40.515 Y28.671 Z-1.588 I-0.95 J-0.312
G1 X40.541 Y28.575 Z-1.592
G2 X40.552 Y28.533 Z-1.593 I-0.963 J-0.268
G1 X40.575 Y28.435 Z-1.597
G2 X40.583 Y28.397 Z-1.598 I-0.974 J-0.227
G1 X40.602 Y28.298 Z-1.602
G2 X40.608 Y28.264 Z-1.603 I-0.982 J-0.188
G1 X40.623 Y28.164 Z-1.606
G2 X40.628 Y28.134 Z-1.608 I-0.988 J-0.155
G1 X40.64 Y28.033 Z-1.611
G2 X40.643 Y28.007 Z-1.612 I-0.992 J-0.125
G1 X40.653 Y27.904 Z-1.616
G2 X40.655 Y27.882 I-0.995 J-0.098
G1 X40.663 Y27.779 Z-1.62
G2 X40.664 Y27.762 Z-1.621 I-0.997 J-0.076
G1 X40.671 Y27.658 Z-1.624
G2 Y27.643 Z-1.625 I-0.998 J-0.059
G1 X40.676 Y27.539 Z-1.628
G2 Y27.529 Z-1.629 I-0.999 J-0.044
G1 X40.68 Y27.424 Z-1.632
X40.683 Y27.311 Z-1.636
X40.685 Y27.204 Z-1.64
G2 Y27.167 Z-1.641 I-1. J-0.023
G1 Y27.14 Z-1.642
Y27.113 Z-1.643
X40.684 Y27.081 Z-1.644
Y27.052 Z-1.645
X40.683 Y27.021 Z-1.646
Y26.995 Z-1.647
X40.682 Y26.962 Z-1.649
X40.681 Y26.876 Z-1.652
X40.68 Y26.844 Z-1.653
Y26.814 Z-1.654
X40.679 Y26.787 Z-1.655
X40.678 Y26.755 Z-1.656
X40.676 Y26.669 Z-1.659
X40.675 Y26.636 Z-1.66
X40.674 Y26.609 Z-1.661
Y26.583 Z-1.662
X40.673 Y26.55 Z-1.663
X40.671 Y26.464 Z-1.666
G2 X39.937 Y25.528 Z-1.71 I-1. J0.028
G1 X39.744 Y25.475 Z-1.717
X39.55 Y25.422 Z-1.724
X39.534 Y25.417 Z-1.725
G2 X40.671 Y24.427 Z-1.785 I0.137 J-0.991
G1 Y23.46 Z-1.818
G2 Y23.449 Z-1.819 I-1. J0.
G1 X40.67 Y23.337 Z-1.823
X40.668 Y23.223 Z-1.827
X40.666 Y23.106 Z-1.831
X40.664 Y22.988 Z-1.835
X40.66 Y22.867 Z-1.839
X40.656 Y22.746 Z-1.843
G2 X40.655 Y22.735 Z-1.844 I-0.999 J0.038
G1 X40.65 Y22.623 Z-1.848
G2 X40.649 Y22.609 I-0.999 J0.05
G1 X40.642 Y22.497 Z-1.852
G2 X40.641 Y22.483 Z-1.853 I-0.998 J0.063
G1 X40.632 Y22.372 Z-1.856
G2 X40.631 Y22.354 Z-1.857 I-0.997 J0.078
G1 X40.62 Y22.242 Z-1.861
G2 X40.618 Y22.224 Z-1.862 I-0.995 J0.096
G1 X40.605 Y22.113 Z-1.866
G2 X40.602 Y22.092 I-0.993 J0.115
G1 X40.587 Y21.982 Z-1.87
G2 X40.584 Y21.958 Z-1.871 I-0.991 J0.136
G1 X40.566 Y21.848 Z-1.875
G2 X40.562 Y21.824 Z-1.876 I-0.987 J0.159
G1 X40.542 Y21.715 Z-1.88
G2 X40.537 Y21.69 I-0.983 J0.183
G1 X40.513 Y21.581 Z-1.884
G2 X40.508 Y21.559 Z-1.885 I-0.978 J0.208
G1 X40.483 Y21.45 Z-1.889
G2 X40.478 Y21.43 Z-1.89 I-0.973 J0.23
G1 X40.45 Y21.322 Z-1.894
G2 X40.445 Y21.304 I-0.968 J0.251
G1 X40.415 Y21.197 Z-1.898
G2 X40.411 Y21.182 Z-1.899 I-0.963 J0.268
G1 X40.379 Y21.074 Z-1.903
G2 X40.376 Y21.063 I-0.959 J0.283
G1 X40.343 Y20.956 Z-1.907
G2 X40.339 Y20.945 I-0.956 J0.294
G1 X40.305 Y20.838 Z-1.911
X40.268 Y20.725 Z-1.915
X40.231 Y20.613 Z-1.92
X40.194 Y20.504 Z-1.924
G2 X40.109 Y20.318 Z-1.931 I-0.948 J0.319
G1 X40.054 Y20.225 Z-1.935
X39.998 Y20.128 Z-1.938
X39.939 Y20.031 Z-1.942
X39.878 Y19.931 Z-1.946
G2 X39.871 Y19.92 Z-1.947 I-0.853 J0.522
G1 X39.814 Y19.829 Z-1.951
G2 X39.806 Y19.816 I-0.846 J0.533
G1 X39.747 Y19.727 Z-1.955
G2 X39.737 Y19.711 Z-1.956 I-0.838 J0.546
G1 X39.677 Y19.622 Z-1.959
G2 X39.663 Y19.603 Z-1.96 I-0.827 J0.562
G1 X39.601 Y19.517 Z-1.964
G2 X39.587 Y19.496 Z-1.965 I-0.813 J0.582
X40.534 Y19.306 Z-2. I0.301 J-0.956
X40.881 Y18.674 I-0.646 J-0.767 F400.
G1 X40.893 Y18.593
X40.904 Y18.512
X40.915 Y18.434
X40.926 Y18.357
X40.938 Y18.283
X40.95 Y18.21
X40.962 Y18.139
X40.975 Y18.071
X40.989 Y18.004
X41.003 Y17.939
X41.018 Y17.877
X41.034 Y17.816
X41.05 Y17.757
X41.069 Y17.697
X41.089 Y17.636
X41.094 Y17.619
X41.683
X41.673 Y17.657
G2 X41.67 Y17.67 I0.965 J0.263
G1 X41.649 Y17.751
G2 X41.646 Y17.761 I0.968 J0.25
G1 X41.626 Y17.841
X41.605 Y17.93
X41.585 Y18.019
X41.566 Y18.104
X41.547 Y18.19
X41.529 Y18.272
G2 X41.509 Y18.4 I0.977 J0.215
G1 X41.492 Y18.593
X41.475 Y18.787
X41.459 Y18.982
X41.443 Y19.178
X41.427 Y19.375
X41.413 Y19.573
X41.399 Y19.773
X41.387 Y19.973
X41.376 Y20.173
X41.366 Y20.375
X41.358 Y20.576
X41.351 Y20.776
X41.346 Y20.976
X41.342 Y21.175
X41.338 Y21.374
X41.336 Y21.572
X41.334 Y21.771
X41.333 Y21.968
Y22.165
Y22.362
X41.334 Y22.558
X41.335 Y22.754
X41.336 Y22.949
X41.337 Y23.141
Y26.653
Y26.757
Y26.858
Y26.958
Y27.057
Y27.156
X41.336 Y27.253
X41.335 Y27.35
X41.333 Y27.447
X41.331 Y27.542
X41.328 Y27.637
X41.325 Y27.732
X41.321 Y27.824
X41.316 Y27.917
X41.311 Y28.009
X41.304 Y28.101
X41.297 Y28.192
X41.288 Y28.285
X41.279 Y28.379
X41.269 Y28.474
X41.259 Y28.57
X41.248 Y28.668
X41.236 Y28.766
X41.224 Y28.865
X41.22 Y28.899
X41.216 Y28.915
X41.196 Y28.992
X41.176 Y29.067
X41.156 Y29.14
X41.136 Y29.21
X41.116 Y29.277
X41.096 Y29.341
X41.076 Y29.403
X41.055 Y29.462
X41.034 Y29.518
X41.013 Y29.571
X40.991 Y29.621
X40.968 Y29.669
X40.944 Y29.718
X40.917 Y29.769
X40.887 Y29.821
X40.855 Y29.875
X40.82 Y29.931
X40.783 Y29.989
X40.743 Y30.048
X40.701 Y30.11
X40.658 Y30.174
X40.62 Y30.228
X40.56 Y30.286
X40.498 Y30.345
X40.439 Y30.401
X40.381 Y30.454
X40.324 Y30.504
X40.269 Y30.551
X40.216 Y30.595
X40.164 Y30.636
X40.114 Y30.673
X40.064 Y30.707
X40.014 Y30.74
X39.961 Y30.772
X39.904 Y30.805
X39.845 Y30.837
X39.782 Y30.869
X39.716 Y30.902
X39.647 Y30.934
X39.575 Y30.966
X39.501 Y30.998
X39.424 Y31.031
X39.344 Y31.064
X39.261 Y31.098
X39.226 Y31.112
X39.146 Y31.135
X39.017 Y31.172
X38.89 Y31.208
X38.765 Y31.242
X38.641 Y31.275
X38.519 Y31.306
X38.399 Y31.335
X38.281 Y31.362
X38.164 Y31.386
X38.049 Y31.408
X37.935 Y31.427
X37.821 Y31.444
X37.705 Y31.459
X37.587 Y31.472
X37.466 Y31.483
X37.344 Y31.492
X37.22 Y31.5
X37.094 Y31.506
X36.966 Y31.512
X36.836 Y31.516
X36.704 Y31.52
X36.571 Y31.523
X36.436 Y31.525
X36.322 Y31.527
X36.195 Y31.524
X36.048 Y31.519
X35.902 Y31.514
X35.758 Y31.509
X35.615 Y31.503
X35.475 Y31.495
X35.337 Y31.486
X35.201 Y31.476
X35.067 Y31.464
X34.935 Y31.45
X34.804 Y31.435
X34.677 Y31.417
X34.55 Y31.396
X34.423 Y31.373
X34.295 Y31.347
X34.165 Y31.318
X34.034 Y31.287
X33.901 Y31.254
X33.766 Y31.218
X33.63 Y31.181
X33.492 Y31.142
X33.352 Y31.102
X33.211 Y31.061
X33.117 Y31.033
X33.055 Y31.008
X32.948 Y30.964
X32.845 Y30.92
X32.743 Y30.877
X32.645 Y30.834
X32.551 Y30.791
X32.46 Y30.747
X32.373 Y30.704
X32.289 Y30.66
X32.21 Y30.615
X32.134 Y30.57
X32.062 Y30.524
X31.993 Y30.477
X31.925 Y30.426
X31.857 Y30.372
X31.787 Y30.314
X31.715 Y30.251
X31.643 Y30.185
X31.569 Y30.115
X31.494 Y30.042
X31.418 Y29.965
X31.339 Y29.885
X31.259 Y29.802
X31.241 Y29.783
X31.224 Y29.758
X31.159 Y29.658
X31.095 Y29.56
X31.034 Y29.464
X30.975 Y29.37
X30.919 Y29.278
X30.865 Y29.186
X30.815 Y29.097
X30.768 Y29.009
X30.724 Y28.922
X30.683 Y28.837
X30.645 Y28.751
X30.609 Y28.663
X30.575 Y28.573
X31.175 Y28.491
X31.218 Y28.605
G2 X31.227 Y28.628 I0.935 J-0.354
G1 X31.269 Y28.731
G2 X31.28 Y28.758 I0.926 J-0.377
G1 X31.325 Y28.86
G2 X31.338 Y28.888 I0.915 J-0.403
G1 X31.386 Y28.988
G2 X31.401 Y29.019 I0.902 J-0.432
G1 X31.452 Y29.117
G2 X31.471 Y29.152 I0.887 J-0.462
G1 X31.526 Y29.248
G2 X31.547 Y29.282 I0.868 J-0.497
G1 X31.606 Y29.376
G2 X31.628 Y29.41 I0.847 J-0.532
G1 X31.691 Y29.501
G2 X31.712 Y29.531 I0.825 J-0.565
G1 X31.778 Y29.62
G2 X31.797 Y29.646 I0.804 J-0.595
G1 X31.866 Y29.733
G2 X31.884 Y29.755 I0.784 J-0.62
G1 X31.956 Y29.84
G2 X31.971 Y29.858 I0.767 J-0.642
G1 X32.045 Y29.943
G2 X32.059 Y29.958 I0.751 J-0.66
G1 X32.135 Y30.041
G2 X32.145 Y30.052 I0.738 J-0.674
G1 X32.223 Y30.134
G2 X32.23 Y30.143 I0.728 J-0.686
G1 X32.309 Y30.224
X32.394 Y30.311
X32.477 Y30.395
G2 X32.734 Y30.583 I0.712 J-0.702
G1 X32.841 Y30.638
X32.951 Y30.694
X33.066 Y30.751
G2 X33.076 Y30.756 I0.445 J-0.895
G1 X33.184 Y30.808
G2 X33.196 Y30.814 I0.435 J-0.9
G1 X33.304 Y30.864
G2 X33.321 Y30.872 I0.423 J-0.906
G1 X33.43 Y30.921
G2 X33.451 Y30.929 I0.406 J-0.914
G1 X33.56 Y30.975
G2 X33.584 Y30.985 I0.386 J-0.923
G1 X33.694 Y31.028
G2 X33.722 Y31.038 I0.362 J-0.932
G1 X33.834 Y31.077
G2 X33.865 Y31.088 I0.334 J-0.943
G1 X33.978 Y31.124
G2 X34.013 Y31.134 I0.302 J-0.953
G1 X34.126 Y31.166
G2 X34.163 Y31.175 I0.267 J-0.964
G1 X34.277 Y31.202
G2 X34.31 Y31.209 I0.23 J-0.973
G1 X34.425 Y31.233
G2 X34.456 Y31.238 I0.198 J-0.98
G1 X34.573 Y31.258
G2 X34.6 Y31.262 I0.167 J-0.986
G1 X34.717 Y31.279
G2 X34.742 Y31.282 I0.139 J-0.99
G1 X34.86 Y31.296
G2 X34.882 Y31.298 I0.114 J-0.993
G1 X35.001 Y31.309
G2 X35.02 Y31.31 I0.092 J-0.996
G1 X35.14 Y31.319
G2 X35.156 Y31.32 I0.073 J-0.997
G1 X35.275 Y31.327
G2 X35.289 Y31.328 I0.057 J-0.998
G1 X35.409 Y31.333
G2 X35.42 I0.043 J-0.999
G1 X35.541 Y31.337
X35.67 Y31.34
X35.796 Y31.343
X35.919 Y31.345
G2 X35.967 Y31.344 I0.017 J-1.
G1 X36.103 Y31.34
X36.241 Y31.335
X36.383 Y31.329
X36.528 Y31.322
G2 X36.541 Y31.321 I-0.051 J-0.999
G1 X36.675 Y31.313
G2 X36.691 Y31.312 I-0.064 J-0.998
G1 X36.824 Y31.301
G2 X36.844 Y31.299 I-0.08 J-0.997
G1 X36.977 Y31.286
G2 X37. Y31.283 I-0.1 J-0.995
G1 X37.132 Y31.267
G2 X37.159 Y31.263 I-0.123 J-0.992
G1 X37.289 Y31.243
G2 X37.319 Y31.238 I-0.15 J-0.989
G1 X37.448 Y31.215
G2 X37.483 Y31.208 I-0.179 J-0.984
G1 X37.611 Y31.18
G2 X37.647 Y31.171 I-0.214 J-0.977
G1 X37.773 Y31.139
G2 X37.813 Y31.128 I-0.25 J-0.968
G1 X37.938 Y31.09
G2 X37.981 Y31.076 I-0.289 J-0.957
G1 X38.104 Y31.032
G2 X38.143 Y31.018 I-0.333 J-0.943
G1 X38.265 Y30.969
G2 X38.301 Y30.954 I-0.371 J-0.928
G1 X38.421 Y30.9
G2 X38.45 Y30.887 I-0.407 J-0.913
G1 X38.569 Y30.829
G2 X38.596 Y30.815 I-0.437 J-0.9
G1 X38.713 Y30.754
G2 X38.735 Y30.742 I-0.464 J-0.886
G1 X38.851 Y30.678
G2 X38.869 Y30.668 I-0.485 J-0.874
G1 X38.984 Y30.601
G2 X38.998 Y30.592 I-0.503 J-0.864
G1 X39.113 Y30.523
G2 X39.124 Y30.516 I-0.517 J-0.856
G1 X39.238 Y30.445
X39.359 Y30.369
X39.476 Y30.294
G2 X39.737 Y30.052 I-0.538 J-0.843
G1 X39.8 Y29.969
X39.866 Y29.881
X39.932 Y29.79
G2 X39.941 Y29.778 I-0.808 J-0.59
G1 X40. Y29.694
G2 X40.011 Y29.679 I-0.817 J-0.577
G1 X40.069 Y29.594
G2 X40.083 Y29.572 I-0.827 J-0.562
G1 X40.138 Y29.486
G2 X40.153 Y29.462 I-0.841 J-0.541
G1 X40.206 Y29.375
G2 X40.223 Y29.345 I-0.856 J-0.516
G1 X40.272 Y29.257
G2 X40.291 Y29.221 I-0.874 J-0.486
G1 X40.336 Y29.131
G2 X40.356 Y29.09 I-0.893 J-0.45
G1 X40.397 Y28.999
G2 X40.417 Y28.951 I-0.913 J-0.409
G1 X40.453 Y28.858
G2 X40.47 Y28.809 I-0.932 J-0.361
G1 X40.501 Y28.715
G2 X40.515 Y28.671 I-0.95 J-0.312
G1 X40.541 Y28.575
G2 X40.552 Y28.533 I-0.963 J-0.268
G1 X40.575 Y28.435
G2 X40.583 Y28.397 I-0.974 J-0.227
G1 X40.602 Y28.298
G2 X40.608 Y28.264 I-0.982 J-0.188
G1 X40.623 Y28.164
G2 X40.628 Y28.134 I-0.988 J-0.155
G1 X40.64 Y28.033
G2 X40.643 Y28.007 I-0.992 J-0.125
G1 X40.653 Y27.904
G2 X40.655 Y27.882 I-0.995 J-0.098
G1 X40.663 Y27.779
G2 X40.664 Y27.762 I-0.997 J-0.076
G1 X40.671 Y27.658
G2 Y27.643 I-0.998 J-0.059
G1 X40.676 Y27.539
G2 Y27.529 I-0.999 J-0.044
G1 X40.68 Y27.424
X40.683 Y27.311
X40.685 Y27.204
G2 Y27.167 I-1. J-0.023
G1 Y27.14
Y27.113
X40.684 Y27.081
Y27.052
X40.683 Y27.021
Y26.995
X40.682 Y26.962
Y26.934
X40.681 Y26.876
X40.68 Y26.844
Y26.814
X40.679 Y26.787
X40.678 Y26.755
X40.676 Y26.669
X40.675 Y26.636
X40.674 Y26.609
Y26.583
X40.673 Y26.55
X40.671 Y26.464
G2 X39.937 Y25.528 I-1. J0.028
G1 X39.744 Y25.475
X39.55 Y25.422
X39.534 Y25.417
G2 X40.671 Y24.427 I0.137 J-0.991
G1 Y23.46
G2 Y23.449 I-1. J0.
G1 X40.67 Y23.337
X40.668 Y23.223
X40.666 Y23.106
X40.664 Y22.988
X40.66 Y22.867
X40.656 Y22.746
G2 X40.655 Y22.735 I-0.999 J0.038
G1 X40.65 Y22.623
G2 X40.649 Y22.609 I-0.999 J0.05
G1 X40.642 Y22.497
G2 X40.641 Y22.483 I-0.998 J0.063
G1 X40.632 Y22.372
G2 X40.631 Y22.354 I-0.997 J0.078
G1 X40.62 Y22.242
G2 X40.618 Y22.224 I-0.995 J0.096
G1 X40.605 Y22.113
G2 X40.602 Y22.092 I-0.993 J0.115
G1 X40.587 Y21.982
G2 X40.584 Y21.958 I-0.991 J0.136
G1 X40.566 Y21.848
G2 X40.562 Y21.824 I-0.987 J0.159
G1 X40.542 Y21.715
G2 X40.537 Y21.69 I-0.983 J0.183
G1 X40.513 Y21.581
G2 X40.508 Y21.559 I-0.978 J0.208
G1 X40.483 Y21.45
G2 X40.478 Y21.43 I-0.973 J0.23
G1 X40.45 Y21.322
G2 X40.445 Y21.304 I-0.968 J0.251
G1 X40.415 Y21.197
G2 X40.411 Y21.182 I-0.963 J0.268
G1 X40.379 Y21.074
G2 X40.376 Y21.063 I-0.959 J0.283
G1 X40.343 Y20.956
G2 X40.339 Y20.945 I-0.956 J0.294
G1 X40.305 Y20.838
X40.268 Y20.725
X40.231 Y20.613
X40.194 Y20.504
G2 X40.109 Y20.318 I-0.948 J0.319
G1 X40.054 Y20.225
X39.998 Y20.128
X39.939 Y20.031
X39.878 Y19.931
G2 X39.871 Y19.92 I-0.853 J0.522
G1 X39.814 Y19.829
G2 X39.806 Y19.816 I-0.846 J0.533
G1 X39.747 Y19.727
G2 X39.737 Y19.711 I-0.838 J0.546
G1 X39.677 Y19.622
G2 X39.663 Y19.603 I-0.827 J0.562
G1 X39.601 Y19.517
G2 X39.587 Y19.496 I-0.813 J0.582
X40.534 Y19.306 I0.301 J-0.956
G1 X40.778 Y19.598 Z-1.962
G0 Z6.
X32.15 Y23.542
Z2.5
G1 X32.186 Y23.565 Z2.499 F333.
G2 X32.204 Y23.576 Z2.498 I0.525 J-0.851
G1 X32.253 Y23.604 Z2.496
G2 X32.268 Y23.613 Z2.495 I0.507 J-0.862
G1 X32.318 Y23.641 Z2.493
G2 X32.332 Y23.649 I0.492 J-0.87
G1 X32.382 Y23.676 Z2.491
G2 X32.393 Y23.682 Z2.49 I0.478 J-0.878
G1 X32.444 Y23.709 Z2.488
X32.501 Y23.738 Z2.486
X32.558 Y23.768 Z2.484
X32.611 Y23.795 Z2.482
G2 X32.75 Y23.853 Z2.476 I0.453 J-0.891
G1 X32.844 Y23.884 Z2.473
X32.939 Y23.915 Z2.469
X33.035 Y23.946 Z2.466
X33.134 Y23.978 Z2.462
X33.233 Y24.009 Z2.459
X33.335 Y24.041 Z2.455
X33.438 Y24.071 Z2.451
X33.542 Y24.101 Z2.447
G2 X33.555 Y24.105 I0.274 J-0.962
G1 X33.65 Y24.13 Z2.443
G2 X33.663 Y24.134 I0.261 J-0.965
G1 X33.758 Y24.158 Z2.44
G2 X33.773 Y24.162 Z2.439 I0.248 J-0.969
G1 X33.868 Y24.185 Z2.436
G2 X33.88 Y24.187 Z2.435 I0.234 J-0.972
G1 X33.976 Y24.209 Z2.432
G2 X33.989 Y24.212 Z2.431 I0.222 J-0.975
G1 X34.085 Y24.233 Z2.428
G2 X34.097 Y24.235 Z2.427 I0.209 J-0.978
G1 X34.193 Y24.254 Z2.424
X34.299 Y24.275 Z2.42
X34.406 Y24.294 Z2.416
X34.511 Y24.312 Z2.413
X34.615 Y24.33 Z2.409
X34.719 Y24.346 Z2.405
X34.821 Y24.362 Z2.402
X34.923 Y24.377 Z2.398
X35.023 Y24.392 Z2.395
X35.124 Y24.406 Z2.391
X35.221 Y24.42 Z2.388
X35.401 Y24.447 Z2.381
X35.582 Y24.474 Z2.375
X35.763 Y24.501 Z2.369
X35.942 Y24.528 Z2.362
X36.12 Y24.556 Z2.356
X36.296 Y24.585 Z2.35
X36.472 Y24.615 Z2.343
X36.646 Y24.646 Z2.337
X36.819 Y24.678 Z2.331
X36.99 Y24.711 Z2.325
X37.16 Y24.746 Z2.319
X37.328 Y24.783 Z2.313
X37.495 Y24.821 Z2.307
X37.661 Y24.862 Z2.301
X37.826 Y24.905 Z2.295
X37.992 Y24.95 Z2.289
X38.159 Y24.998 Z2.283
X38.328 Y25.047 Z2.277
X38.497 Y25.099 Z2.271
X38.667 Y25.152 Z2.264
X38.838 Y25.207 Z2.258
X39.011 Y25.263 Z2.252
X39.184 Y25.319 Z2.245
X39.24 Y25.338 Z2.243
X39.158 Y25.316 Z2.24
X38.96 Y25.264 Z2.233
X38.761 Y25.213 Z2.226
X38.559 Y25.163 Z2.219
X38.357 Y25.114 Z2.212
G2 X38.347 Y25.112 Z2.211 I-0.232 J0.973
G1 X38.152 Y25.067 Z2.204
G2 X38.141 Y25.065 I-0.222 J0.975
G1 X37.946 Y25.023 Z2.197
G2 X37.935 Y25.02 I-0.212 J0.977
G1 X37.739 Y24.98 Z2.19
G2 X37.728 Y24.978 Z2.189 I-0.2 J0.98
G1 X37.532 Y24.941 Z2.182
G2 X37.521 Y24.939 I-0.188 J0.982
G1 X37.325 Y24.903 Z2.175
G2 X37.315 Y24.901 Z2.174 I-0.178 J0.984
G1 X37.118 Y24.868 Z2.168
X36.913 Y24.834 Z2.16
X36.707 Y24.803 Z2.153
X36.503 Y24.773 Z2.146
X36.298 Y24.744 Z2.139
X36.095 Y24.717 Z2.131
X35.892 Y24.69 Z2.124
X35.69 Y24.665 Z2.117
X35.489 Y24.64 Z2.11
X35.289 Y24.615 Z2.103
X35.09 Y24.591 Z2.096
X34.993 Y24.579 Z2.093
X34.895 Y24.567 Z2.089
X34.798 Y24.555 Z2.086
X34.702 Y24.543 Z2.082
X34.606 Y24.531 Z2.079
X34.511 Y24.518 Z2.076
X34.417 Y24.505 Z2.072
X34.322 Y24.492 Z2.069
X34.229 Y24.479 Z2.066
X34.136 Y24.465 Z2.062
X34.044 Y24.451 Z2.059
X33.953 Y24.436 Z2.056
X33.862 Y24.421 Z2.053
X33.772 Y24.405 Z2.05
X33.682 Y24.388 Z2.046
X33.591 Y24.371 Z2.043
X33.5 Y24.353 Z2.04
X33.408 Y24.334 Z2.037
X33.315 Y24.315 Z2.033
X33.222 Y24.295 Z2.03
X33.127 Y24.275 Z2.027
X33.032 Y24.254 Z2.023
X32.884 Y24.222 Z2.018
X32.844 Y24.209 Z2.016
X32.763 Y24.183 Z2.013
X32.684 Y24.158 Z2.011
X32.606 Y24.132 Z2.008
X32.53 Y24.107 Z2.005
X32.456 Y24.081 Z2.002
X32.384 Y24.056 Z1.999
X32.315 Y24.03 Z1.997
X32.246 Y24.004 Z1.994
X32.18 Y23.978 Z1.992
X32.116 Y23.951 Z1.989
X32.054 Y23.923 Z1.987
X31.993 Y23.895 Z1.985
X31.932 Y23.865 Z1.982
X31.869 Y23.833 Z1.98
X31.805 Y23.799 Z1.977
X31.74 Y23.763 Z1.975
X31.674 Y23.726 Z1.972
X31.607 Y23.687 Z1.969
X31.538 Y23.646 Z1.967
X31.468 Y23.605 Z1.964
X31.397 Y23.562 Z1.961
X31.325 Y23.517 Z1.958
X31.297 Y23.5 Z1.957
X31.274 Y23.482 Z1.956
X31.209 Y23.432 Z1.953
X31.146 Y23.382 Z1.95
X31.085 Y23.333 Z1.947
X31.028 Y23.286 Z1.945
X30.973 Y23.24 Z1.942
X30.92 Y23.195 Z1.94
X30.87 Y23.15 Z1.937
X30.824 Y23.107 Z1.935
X30.78 Y23.064 Z1.933
X30.739 Y23.023 Z1.931
X30.701 Y22.981 Z1.929
X30.664 Y22.938 Z1.927
X30.626 Y22.892 Z1.925
X30.588 Y22.843 Z1.923
X30.549 Y22.792 Z1.921
X30.51 Y22.737 Z1.918
X30.47 Y22.68 Z1.916
X30.43 Y22.62 Z1.913
X30.389 Y22.557 Z1.911
X30.347 Y22.491 Z1.908
X30.304 Y22.424 Z1.905
X30.261 Y22.354 Z1.902
X30.247 Y22.332 Z1.901
X30.235 Y22.305 Z1.9
X30.198 Y22.226 Z1.897
X30.163 Y22.149 Z1.894
X30.13 Y22.074 Z1.892
X30.098 Y22.002 Z1.889
X30.069 Y21.932 Z1.886
X30.042 Y21.864 Z1.884
X30.017 Y21.798 Z1.881
X29.995 Y21.735 Z1.879
X29.975 Y21.674 Z1.877
X29.958 Y21.615 Z1.874
X29.943 Y21.558 Z1.872
X29.929 Y21.5 Z1.87
X29.917 Y21.439 Z1.868
X29.906 Y21.375 Z1.866
X29.896 Y21.308 Z1.863
X29.887 Y21.238 Z1.861
X29.879 Y21.165 Z1.858
X29.872 Y21.088 Z1.856
X29.865 Y21.009 Z1.853
X29.859 Y20.928 Z1.85
X29.854 Y20.843 Z1.847
X29.849 Y20.755 Z1.844
X29.848 Y20.738 Z1.843
X29.855 Y20.659 Z1.841
X29.869 Y20.513 Z1.836
X29.883 Y20.371 Z1.831
X29.898 Y20.235 Z1.826
X29.916 Y20.104 Z1.821
X29.935 Y19.979 Z1.817
X29.956 Y19.86 Z1.813
X29.98 Y19.747 Z1.809
X30.006 Y19.64 Z1.805
X30.035 Y19.54 Z1.801
X30.067 Y19.447 Z1.798
X30.101 Y19.36 Z1.794
X30.139 Y19.276 Z1.791
X30.184 Y19.19 Z1.788
X30.236 Y19.102 Z1.784
X30.294 Y19.01 Z1.78
X30.36 Y18.916 Z1.776
X30.431 Y18.819 Z1.772
X30.508 Y18.72 Z1.768
X30.592 Y18.619 Z1.763
X30.68 Y18.514 Z1.758
X30.773 Y18.407 Z1.753
X30.869 Y18.297 Z1.748
X30.886 Y18.279
X30.928 Y18.251 Z1.746
X31.071 Y18.155 Z1.74
X31.211 Y18.063 Z1.734
X31.349 Y17.975 Z1.728
X31.484 Y17.892 Z1.723
X31.616 Y17.814 Z1.717
X31.745 Y17.743 Z1.712
X31.872 Y17.677 Z1.707
X31.996 Y17.618 Z1.702
X32.117 Y17.566 Z1.698
X32.237 Y17.521 Z1.693
X32.358 Y17.482 Z1.689
X32.484 Y17.446 Z1.684
X32.616 Y17.415 Z1.68
X32.753 Y17.388 Z1.675
X32.895 Y17.364 Z1.67
X33.043 Y17.344 Z1.664
X33.196 Y17.327 Z1.659
X33.353 Y17.312 Z1.653
X33.515 Y17.3 Z1.648
X33.681 Y17.29 Z1.642
X33.852 Y17.282 Z1.636
X34.026 Y17.274 Z1.63
X34.164 Y17.268 Z1.625
X34.247 Y17.272 Z1.622
X34.368 Y17.277 Z1.618
X34.487 Y17.282 Z1.614
X34.605 Y17.288 Z1.61
X34.72 Y17.295 Z1.606
X34.834 Y17.302 Z1.602
X34.945 Y17.311 Z1.598
X35.054 Y17.321 Z1.594
X35.161 Y17.332 Z1.59
X35.265 Y17.345 Z1.587
X35.368 Y17.36 Z1.583
X35.423 Y17.369 Z1.581
X35.341 Y17.363 Z1.578
X35.214 Y17.354 Z1.574
X35.087 Y17.347 Z1.569
X34.964 Y17.34 Z1.565
X34.844 Y17.334 Z1.561
G2 X34.759 Z1.558 I-0.051 J0.999
G1 X34.653 Y17.337 Z1.554
X34.544 Y17.341 Z1.55
X34.433 Y17.346 Z1.546
X34.318 Y17.352 Z1.542
G2 X34.306 Y17.353 I0.053 J0.999
G1 X34.201 Y17.36 Z1.538
G2 X34.184 Y17.361 I0.066 J0.998
G1 X34.08 Y17.37 Z1.534
G2 X34.061 Y17.372 Z1.533 I0.083 J0.997
G1 X33.958 Y17.382 Z1.53
G2 X33.933 Y17.385 Z1.529 I0.102 J0.995
G1 X33.831 Y17.398 Z1.525
G2 X33.805 Y17.402 Z1.524 I0.127 J0.992
G1 X33.703 Y17.418 Z1.521
G2 X33.673 Y17.423 Z1.52 I0.153 J0.988
G1 X33.572 Y17.441 Z1.516
G2 X33.538 Y17.448 Z1.515 I0.182 J0.983
G1 X33.438 Y17.47 Z1.511
G2 X33.402 Y17.479 Z1.51 I0.217 J0.976
G1 X33.303 Y17.505 Z1.506
G2 X33.263 Y17.516 Z1.505 I0.253 J0.967
G1 X33.166 Y17.546 Z1.501
G2 X33.123 Y17.56 Z1.5 I0.293 J0.956
G1 X33.027 Y17.595 Z1.496
G2 X32.989 Y17.609 Z1.495 I0.336 J0.942
G1 X32.894 Y17.647 Z1.491
G2 X32.859 Y17.663 Z1.49 I0.375 J0.927
G1 X32.765 Y17.705 Z1.486
G2 X32.736 Y17.719 Z1.485 I0.41 J0.912
G1 X32.643 Y17.764 Z1.482
G2 X32.617 Y17.777 Z1.481 I0.44 J0.898
G1 X32.525 Y17.826 Z1.477
G2 X32.504 Y17.837 Z1.476 I0.467 J0.884
G1 X32.414 Y17.888 Z1.473
G2 X32.396 Y17.898 Z1.472 I0.488 J0.873
G1 X32.307 Y17.95 Z1.468
G2 X32.293 Y17.959 I0.505 J0.863
G1 X32.203 Y18.013 Z1.464
G2 X32.193 Y18.019 I0.519 J0.855
G1 X32.104 Y18.075 Z1.46
X32.008 Y18.136 Z1.456
X31.916 Y18.195 Z1.452
G2 X31.726 Y18.353 Z1.443 I0.54 J0.842
G1 X31.668 Y18.415 Z1.441
X31.608 Y18.48 Z1.437
X31.545 Y18.549 Z1.434
G2 X31.536 Y18.558 I0.739 J0.674
G1 X31.48 Y18.621 Z1.431
G2 X31.469 Y18.634 Z1.43 I0.747 J0.664
G1 X31.415 Y18.698 Z1.427
G2 X31.4 Y18.715 Z1.426 I0.759 J0.651
G1 X31.348 Y18.779 Z1.424
G2 X31.331 Y18.8 Z1.423 I0.773 J0.635
G1 X31.28 Y18.865 Z1.42
G2 X31.262 Y18.89 Z1.419 I0.789 J0.614
G1 X31.213 Y18.956 Z1.416
G2 X31.192 Y18.987 Z1.415 I0.808 J0.589
G1 X31.146 Y19.054 Z1.412
G2 X31.125 Y19.088 Z1.41 I0.829 J0.559
G1 X31.082 Y19.157 Z1.407
G2 X31.058 Y19.199 Z1.406 I0.851 J0.525
G1 X31.019 Y19.269 Z1.403
G2 X30.996 Y19.313 Z1.401 I0.875 J0.484
G1 X30.961 Y19.385 Z1.398
G2 X30.937 Y19.437 Z1.396 I0.898 J0.44
G1 X30.906 Y19.511 Z1.394
G2 X30.887 Y19.558 Z1.392 I0.922 J0.388
G1 X30.86 Y19.634 Z1.389
G2 X30.845 Y19.678 Z1.387 I0.94 J0.341
G1 X30.821 Y19.755 Z1.385
G2 X30.809 Y19.796 Z1.383 I0.955 J0.297
G1 X30.788 Y19.875 Z1.38
G2 X30.78 Y19.911 Z1.379 I0.967 J0.256
G1 X30.761 Y19.991 Z1.376
G2 X30.755 Y20.02 Z1.375 I0.975 J0.22
G1 X30.74 Y20.102 Z1.372
G2 X30.735 Y20.129 Z1.371 I0.982 J0.191
G1 X30.721 Y20.211 Z1.368
G2 X30.718 Y20.231 I0.987 J0.163
G1 X30.706 Y20.314 Z1.365
G2 X30.703 Y20.333 Z1.364 I0.99 J0.143
G1 X30.693 Y20.417 Z1.361
G2 X30.691 Y20.429 I0.992 J0.125
G1 X30.682 Y20.513 Z1.358
X30.672 Y20.605 Z1.354
X30.663 Y20.695 Z1.351
G2 X30.66 Y20.861 Z1.345 I0.995 J0.099
G1 X30.664 Y20.916 Z1.344
X30.668 Y20.975 Z1.341
X30.673 Y21.036 Z1.339
X30.678 Y21.1 Z1.337
G2 X30.679 Y21.112 I0.996 J-0.085
G1 X30.685 Y21.167 Z1.335
G2 X30.686 Y21.181 Z1.334 I0.995 J-0.096
G1 X30.692 Y21.236 Z1.332
G2 X30.694 Y21.255 I0.994 J-0.11
G1 X30.702 Y21.309 Z1.33
G2 X30.704 Y21.33 Z1.329 I0.992 J-0.129
G1 X30.713 Y21.384 Z1.327
G2 X30.717 Y21.408 Z1.326 I0.989 J-0.149
G1 X30.726 Y21.462 Z1.324
G2 X30.731 Y21.488 Z1.323 I0.985 J-0.174
G1 X30.742 Y21.542 Z1.321
G2 X30.749 Y21.571 Z1.32 I0.98 J-0.2
G1 X30.761 Y21.624 Z1.319
G2 X30.769 Y21.658 Z1.317 I0.973 J-0.23
G1 X30.784 Y21.71 Z1.315
G2 X30.793 Y21.744 Z1.314 I0.965 J-0.263
G1 X30.81 Y21.796 Z1.312
G2 X30.821 Y21.83 Z1.311 I0.955 J-0.296
G1 X30.839 Y21.881 Z1.309
G2 X30.849 Y21.908 Z1.308 I0.944 J-0.331
G1 X30.868 Y21.959 Z1.306
G2 X30.879 Y21.986 Z1.305 I0.934 J-0.358
G1 X30.9 Y22.036 Z1.303
G2 X30.909 Y22.058 Z1.302 I0.923 J-0.384
G1 X30.932 Y22.108 Z1.301
G2 X30.941 Y22.13 Z1.3 I0.914 J-0.406
G1 X30.965 Y22.179 Z1.298
G2 X30.972 Y22.194 Z1.297 I0.904 J-0.427
G1 X30.996 Y22.244 Z1.295
G2 X31.003 Y22.257 I0.897 J-0.442
G1 X31.028 Y22.306 Z1.293
G2 X31.034 Y22.317 Z1.292 I0.89 J-0.455
G1 X31.06 Y22.366 Z1.291
X31.091 Y22.424 Z1.288
X31.119 Y22.476 Z1.286
X31.149 Y22.529 Z1.284
G2 X31.233 Y22.658 Z1.279 I0.876 J-0.483
G1 X31.269 Y22.704 Z1.277
X31.305 Y22.751 Z1.275
X31.346 Y22.802 Z1.272
X31.387 Y22.854 Z1.27
G2 X31.394 Y22.863 I0.779 J-0.627
G1 X31.431 Y22.907 Z1.268
G2 X31.441 Y22.919 Z1.267 I0.772 J-0.636
G1 X31.478 Y22.963 Z1.265
G2 X31.491 Y22.977 Z1.264 I0.762 J-0.648
G1 X31.528 Y23.02 Z1.262
G2 X31.542 Y23.035 I0.749 J-0.663
G1 X31.58 Y23.076 Z1.26
G2 X31.599 Y23.096 Z1.259 I0.736 J-0.677
G1 X31.638 Y23.137 Z1.257
G2 X31.658 Y23.156 Z1.256 I0.717 J-0.697
G1 X31.698 Y23.195 Z1.254
G2 X31.722 Y23.218 Z1.253 I0.697 J-0.717
G1 X31.764 Y23.256 Z1.251
G2 X31.789 Y23.278 Z1.25 I0.673 J-0.739
G1 X31.832 Y23.315 Z1.248
G2 X31.86 Y23.338 Z1.246 I0.648 J-0.762
G1 X31.904 Y23.373 Z1.244
G2 X31.932 Y23.393 Z1.243 I0.619 J-0.785
G1 X31.977 Y23.427 Z1.241
G2 X32.001 Y23.444 Z1.24 I0.592 J-0.806
G1 X32.048 Y23.476 Z1.238
G2 X32.07 Y23.491 Z1.237 I0.568 J-0.823
G1 X32.117 Y23.522 Z1.235
G2 X32.138 Y23.535 Z1.234 I0.546 J-0.838
G1 X32.186 Y23.565 Z1.232
G2 X32.204 Y23.576 I0.525 J-0.851
G1 X32.253 Y23.604 Z1.23
G2 X32.268 Y23.613 Z1.229 I0.507 J-0.862
G1 X32.318 Y23.641 Z1.227
G2 X32.332 Y23.649 I0.492 J-0.87
G1 X32.382 Y23.676 Z1.225
G2 X32.393 Y23.682 Z1.224 I0.478 J-0.878
G1 X32.444 Y23.709 Z1.222
X32.501 Y23.738 Z1.22
X32.558 Y23.768 Z1.218
X32.611 Y23.795 Z1.216
G2 X32.75 Y23.853 Z1.21 I0.453 J-0.891
G1 X32.844 Y23.884 Z1.207
X32.939 Y23.915 Z1.203
X33.035 Y23.946 Z1.2
X33.134 Y23.978 Z1.196
X33.233 Y24.009 Z1.193
X33.335 Y24.041 Z1.189
X33.438 Y24.071 Z1.185
X33.542 Y24.101 Z1.181
G2 X33.555 Y24.105 I0.274 J-0.962
G1 X33.65 Y24.13 Z1.177
G2 X33.663 Y24.134 I0.261 J-0.965
G1 X33.758 Y24.158 Z1.173
G2 X33.773 Y24.162 I0.248 J-0.969
G1 X33.868 Y24.185 Z1.169
G2 X33.88 Y24.187 I0.234 J-0.972
G1 X33.976 Y24.209 Z1.166
G2 X33.989 Y24.212 Z1.165 I0.222 J-0.975
G1 X34.085 Y24.233 Z1.162
G2 X34.097 Y24.235 Z1.161 I0.209 J-0.978
G1 X34.193 Y24.254 Z1.158
X34.299 Y24.275 Z1.154
X34.406 Y24.294 Z1.15
X34.511 Y24.312 Z1.147
X34.615 Y24.33 Z1.143
X34.719 Y24.346 Z1.139
X34.821 Y24.362 Z1.136
X34.923 Y24.377 Z1.132
X35.023 Y24.392 Z1.129
X35.124 Y24.406 Z1.125
X35.221 Y24.42 Z1.122
X35.401 Y24.447 Z1.115
X35.582 Y24.474 Z1.109
X35.763 Y24.501 Z1.102
X35.942 Y24.528 Z1.096
X36.12 Y24.556 Z1.09
X36.296 Y24.585 Z1.084
X36.472 Y24.615 Z1.077
X36.646 Y24.646 Z1.071
X36.819 Y24.678 Z1.065
X36.99 Y24.711 Z1.059
X37.16 Y24.746 Z1.053
X37.328 Y24.783 Z1.047
X37.495 Y24.821 Z1.041
X37.661 Y24.862 Z1.035
X37.826 Y24.905 Z1.029
X37.992 Y24.95 Z1.023
X38.159 Y24.998 Z1.017
X38.328 Y25.047 Z1.011
X38.497 Y25.099 Z1.005
X38.667 Y25.152 Z0.998
X38.838 Y25.207 Z0.992
X39.011 Y25.263 Z0.986
X39.184 Y25.319 Z0.979
X39.24 Y25.338 Z0.977
X39.158 Y25.316 Z0.974
X38.96 Y25.264 Z0.967
X38.761 Y25.213 Z0.96
X38.559 Y25.163 Z0.953
X38.357 Y25.114 Z0.946
G2 X38.347 Y25.112 Z0.945 I-0.232 J0.973
G1 X38.152 Y25.067 Z0.938
G2 X38.141 Y25.065 I-0.222 J0.975
G1 X37.946 Y25.023 Z0.931
G2 X37.935 Y25.02 Z0.93 I-0.212 J0.977
G1 X37.739 Y24.98 Z0.923
G2 X37.728 Y24.978 I-0.2 J0.98
G1 X37.532 Y24.941 Z0.916
G2 X37.521 Y24.939 I-0.188 J0.982
G1 X37.325 Y24.903 Z0.909
G2 X37.315 Y24.901 Z0.908 I-0.178 J0.984
G1 X37.118 Y24.868 Z0.901
X36.913 Y24.834 Z0.894
X36.707 Y24.803 Z0.887
X36.503 Y24.773 Z0.88
X36.298 Y24.744 Z0.872
X36.095 Y24.717 Z0.865
X35.892 Y24.69 Z0.858
X35.69 Y24.665 Z0.851
X35.489 Y24.64 Z0.844
X35.289 Y24.615 Z0.837
X35.09 Y24.591 Z0.83
X34.993 Y24.579 Z0.826
X34.895 Y24.567 Z0.823
X34.798 Y24.555 Z0.82
X34.702 Y24.543 Z0.816
X34.606 Y24.531 Z0.813
X34.511 Y24.518 Z0.81
X34.417 Y24.505 Z0.806
X34.322 Y24.492 Z0.803
X34.229 Y24.479 Z0.8
X34.136 Y24.465 Z0.796
X34.044 Y24.451 Z0.793
X33.953 Y24.436 Z0.79
X33.862 Y24.421 Z0.787
X33.772 Y24.405 Z0.783
X33.682 Y24.388 Z0.78
X33.591 Y24.371 Z0.777
X33.5 Y24.353 Z0.774
X33.408 Y24.334 Z0.77
X33.315 Y24.315 Z0.767
X33.222 Y24.295 Z0.764
X33.127 Y24.275 Z0.76
X33.032 Y24.254 Z0.757
X32.884 Y24.222 Z0.752
X32.844 Y24.209 Z0.75
X32.763 Y24.183 Z0.747
X32.684 Y24.158 Z0.744
X32.606 Y24.132 Z0.742
X32.53 Y24.107 Z0.739
X32.456 Y24.081 Z0.736
X32.384 Y24.056 Z0.733
X32.315 Y24.03 Z0.731
X32.246 Y24.004 Z0.728
X32.18 Y23.978 Z0.726
X32.116 Y23.951 Z0.723
X32.054 Y23.923 Z0.721
X31.993 Y23.895 Z0.719
X31.932 Y23.865 Z0.716
X31.869 Y23.833 Z0.714
X31.805 Y23.799 Z0.711
X31.74 Y23.763 Z0.709
X31.674 Y23.726 Z0.706
X31.607 Y23.687 Z0.703
X31.538 Y23.646 Z0.7
X31.468 Y23.605 Z0.698
X31.397 Y23.562 Z0.695
X31.325 Y23.517 Z0.692
X31.297 Y23.5 Z0.691
X31.274 Y23.482 Z0.69
X31.209 Y23.432 Z0.687
X31.146 Y23.382 Z0.684
X31.085 Y23.333 Z0.681
X31.028 Y23.286 Z0.679
X30.973 Y23.24 Z0.676
X30.92 Y23.195 Z0.674
X30.87 Y23.15 Z0.671
X30.824 Y23.107 Z0.669
X30.78 Y23.064 Z0.667
X30.739 Y23.023 Z0.665
X30.701 Y22.981 Z0.663
X30.664 Y22.938 Z0.661
X30.626 Y22.892 Z0.659
X30.588 Y22.843 Z0.657
X30.549 Y22.792 Z0.655
X30.51 Y22.737 Z0.652
X30.47 Y22.68 Z0.65
X30.43 Y22.62 Z0.647
X30.389 Y22.557 Z0.645
X30.347 Y22.491 Z0.642
X30.304 Y22.424 Z0.639
X30.261 Y22.354 Z0.636
X30.247 Y22.332 Z0.635
X30.235 Y22.305 Z0.634
X30.198 Y22.226 Z0.631
X30.163 Y22.149 Z0.628
X30.13 Y22.074 Z0.625
X30.098 Y22.002 Z0.623
X30.069 Y21.932 Z0.62
X30.042 Y21.864 Z0.617
X30.017 Y21.798 Z0.615
X29.995 Y21.735 Z0.613
X29.975 Y21.674 Z0.61
X29.958 Y21.615 Z0.608
X29.943 Y21.558 Z0.606
X29.929 Y21.5 Z0.604
X29.917 Y21.439 Z0.602
X29.906 Y21.375 Z0.6
X29.896 Y21.308 Z0.597
X29.887 Y21.238 Z0.595
X29.879 Y21.165 Z0.592
X29.872 Y21.088 Z0.59
X29.865 Y21.009 Z0.587
X29.859 Y20.928 Z0.584
X29.854 Y20.843 Z0.581
X29.849 Y20.755 Z0.578
X29.848 Y20.738 Z0.577
X29.855 Y20.659 Z0.575
X29.869 Y20.513 Z0.569
X29.883 Y20.371 Z0.564
X29.898 Y20.235 Z0.56
X29.916 Y20.104 Z0.555
X29.935 Y19.979 Z0.551
X29.956 Y19.86 Z0.546
X29.98 Y19.747 Z0.542
X30.006 Y19.64 Z0.539
X30.035 Y19.54 Z0.535
X30.067 Y19.447 Z0.532
X30.101 Y19.36 Z0.528
X30.139 Y19.276 Z0.525
X30.184 Y19.19 Z0.522
X30.236 Y19.102 Z0.518
X30.294 Y19.01 Z0.514
X30.36 Y18.916 Z0.51
X30.431 Y18.819 Z0.506
X30.508 Y18.72 Z0.502
X30.592 Y18.619 Z0.497
X30.68 Y18.514 Z0.492
X30.773 Y18.407 Z0.487
X30.869 Y18.297 Z0.482
X30.886 Y18.279 Z0.481
X30.928 Y18.251 Z0.48
X31.071 Y18.155 Z0.474
X31.211 Y18.063 Z0.468
X31.349 Y17.975 Z0.462
X31.484 Y17.892 Z0.457
X31.616 Y17.814 Z0.451
X31.745 Y17.743 Z0.446
X31.872 Y17.677 Z0.441
X31.996 Y17.618 Z0.436
X32.117 Y17.566 Z0.432
X32.237 Y17.521 Z0.427
X32.358 Y17.482 Z0.423
X32.484 Y17.446 Z0.418
X32.616 Y17.415 Z0.413
X32.753 Y17.388 Z0.409
X32.895 Y17.364 Z0.403
X33.043 Y17.344 Z0.398
X33.196 Y17.327 Z0.393
X33.353 Y17.312 Z0.387
X33.515 Y17.3 Z0.382
X33.681 Y17.29 Z0.376
X33.852 Y17.282 Z0.37
X34.026 Y17.274 Z0.364
X34.164 Y17.268 Z0.359
X34.247 Y17.272 Z0.356
X34.368 Y17.277 Z0.352
X34.487 Y17.282 Z0.348
X34.605 Y17.288 Z0.344
X34.72 Y17.295 Z0.34
X34.834 Y17.302 Z0.336
X34.945 Y17.311 Z0.332
X35.054 Y17.321 Z0.328
X35.161 Y17.332 Z0.324
X35.265 Y17.345 Z0.32
X35.368 Y17.36 Z0.317
X35.423 Y17.369 Z0.315
X35.341 Y17.363 Z0.312
X35.214 Y17.354 Z0.308
X35.087 Y17.347 Z0.303
X34.964 Y17.34 Z0.299
X34.844 Y17.334 Z0.295
G2 X34.759 Z0.292 I-0.051 J0.999
G1 X34.653 Y17.337 Z0.288
X34.544 Y17.341 Z0.284
X34.433 Y17.346 Z0.28
X34.318 Y17.352 Z0.276
G2 X34.306 Y17.353 I0.053 J0.999
G1 X34.201 Y17.36 Z0.272
G2 X34.184 Y17.361 I0.066 J0.998
G1 X34.08 Y17.37 Z0.268
G2 X34.061 Y17.372 Z0.267 I0.083 J0.997
G1 X33.958 Y17.382 Z0.264
G2 X33.933 Y17.385 Z0.263 I0.102 J0.995
G1 X33.831 Y17.398 Z0.259
G2 X33.805 Y17.402 Z0.258 I0.127 J0.992
G1 X33.703 Y17.418 Z0.255
G2 X33.673 Y17.423 Z0.254 I0.153 J0.988
G1 X33.572 Y17.441 Z0.25
G2 X33.538 Y17.448 Z0.249 I0.182 J0.983
G1 X33.438 Y17.47 Z0.245
G2 X33.402 Y17.479 Z0.244 I0.217 J0.976
G1 X33.303 Y17.505 Z0.24
G2 X33.263 Y17.516 Z0.239 I0.253 J0.967
G1 X33.166 Y17.546 Z0.235
G2 X33.123 Y17.56 Z0.234 I0.293 J0.956
G1 X33.027 Y17.595 Z0.23
G2 X32.989 Y17.609 Z0.229 I0.336 J0.942
G1 X32.894 Y17.647 Z0.225
G2 X32.859 Y17.663 Z0.224 I0.375 J0.927
G1 X32.765 Y17.705 Z0.22
G2 X32.736 Y17.719 Z0.219 I0.41 J0.912
G1 X32.643 Y17.764 Z0.216
G2 X32.617 Y17.777 Z0.215 I0.44 J0.898
G1 X32.525 Y17.826 Z0.211
G2 X32.504 Y17.837 Z0.21 I0.467 J0.884
G1 X32.414 Y17.888 Z0.206
G2 X32.396 Y17.898 I0.488 J0.873
G1 X32.307 Y17.95 Z0.202
G2 X32.293 Y17.959 I0.505 J0.863
G1 X32.203 Y18.013 Z0.198
G2 X32.193 Y18.019 Z0.197 I0.519 J0.855
G1 X32.104 Y18.075 Z0.194
X32.008 Y18.136 Z0.19
X31.916 Y18.195 Z0.186
G2 X31.726 Y18.353 Z0.177 I0.54 J0.842
G1 X31.668 Y18.415 Z0.174
X31.608 Y18.48 Z0.171
X31.545 Y18.549 Z0.168
G2 X31.536 Y18.558 I0.739 J0.674
G1 X31.48 Y18.621 Z0.165
G2 X31.469 Y18.634 Z0.164 I0.747 J0.664
G1 X31.415 Y18.698 Z0.161
G2 X31.4 Y18.715 Z0.16 I0.759 J0.651
G1 X31.348 Y18.779 Z0.157
G2 X31.331 Y18.8 I0.773 J0.635
G1 X31.28 Y18.865 Z0.154
G2 X31.262 Y18.89 Z0.153 I0.789 J0.614
G1 X31.213 Y18.956 Z0.15
G2 X31.192 Y18.987 Z0.148 I0.808 J0.589
G1 X31.146 Y19.054 Z0.146
G2 X31.125 Y19.088 Z0.144 I0.829 J0.559
G1 X31.082 Y19.157 Z0.141
G2 X31.058 Y19.199 Z0.14 I0.851 J0.525
G1 X31.019 Y19.269 Z0.137
G2 X30.996 Y19.313 Z0.135 I0.875 J0.484
G1 X30.961 Y19.385 Z0.132
G2 X30.937 Y19.437 Z0.13 I0.898 J0.44
G1 X30.906 Y19.511 Z0.127
G2 X30.887 Y19.558 Z0.126 I0.922 J0.388
G1 X30.86 Y19.634 Z0.123
G2 X30.845 Y19.678 Z0.121 I0.94 J0.341
G1 X30.821 Y19.755 Z0.118
G2 X30.809 Y19.796 Z0.117 I0.955 J0.297
G1 X30.788 Y19.875 Z0.114
G2 X30.78 Y19.911 Z0.113 I0.967 J0.256
G1 X30.761 Y19.991 Z0.11
G2 X30.755 Y20.02 Z0.109 I0.975 J0.22
G1 X30.74 Y20.102 Z0.106
G2 X30.735 Y20.129 Z0.105 I0.982 J0.191
G1 X30.721 Y20.211 Z0.102
G2 X30.718 Y20.231 Z0.101 I0.987 J0.163
G1 X30.706 Y20.314 Z0.099
G2 X30.703 Y20.333 Z0.098 I0.99 J0.143
G1 X30.693 Y20.417 Z0.095
G2 X30.691 Y20.429 Z0.094 I0.992 J0.125
G1 X30.682 Y20.513 Z0.092
X30.672 Y20.605 Z0.088
X30.663 Y20.695 Z0.085
G2 X30.66 Y20.861 Z0.079 I0.995 J0.099
G1 X30.664 Y20.916 Z0.077
X30.668 Y20.975 Z0.075
X30.673 Y21.036 Z0.073
X30.678 Y21.1 Z0.071
G2 X30.679 Y21.112 I0.996 J-0.085
G1 X30.685 Y21.167 Z0.069
G2 X30.686 Y21.181 Z0.068 I0.995 J-0.096
G1 X30.692 Y21.236 Z0.066
G2 X30.694 Y21.255 I0.994 J-0.11
G1 X30.702 Y21.309 Z0.064
G2 X30.704 Y21.33 Z0.063 I0.992 J-0.129
G1 X30.713 Y21.384 Z0.061
G2 X30.717 Y21.408 Z0.06 I0.989 J-0.149
G1 X30.726 Y21.462 Z0.058
G2 X30.731 Y21.488 Z0.057 I0.985 J-0.174
G1 X30.742 Y21.542 Z0.055
G2 X30.749 Y21.571 Z0.054 I0.98 J-0.2
G1 X30.761 Y21.624 Z0.052
G2 X30.769 Y21.658 Z0.051 I0.973 J-0.23
G1 X30.784 Y21.71 Z0.049
G2 X30.793 Y21.744 Z0.048 I0.965 J-0.263
G1 X30.81 Y21.796 Z0.046
G2 X30.821 Y21.83 Z0.045 I0.955 J-0.296
G1 X30.839 Y21.881 Z0.043
G2 X30.849 Y21.908 Z0.042 I0.944 J-0.331
G1 X30.868 Y21.959 Z0.04
