%
(Header)
(Generated by gcodetools from Inkscape.)
(Using default header. To add your own header create file "header" in the output dir.)
M3
(Header end.)
G21 (All units in mm)

(Start cutting path id: path2588)
(Change tool to Cylindrical cutter)

G00 Z5.000000
G00 X59.622408 Y43.953734

G01 Z-1.000000 F100.0(Penetrate)
G02 X61.379116 Y38.042419 Z-1.000000 I-29.722629 J-12.049569 F400.000000
G02 X61.971991 Y31.904164 Z-1.000000 I-31.479337 J-6.138253
G00 Z5.000000

(End cutting path id: path2588)


(Start cutting path id: path2586)
(Change tool to Cylindrical cutter)

G00 Z5.000000
G00 X52.969626 Y54.110267

G01 Z-1.000000 F100.0(Penetrate)
G02 X56.792073 Y49.356930 Z-1.000000 I-22.419428 J-21.942420 F400.000000
G02 X59.622408 Y43.953735 Z-1.000000 I-26.241875 J-17.189083
G00 Z5.000000

(End cutting path id: path2586)


(Start cutting path id: path2584)
(Change tool to Cylindrical cutter)

G00 Z5.000000
G00 X42.966379 Y60.928266

G01 Z-1.000000 F100.0(Penetrate)
G02 X48.306419 Y58.015786 Z-1.000000 I-11.999221 J-28.352329 F400.000000
G02 X52.969625 Y54.110266 Z-1.000000 I-17.339261 J-25.439848
G00 Z5.000000

(End cutting path id: path2584)


(Start cutting path id: path2582)
(Change tool to Cylindrical cutter)

G00 Z5.000000
G00 X31.235993 Y63.308334

G01 Z-1.000000 F100.0(Penetrate)
G02 X37.220696 Y62.707316 Z-1.000000 I0.000002 J-30.097176 F400.000000
G02 X42.966379 Y60.928266 Z-1.000000 I-5.984701 J-29.496158
G00 Z5.000000

(End cutting path id: path2582)


(Start cutting path id: path2580)
(Change tool to Cylindrical cutter)

G00 Z5.000000
G00 X19.505609 Y60.928266

G01 Z-1.000000 F100.0(Penetrate)
G02 X25.251291 Y62.707316 Z-1.000000 I11.730385 J-27.717108 F400.000000
G02 X31.235994 Y63.308334 Z-1.000000 I5.984703 J-29.496158
G00 Z5.000000

(End cutting path id: path2580)


(Start cutting path id: path2578)
(Change tool to Cylindrical cutter)

G00 Z5.000000
G00 X9.502364 Y54.110265

G01 Z-1.000000 F100.0(Penetrate)
G02 X14.165569 Y58.015785 Z-1.000000 I22.002468 J-21.534328 F400.000000
G02 X19.505609 Y60.928266 Z-1.000000 I17.339262 J-25.439848
G00 Z5.000000

(End cutting path id: path2578)


(Start cutting path id: path2576)
(Change tool to Cylindrical cutter)

G00 Z5.000000
G00 X2.849581 Y43.953735

G01 Z-1.000000 F100.0(Penetrate)
G02 X5.679916 Y49.356930 Z-1.000000 I29.072210 J-11.785887 F400.000000
G02 X9.502362 Y54.110267 Z-1.000000 I26.241875 J-17.189082
G00 Z5.000000

(End cutting path id: path2576)


(Start cutting path id: path2574)
(Change tool to Cylindrical cutter)

G00 Z5.000000
G00 X0.500000 Y31.904164

G01 Z-1.000000 F100.0(Penetrate)
G02 X1.092875 Y38.042419 Z-1.000000 I32.072212 J0.000003 F400.000000
G02 X2.849582 Y43.953734 Z-1.000000 I31.479337 J-6.138252
G00 Z5.000000

(End cutting path id: path2574)


(Start cutting path id: path2572)
(Change tool to Cylindrical cutter)

G00 Z5.000000
G00 X2.849582 Y19.854594

G01 Z-1.000000 F100.0(Penetrate)
G02 X1.092875 Y25.765909 Z-1.000000 I29.722630 J12.049567 F400.000000
G02 X0.500000 Y31.904164 Z-1.000000 I31.479337 J6.138252
G00 Z5.000000

(End cutting path id: path2572)


(Start cutting path id: path2570)
(Change tool to Cylindrical cutter)

G00 Z5.000000
G00 X9.502362 Y9.698061

G01 Z-1.000000 F100.0(Penetrate)
G02 X5.679916 Y14.451398 Z-1.000000 I22.419430 J21.942418 F400.000000
G02 X2.849581 Y19.854593 Z-1.000000 I26.241876 J17.189081
G00 Z5.000000

(End cutting path id: path2570)


(Start cutting path id: path2568)
(Change tool to Cylindrical cutter)

G00 Z5.000000
G00 X19.505609 Y2.880062

G01 Z-1.000000 F100.0(Penetrate)
G02 X14.165569 Y5.792543 Z-1.000000 I11.999222 J28.352329 F400.000000
G02 X9.502364 Y9.698062 Z-1.000000 I17.339261 J25.439848
G00 Z5.000000

(End cutting path id: path2568)


(Start cutting path id: path2566)
(Change tool to Cylindrical cutter)

G00 Z5.000000
G00 X31.235994 Y0.499996

G01 Z-1.000000 F100.0(Penetrate)
G02 X25.251291 Y1.101014 Z-1.000000 I-0.000000 J30.097176 F400.000000
G02 X19.505609 Y2.880064 Z-1.000000 I5.984702 J29.496158
G00 Z5.000000

(End cutting path id: path2566)


(Start cutting path id: path2564)
(Change tool to Cylindrical cutter)

G00 Z5.000000
G00 X42.966379 Y2.880064

G01 Z-1.000000 F100.0(Penetrate)
G02 X37.220696 Y1.101014 Z-1.000000 I-11.730385 J27.717108 F400.000000
G02 X31.235993 Y0.499996 Z-1.000000 I-5.984702 J29.496158
G00 Z5.000000

(End cutting path id: path2564)


(Start cutting path id: path2562)
(Change tool to Cylindrical cutter)

G00 Z5.000000
G00 X52.969625 Y9.698062

G01 Z-1.000000 F100.0(Penetrate)
G02 X48.306419 Y5.792542 Z-1.000000 I-22.002466 J21.534329 F400.000000
G02 X42.966379 Y2.880062 Z-1.000000 I-17.339261 J25.439849
G00 Z5.000000

(End cutting path id: path2562)


(Start cutting path id: path2560)
(Change tool to Cylindrical cutter)

G00 Z5.000000
G00 X59.622408 Y19.854593

G01 Z-1.000000 F100.0(Penetrate)
G02 X56.792073 Y14.451398 Z-1.000000 I-29.072210 J11.785888 F400.000000
G02 X52.969626 Y9.698061 Z-1.000000 I-26.241875 J17.189083
G00 Z5.000000

(End cutting path id: path2560)


(Start cutting path id: path2558)
(Change tool to Cylindrical cutter)

G00 Z5.000000
G00 X61.971991 Y31.904164

G01 Z-1.000000 F100.0(Penetrate)
G02 X61.379116 Y25.765909 Z-1.000000 I-32.072212 J-0.000001 F400.000000
G02 X59.622408 Y19.854594 Z-1.000000 I-31.479337 J6.138253
G00 Z5.000000

(End cutting path id: path2558)


(Footer)
M5
G00 X0.0000 Y0.0000
M2
(Using default footer. To add your own footer create file "footer" in the output dir.)
(end)
%