%
(Header)
(Generated by gcodetools from Inkscape.)
(Using default header. To add your own header create file "header" in the output dir.)
M3
(Header end.)
G21 (All units in mm)

(Start cutting path id: path3987)
(Change tool to Cylindrical cutter)

G00 Z20.000000
G00 X59.500000 Y128.500000

G01 Z-0.500000 F100.0(Penetrate)
G01 X59.500000 Y129.700000 Z-0.500000 F400.000000
G01 X64.500000 Y129.700000 Z-0.500000
G01 X64.500000 Y137.700000 Z-0.500000
G01 X59.500000 Y137.700000 Z-0.500000
G01 X59.500000 Y142.900000 Z-0.500000
G01 X64.500000 Y142.900000 Z-0.500000
G01 X64.500000 Y150.900000 Z-0.500000
G01 X59.500000 Y150.900000 Z-0.500000
G01 X59.500000 Y156.100000 Z-0.500000
G01 X64.500000 Y156.100000 Z-0.500000
G01 X64.500000 Y164.100000 Z-0.500000
G01 X59.500000 Y164.100000 Z-0.500000
G01 X59.500000 Y169.300000 Z-0.500000
G01 X64.500000 Y169.300000 Z-0.500000
G01 X64.500000 Y177.300000 Z-0.500000
G01 X59.500000 Y177.300000 Z-0.500000
G01 X59.500000 Y178.500000 Z-0.500000
G00 Z20.000000

(End cutting path id: path3987)


(Start cutting path id: path3985)
(Change tool to Cylindrical cutter)

G00 Z20.000000
G00 X169.500000 Y128.500000

G01 Z-0.500000 F100.0(Penetrate)
G01 X161.611110 Y128.500000 Z-0.500000 F400.000000
G01 X161.611110 Y123.500000 Z-0.500000
G01 X157.611110 Y123.500000 Z-0.500000
G01 X157.611110 Y128.500000 Z-0.500000
G01 X148.722220 Y128.500000 Z-0.500000
G01 X148.722220 Y123.500000 Z-0.500000
G01 X144.722220 Y123.500000 Z-0.500000
G01 X144.722220 Y128.500000 Z-0.500000
G01 X135.833330 Y128.500000 Z-0.500000
G01 X135.833330 Y123.500000 Z-0.500000
G01 X131.833330 Y123.500000 Z-0.500000
G01 X131.833330 Y128.500000 Z-0.500000
G01 X122.944440 Y128.500000 Z-0.500000
G01 X122.944440 Y123.500000 Z-0.500000
G01 X118.944440 Y123.500000 Z-0.500000
G01 X118.944440 Y128.500000 Z-0.500000
G01 X110.055560 Y128.500000 Z-0.500000
G01 X110.055560 Y123.500000 Z-0.500000
G01 X106.055560 Y123.500000 Z-0.500000
G01 X106.055560 Y128.500000 Z-0.500000
G01 X97.166670 Y128.500000 Z-0.500000
G01 X97.166670 Y123.500000 Z-0.500000
G01 X93.166670 Y123.500000 Z-0.500000
G01 X93.166670 Y128.500000 Z-0.500000
G01 X84.277778 Y128.500000 Z-0.500000
G01 X84.277778 Y123.500000 Z-0.500000
G01 X80.277778 Y123.500000 Z-0.500000
G01 X80.277778 Y128.500000 Z-0.500000
G01 X71.388889 Y128.500000 Z-0.500000
G01 X71.388889 Y123.500000 Z-0.500000
G01 X67.388889 Y123.500000 Z-0.500000
G01 X67.388889 Y128.500000 Z-0.500000
G01 X59.500000 Y128.500000 Z-0.500000
G00 Z20.000000

(End cutting path id: path3985)


(Start cutting path id: path3983)
(Change tool to Cylindrical cutter)

G00 Z20.000000
G00 X169.500000 Y178.500000

G01 Z-0.500000 F100.0(Penetrate)
G01 X169.500000 Y177.300000 Z-0.500000 F400.000000
G01 X164.500000 Y177.300000 Z-0.500000
G01 X164.500000 Y169.300000 Z-0.500000
G01 X169.500000 Y169.300000 Z-0.500000
G01 X169.500000 Y164.100000 Z-0.500000
G01 X164.500000 Y164.100000 Z-0.500000
G01 X164.500000 Y156.100000 Z-0.500000
G01 X169.500000 Y156.100000 Z-0.500000
G01 X169.500000 Y150.900000 Z-0.500000
G01 X164.500000 Y150.900000 Z-0.500000
G01 X164.500000 Y142.900000 Z-0.500000
G01 X169.500000 Y142.900000 Z-0.500000
G01 X169.500000 Y137.700000 Z-0.500000
G01 X164.500000 Y137.700000 Z-0.500000
G01 X164.500000 Y129.700000 Z-0.500000
G01 X169.500000 Y129.700000 Z-0.500000
G01 X169.500000 Y128.500000 Z-0.500000
G00 Z20.000000

(End cutting path id: path3983)


(Start cutting path id: path3981)
(Change tool to Cylindrical cutter)

G00 Z20.000000
G00 X59.500000 Y178.500000

G01 Z-0.500000 F100.0(Penetrate)
G01 X67.388889 Y178.500000 Z-0.500000 F400.000000
G01 X67.388889 Y178.500000 Z-0.500000
G01 X71.388889 Y178.500000 Z-0.500000
G01 X71.388889 Y178.500000 Z-0.500000
G01 X80.277778 Y178.500000 Z-0.500000
G01 X80.277778 Y178.500000 Z-0.500000
G01 X84.277778 Y178.500000 Z-0.500000
G01 X84.277778 Y178.500000 Z-0.500000
G01 X93.166670 Y178.500000 Z-0.500000
G01 X93.166670 Y178.500000 Z-0.500000
G01 X97.166670 Y178.500000 Z-0.500000
G01 X97.166670 Y178.500000 Z-0.500000
G01 X106.055560 Y178.500000 Z-0.500000
G01 X106.055560 Y178.500000 Z-0.500000
G01 X110.055560 Y178.500000 Z-0.500000
G01 X110.055560 Y178.500000 Z-0.500000
G01 X118.944440 Y178.500000 Z-0.500000
G01 X118.944440 Y178.500000 Z-0.500000
G01 X122.944440 Y178.500000 Z-0.500000
G01 X122.944440 Y178.500000 Z-0.500000
G01 X131.833330 Y178.500000 Z-0.500000
G01 X131.833330 Y178.500000 Z-0.500000
G01 X135.833330 Y178.500000 Z-0.500000
G01 X135.833330 Y178.500000 Z-0.500000
G01 X144.722220 Y178.500000 Z-0.500000
G01 X144.722220 Y178.500000 Z-0.500000
G01 X148.722220 Y178.500000 Z-0.500000
G01 X148.722220 Y178.500000 Z-0.500000
G01 X157.611110 Y178.500000 Z-0.500000
G01 X157.611110 Y178.500000 Z-0.500000
G01 X161.611110 Y178.500000 Z-0.500000
G01 X161.611110 Y178.500000 Z-0.500000
G01 X169.500000 Y178.500000 Z-0.500000
G00 Z20.000000

(End cutting path id: path3981)


(Start cutting path id: path3971)
(Change tool to Cylindrical cutter)

G00 Z20.000000
G00 X178.500000 Y64.500000

G01 Z-0.500000 F100.0(Penetrate)
G01 X178.500000 Y67.700000 Z-0.500000 F400.000000
G01 X173.500000 Y67.700000 Z-0.500000
G01 X173.500000 Y71.700000 Z-0.500000
G01 X178.500000 Y71.700000 Z-0.500000
G01 X178.500000 Y80.900000 Z-0.500000
G01 X173.500000 Y80.900000 Z-0.500000
G01 X173.500000 Y84.900000 Z-0.500000
G01 X178.500000 Y84.900000 Z-0.500000
G01 X178.500000 Y94.100000 Z-0.500000
G01 X173.500000 Y94.100000 Z-0.500000
G01 X173.500000 Y98.100000 Z-0.500000
G01 X178.500000 Y98.100000 Z-0.500000
G01 X178.500000 Y107.300000 Z-0.500000
G01 X173.500000 Y107.300000 Z-0.500000
G01 X173.500000 Y111.300000 Z-0.500000
G01 X178.500000 Y111.300000 Z-0.500000
G01 X178.500000 Y114.500000 Z-0.500000
G00 Z20.000000

(End cutting path id: path3971)


(Start cutting path id: path3969)
(Change tool to Cylindrical cutter)

G00 Z20.000000
G00 X228.500000 Y64.500000

G01 Z-0.500000 F100.0(Penetrate)
G01 X225.300000 Y64.500000 Z-0.500000 F400.000000
G01 X225.300000 Y59.500000 Z-0.500000
G01 X221.300000 Y59.500000 Z-0.500000
G01 X221.300000 Y64.500000 Z-0.500000
G01 X212.100000 Y64.500000 Z-0.500000
G01 X212.100000 Y59.500000 Z-0.500000
G01 X208.100000 Y59.500000 Z-0.500000
G01 X208.100000 Y64.500000 Z-0.500000
G01 X198.900000 Y64.500000 Z-0.500000
G01 X198.900000 Y59.500000 Z-0.500000
G01 X194.900000 Y59.500000 Z-0.500000
G01 X194.900000 Y64.500000 Z-0.500000
G01 X185.700000 Y64.500000 Z-0.500000
G01 X185.700000 Y59.500000 Z-0.500000
G01 X181.700000 Y59.500000 Z-0.500000
G01 X181.700000 Y64.500000 Z-0.500000
G01 X178.500000 Y64.500000 Z-0.500000
G00 Z20.000000

(End cutting path id: path3969)


(Start cutting path id: path3967)
(Change tool to Cylindrical cutter)

G00 Z20.000000
G00 X228.500000 Y114.500000

G01 Z-0.500000 F100.0(Penetrate)
G01 X228.500000 Y111.300000 Z-0.500000 F400.000000
G01 X228.500000 Y111.300000 Z-0.500000
G01 X228.500000 Y107.300000 Z-0.500000
G01 X228.500000 Y107.300000 Z-0.500000
G01 X228.500000 Y98.100000 Z-0.500000
G01 X228.500000 Y98.100000 Z-0.500000
G01 X228.500000 Y94.100000 Z-0.500000
G01 X228.500000 Y94.100000 Z-0.500000
G01 X228.500000 Y84.900000 Z-0.500000
G01 X228.500000 Y84.900000 Z-0.500000
G01 X228.500000 Y80.900000 Z-0.500000
G01 X228.500000 Y80.900000 Z-0.500000
G01 X228.500000 Y71.700000 Z-0.500000
G01 X228.500000 Y71.700000 Z-0.500000
G01 X228.500000 Y67.700000 Z-0.500000
G01 X228.500000 Y67.700000 Z-0.500000
G01 X228.500000 Y64.500000 Z-0.500000
G00 Z20.000000

(End cutting path id: path3967)


(Start cutting path id: path3965)
(Change tool to Cylindrical cutter)

G00 Z20.000000
G00 X178.500000 Y114.500000

G01 Z-0.500000 F100.0(Penetrate)
G01 X181.700000 Y114.500000 Z-0.500000 F400.000000
G01 X181.700000 Y119.500000 Z-0.500000
G01 X185.700000 Y119.500000 Z-0.500000
G01 X185.700000 Y114.500000 Z-0.500000
G01 X194.900000 Y114.500000 Z-0.500000
G01 X194.900000 Y119.500000 Z-0.500000
G01 X198.900000 Y119.500000 Z-0.500000
G01 X198.900000 Y114.500000 Z-0.500000
G01 X208.100000 Y114.500000 Z-0.500000
G01 X208.100000 Y119.500000 Z-0.500000
G01 X212.100000 Y119.500000 Z-0.500000
G01 X212.100000 Y114.500000 Z-0.500000
G01 X221.300000 Y114.500000 Z-0.500000
G01 X221.300000 Y119.500000 Z-0.500000
G01 X225.300000 Y119.500000 Z-0.500000
G01 X225.300000 Y114.500000 Z-0.500000
G01 X228.500000 Y114.500000 Z-0.500000
G00 Z20.000000

(End cutting path id: path3965)


(Start cutting path id: path3963)
(Change tool to Cylindrical cutter)

G00 Z20.000000
G00 X59.500000 Y59.500000

G01 Z-0.500000 F100.0(Penetrate)
G01 X59.500000 Y65.700000 Z-0.500000 F400.000000
G01 X64.500000 Y65.700000 Z-0.500000
G01 X64.500000 Y73.700000 Z-0.500000
G01 X59.500000 Y73.700000 Z-0.500000
G01 X59.500000 Y78.900000 Z-0.500000
G01 X64.500000 Y78.900000 Z-0.500000
G01 X64.500000 Y86.900000 Z-0.500000
G01 X59.500000 Y86.900000 Z-0.500000
G01 X59.500000 Y92.100000 Z-0.500000
G01 X64.500000 Y92.100000 Z-0.500000
G01 X64.500000 Y100.100000 Z-0.500000
G01 X59.500000 Y100.100000 Z-0.500000
G01 X59.500000 Y105.300000 Z-0.500000
G01 X64.500000 Y105.300000 Z-0.500000
G01 X64.500000 Y113.300000 Z-0.500000
G01 X59.500000 Y113.300000 Z-0.500000
G01 X59.500000 Y119.500000 Z-0.500000
G00 Z20.000000

(End cutting path id: path3963)


(Start cutting path id: path3961)
(Change tool to Cylindrical cutter)

G00 Z20.000000
G00 X169.500000 Y59.500000

G01 Z-0.500000 F100.0(Penetrate)
G01 X163.611110 Y59.500000 Z-0.500000 F400.000000
G01 X163.611110 Y64.500000 Z-0.500000
G01 X155.611110 Y64.500000 Z-0.500000
G01 X155.611110 Y59.500000 Z-0.500000
G01 X150.722220 Y59.500000 Z-0.500000
G01 X150.722220 Y64.500000 Z-0.500000
G01 X142.722220 Y64.500000 Z-0.500000
G01 X142.722220 Y59.500000 Z-0.500000
G01 X137.833330 Y59.500000 Z-0.500000
G01 X137.833330 Y64.500000 Z-0.500000
G01 X129.833330 Y64.500000 Z-0.500000
G01 X129.833330 Y59.500000 Z-0.500000
G01 X124.944440 Y59.500000 Z-0.500000
G01 X124.944440 Y64.500000 Z-0.500000
G01 X116.944440 Y64.500000 Z-0.500000
G01 X116.944440 Y59.500000 Z-0.500000
G01 X112.055560 Y59.500000 Z-0.500000
G01 X112.055560 Y64.500000 Z-0.500000
G01 X104.055560 Y64.500000 Z-0.500000
G01 X104.055560 Y59.500000 Z-0.500000
G01 X99.166670 Y59.500000 Z-0.500000
G01 X99.166670 Y64.500000 Z-0.500000
G01 X91.166667 Y64.500000 Z-0.500000
G01 X91.166667 Y59.500000 Z-0.500000
G01 X86.277778 Y59.500000 Z-0.500000
G01 X86.277778 Y64.500000 Z-0.500000
G01 X78.277778 Y64.500000 Z-0.500000
G01 X78.277778 Y59.500000 Z-0.500000
G01 X73.388889 Y59.500000 Z-0.500000
G01 X73.388889 Y64.500000 Z-0.500000
G01 X65.388889 Y64.500000 Z-0.500000
G01 X65.388889 Y59.500000 Z-0.500000
G01 X59.500000 Y59.500000 Z-0.500000
G00 Z20.000000

(End cutting path id: path3961)


(Start cutting path id: path3959)
(Change tool to Cylindrical cutter)

G00 Z20.000000
G00 X169.500000 Y119.500000

G01 Z-0.500000 F100.0(Penetrate)
G01 X169.500000 Y113.300000 Z-0.500000 F400.000000
G01 X164.500000 Y113.300000 Z-0.500000
G01 X164.500000 Y105.300000 Z-0.500000
G01 X169.500000 Y105.300000 Z-0.500000
G01 X169.500000 Y100.100000 Z-0.500000
G01 X164.500000 Y100.100000 Z-0.500000
G01 X164.500000 Y92.100000 Z-0.500000
G01 X169.500000 Y92.100000 Z-0.500000
G01 X169.500000 Y86.900000 Z-0.500000
G01 X164.500000 Y86.900000 Z-0.500000
G01 X164.500000 Y78.900000 Z-0.500000
G01 X169.500000 Y78.900000 Z-0.500000
G01 X169.500000 Y73.700000 Z-0.500000
G01 X164.500000 Y73.700000 Z-0.500000
G01 X164.500000 Y65.700000 Z-0.500000
G01 X169.500000 Y65.700000 Z-0.500000
G01 X169.500000 Y59.500000 Z-0.500000
G00 Z20.000000

(End cutting path id: path3959)


(Start cutting path id: path3957)
(Change tool to Cylindrical cutter)

G00 Z20.000000
G00 X59.500000 Y119.500000

G01 Z-0.500000 F100.0(Penetrate)
G01 X65.388889 Y119.500000 Z-0.500000 F400.000000
G01 X65.388889 Y114.500000 Z-0.500000
G01 X73.388889 Y114.500000 Z-0.500000
G01 X73.388889 Y119.500000 Z-0.500000
G01 X78.277778 Y119.500000 Z-0.500000
G01 X78.277778 Y114.500000 Z-0.500000
G01 X86.277778 Y114.500000 Z-0.500000
G01 X86.277778 Y119.500000 Z-0.500000
G01 X91.166667 Y119.500000 Z-0.500000
G01 X91.166667 Y114.500000 Z-0.500000
G01 X99.166670 Y114.500000 Z-0.500000
G01 X99.166670 Y119.500000 Z-0.500000
G01 X104.055560 Y119.500000 Z-0.500000
G01 X104.055560 Y114.500000 Z-0.500000
G01 X112.055560 Y114.500000 Z-0.500000
G01 X112.055560 Y119.500000 Z-0.500000
G01 X116.944440 Y119.500000 Z-0.500000
G01 X116.944440 Y114.500000 Z-0.500000
G01 X124.944440 Y114.500000 Z-0.500000
G01 X124.944440 Y119.500000 Z-0.500000
G01 X129.833330 Y119.500000 Z-0.500000
G01 X129.833330 Y114.500000 Z-0.500000
G01 X137.833330 Y114.500000 Z-0.500000
G01 X137.833330 Y119.500000 Z-0.500000
G01 X142.722220 Y119.500000 Z-0.500000
G01 X142.722220 Y114.500000 Z-0.500000
G01 X150.722220 Y114.500000 Z-0.500000
G01 X150.722220 Y119.500000 Z-0.500000
G01 X155.611110 Y119.500000 Z-0.500000
G01 X155.611110 Y114.500000 Z-0.500000
G01 X163.611110 Y114.500000 Z-0.500000
G01 X163.611110 Y119.500000 Z-0.500000
G01 X169.500000 Y119.500000 Z-0.500000
G00 Z20.000000

(End cutting path id: path3957)


(Start cutting path id: path3955)
(Change tool to Cylindrical cutter)

G00 Z20.000000
G00 X0.500000 Y64.500000

G01 Z-0.500000 F100.0(Penetrate)
G01 X0.500000 Y67.700000 Z-0.500000 F400.000000
G01 X0.500000 Y67.700000 Z-0.500000
G01 X0.500000 Y71.700000 Z-0.500000
G01 X0.500000 Y71.700000 Z-0.500000
G01 X0.500000 Y80.900000 Z-0.500000
G01 X0.500000 Y80.900000 Z-0.500000
G01 X0.500000 Y84.900000 Z-0.500000
G01 X0.500000 Y84.900000 Z-0.500000
G01 X0.500000 Y94.100000 Z-0.500000
G01 X0.500000 Y94.100000 Z-0.500000
G01 X0.500000 Y98.100000 Z-0.500000
G01 X0.500000 Y98.100000 Z-0.500000
G01 X0.500000 Y107.300000 Z-0.500000
G01 X0.500000 Y107.300000 Z-0.500000
G01 X0.500000 Y111.300000 Z-0.500000
G01 X0.500000 Y111.300000 Z-0.500000
G01 X0.500000 Y114.500000 Z-0.500000
G00 Z20.000000

(End cutting path id: path3955)


(Start cutting path id: path3953)
(Change tool to Cylindrical cutter)

G00 Z20.000000
G00 X50.500000 Y64.500000

G01 Z-0.500000 F100.0(Penetrate)
G01 X47.300000 Y64.500000 Z-0.500000 F400.000000
G01 X47.300000 Y59.500000 Z-0.500000
G01 X43.300000 Y59.500000 Z-0.500000
G01 X43.300000 Y64.500000 Z-0.500000
G01 X34.100000 Y64.500000 Z-0.500000
G01 X34.100000 Y59.500000 Z-0.500000
G01 X30.100000 Y59.500000 Z-0.500000
G01 X30.100000 Y64.500000 Z-0.500000
G01 X20.900000 Y64.500000 Z-0.500000
G01 X20.900000 Y59.500000 Z-0.500000
G01 X16.900000 Y59.500000 Z-0.500000
G01 X16.900000 Y64.500000 Z-0.500000
G01 X7.700000 Y64.500000 Z-0.500000
G01 X7.700000 Y59.500000 Z-0.500000
G01 X3.700000 Y59.500000 Z-0.500000
G01 X3.700000 Y64.500000 Z-0.500000
G01 X0.500000 Y64.500000 Z-0.500000
G00 Z20.000000

(End cutting path id: path3953)


(Start cutting path id: path3951)
(Change tool to Cylindrical cutter)

G00 Z20.000000
G00 X50.500000 Y114.500000

G01 Z-0.500000 F100.0(Penetrate)
G01 X50.500000 Y111.300000 Z-0.500000 F400.000000
G01 X55.500000 Y111.300000 Z-0.500000
G01 X55.500000 Y107.300000 Z-0.500000
G01 X50.500000 Y107.300000 Z-0.500000
G01 X50.500000 Y98.100000 Z-0.500000
G01 X55.500000 Y98.100000 Z-0.500000
G01 X55.500000 Y94.100000 Z-0.500000
G01 X50.500000 Y94.100000 Z-0.500000
G01 X50.500000 Y84.900000 Z-0.500000
G01 X55.500000 Y84.900000 Z-0.500000
G01 X55.500000 Y80.900000 Z-0.500000
G01 X50.500000 Y80.900000 Z-0.500000
G01 X50.500000 Y71.700000 Z-0.500000
G01 X55.500000 Y71.700000 Z-0.500000
G01 X55.500000 Y67.700000 Z-0.500000
G01 X50.500000 Y67.700000 Z-0.500000
G01 X50.500000 Y64.500000 Z-0.500000
G00 Z20.000000

(End cutting path id: path3951)


(Start cutting path id: path3949)
(Change tool to Cylindrical cutter)

G00 Z20.000000
G00 X0.500000 Y114.500000

G01 Z-0.500000 F100.0(Penetrate)
G01 X3.700000 Y114.500000 Z-0.500000 F400.000000
G01 X3.700000 Y119.500000 Z-0.500000
G01 X7.700000 Y119.500000 Z-0.500000
G01 X7.700000 Y114.500000 Z-0.500000
G01 X16.900000 Y114.500000 Z-0.500000
G01 X16.900000 Y119.500000 Z-0.500000
G01 X20.900000 Y119.500000 Z-0.500000
G01 X20.900000 Y114.500000 Z-0.500000
G01 X30.100000 Y114.500000 Z-0.500000
G01 X30.100000 Y119.500000 Z-0.500000
G01 X34.100000 Y119.500000 Z-0.500000
G01 X34.100000 Y114.500000 Z-0.500000
G01 X43.300000 Y114.500000 Z-0.500000
G01 X43.300000 Y119.500000 Z-0.500000
G01 X47.300000 Y119.500000 Z-0.500000
G01 X47.300000 Y114.500000 Z-0.500000
G01 X50.500000 Y114.500000 Z-0.500000
G00 Z20.000000

(End cutting path id: path3949)


(Start cutting path id: path3947)
(Change tool to Cylindrical cutter)

G00 Z20.000000
G00 X59.500000 Y0.500000

G01 Z-0.500000 F100.0(Penetrate)
G01 X59.500000 Y1.700000 Z-0.500000 F400.000000
G01 X64.500000 Y1.700000 Z-0.500000
G01 X64.500000 Y9.700000 Z-0.500000
G01 X59.500000 Y9.700000 Z-0.500000
G01 X59.500000 Y14.900000 Z-0.500000
G01 X64.500000 Y14.900000 Z-0.500000
G01 X64.500000 Y22.900000 Z-0.500000
G01 X59.500000 Y22.900000 Z-0.500000
G01 X59.500000 Y28.100000 Z-0.500000
G01 X64.500000 Y28.100000 Z-0.500000
G01 X64.500000 Y36.100000 Z-0.500000
G01 X59.500000 Y36.100000 Z-0.500000
G01 X59.500000 Y41.300000 Z-0.500000
G01 X64.500000 Y41.300000 Z-0.500000
G01 X64.500000 Y49.300000 Z-0.500000
G01 X59.500000 Y49.300000 Z-0.500000
G01 X59.500000 Y50.500000 Z-0.500000
G00 Z20.000000

(End cutting path id: path3947)


(Start cutting path id: path3945)
(Change tool to Cylindrical cutter)

G00 Z20.000000
G00 X169.500000 Y0.500000

G01 Z-0.500000 F100.0(Penetrate)
G01 X161.611110 Y0.500000 Z-0.500000 F400.000000
G01 X161.611110 Y0.500000 Z-0.500000
G01 X157.611110 Y0.500000 Z-0.500000
G01 X157.611110 Y0.500000 Z-0.500000
G01 X148.722220 Y0.500000 Z-0.500000
G01 X148.722220 Y0.500000 Z-0.500000
G01 X144.722220 Y0.500000 Z-0.500000
G01 X144.722220 Y0.500000 Z-0.500000
G01 X135.833330 Y0.500000 Z-0.500000
G01 X135.833330 Y0.500000 Z-0.500000
G01 X131.833330 Y0.500000 Z-0.500000
G01 X131.833330 Y0.500000 Z-0.500000
G01 X122.944440 Y0.500000 Z-0.500000
G01 X122.944440 Y0.500000 Z-0.500000
G01 X118.944440 Y0.500000 Z-0.500000
G01 X118.944440 Y0.500000 Z-0.500000
G01 X110.055560 Y0.500000 Z-0.500000
G01 X110.055560 Y0.500000 Z-0.500000
G01 X106.055560 Y0.500000 Z-0.500000
G01 X106.055560 Y0.500000 Z-0.500000
G01 X97.166670 Y0.500000 Z-0.500000
G01 X97.166670 Y0.500000 Z-0.500000
G01 X93.166670 Y0.500000 Z-0.500000
G01 X93.166670 Y0.500000 Z-0.500000
G01 X84.277778 Y0.500000 Z-0.500000
G01 X84.277778 Y0.500000 Z-0.500000
G01 X80.277778 Y0.500000 Z-0.500000
G01 X80.277778 Y0.500000 Z-0.500000
G01 X71.388889 Y0.500000 Z-0.500000
G01 X71.388889 Y0.500000 Z-0.500000
G01 X67.388889 Y0.500000 Z-0.500000
G01 X67.388889 Y0.500000 Z-0.500000
G01 X59.500000 Y0.500000 Z-0.500000
G00 Z20.000000

(End cutting path id: path3945)


(Start cutting path id: path3943)
(Change tool to Cylindrical cutter)

G00 Z20.000000
G00 X169.500000 Y50.500000

G01 Z-0.500000 F100.0(Penetrate)
G01 X169.500000 Y49.300000 Z-0.500000 F400.000000
G01 X164.500000 Y49.300000 Z-0.500000
G01 X164.500000 Y41.300000 Z-0.500000
G01 X169.500000 Y41.300000 Z-0.500000
G01 X169.500000 Y36.100000 Z-0.500000
G01 X164.500000 Y36.100000 Z-0.500000
G01 X164.500000 Y28.100000 Z-0.500000
G01 X169.500000 Y28.100000 Z-0.500000
G01 X169.500000 Y22.900000 Z-0.500000
G01 X164.500000 Y22.900000 Z-0.500000
G01 X164.500000 Y14.900000 Z-0.500000
G01 X169.500000 Y14.900000 Z-0.500000
G01 X169.500000 Y9.700000 Z-0.500000
G01 X164.500000 Y9.700000 Z-0.500000
G01 X164.500000 Y1.700000 Z-0.500000
G01 X169.500000 Y1.700000 Z-0.500000
G01 X169.500000 Y0.500000 Z-0.500000
G00 Z20.000000

(End cutting path id: path3943)


(Start cutting path id: path3941)
(Change tool to Cylindrical cutter)

G00 Z20.000000
G00 X59.500000 Y50.500000

G01 Z-0.500000 F100.0(Penetrate)
G01 X67.388889 Y50.500000 Z-0.500000 F400.000000
G01 X67.388889 Y55.500000 Z-0.500000
G01 X71.388889 Y55.500000 Z-0.500000
G01 X71.388889 Y50.500000 Z-0.500000
G01 X80.277778 Y50.500000 Z-0.500000
G01 X80.277778 Y55.500000 Z-0.500000
G01 X84.277778 Y55.500000 Z-0.500000
G01 X84.277778 Y50.500000 Z-0.500000
G01 X93.166670 Y50.500000 Z-0.500000
G01 X93.166670 Y55.500000 Z-0.500000
G01 X97.166670 Y55.500000 Z-0.500000
G01 X97.166670 Y50.500000 Z-0.500000
G01 X106.055560 Y50.500000 Z-0.500000
G01 X106.055560 Y55.500000 Z-0.500000
G01 X110.055560 Y55.500000 Z-0.500000
G01 X110.055560 Y50.500000 Z-0.500000
G01 X118.944440 Y50.500000 Z-0.500000
G01 X118.944440 Y55.500000 Z-0.500000
G01 X122.944440 Y55.500000 Z-0.500000
G01 X122.944440 Y50.500000 Z-0.500000
G01 X131.833330 Y50.500000 Z-0.500000
G01 X131.833330 Y55.500000 Z-0.500000
G01 X135.833330 Y55.500000 Z-0.500000
G01 X135.833330 Y50.500000 Z-0.500000
G01 X144.722220 Y50.500000 Z-0.500000
G01 X144.722220 Y55.500000 Z-0.500000
G01 X148.722220 Y55.500000 Z-0.500000
G01 X148.722220 Y50.500000 Z-0.500000
G01 X157.611110 Y50.500000 Z-0.500000
G01 X157.611110 Y55.500000 Z-0.500000
G01 X161.611110 Y55.500000 Z-0.500000
G01 X161.611110 Y50.500000 Z-0.500000
G01 X169.500000 Y50.500000 Z-0.500000
G00 Z20.000000

(End cutting path id: path3941)


(Footer)
M5
G00 X0.0000 Y0.0000
M2
(Using default footer. To add your own footer create file "footer" in the output dir.)
(end)
%