%
(Header)
(Generated by gcodetools from Inkscape.)
(Using default header. To add your own header create file "header" in the output dir.)
M3
(Header end.)
G21 (All units in mm)

(Start cutting path id: path358)
(Change tool to Cylindrical cutter)

G00 Z20.000000
G00 X57.500000 Y167.500000

G01 Z-0.500000 F100.0(Penetrate)
G01 X57.500000 Y170.945000 Z-0.500000 F400.000000
G01 X60.500000 Y170.945000 Z-0.500000
G01 X60.500000 Y176.855000 Z-0.500000
G01 X57.500000 Y176.855000 Z-0.500000
G01 X57.500000 Y183.345000 Z-0.500000
G01 X60.500000 Y183.345000 Z-0.500000
G01 X60.500000 Y189.255000 Z-0.500000
G01 X57.500000 Y189.255000 Z-0.500000
G01 X57.500000 Y195.745000 Z-0.500000
G01 X60.500000 Y195.745000 Z-0.500000
G01 X60.500000 Y201.655000 Z-0.500000
G01 X57.500000 Y201.655000 Z-0.500000
G01 X57.500000 Y208.145000 Z-0.500000
G01 X60.500000 Y208.145000 Z-0.500000
G01 X60.500000 Y214.055000 Z-0.500000
G01 X57.500000 Y214.055000 Z-0.500000
G01 X57.500000 Y217.500000 Z-0.500000
G00 Z20.000000

(End cutting path id: path358)


(Start cutting path id: path356)
(Change tool to Cylindrical cutter)

G00 Z20.000000
G00 X163.500000 Y167.500000

G01 Z-0.500000 F100.0(Penetrate)
G01 X157.100560 Y167.500000 Z-0.500000 F400.000000
G01 X157.100560 Y164.500000 Z-0.500000
G01 X151.010560 Y164.500000 Z-0.500000
G01 X151.010560 Y167.500000 Z-0.500000
G01 X144.656110 Y167.500000 Z-0.500000
G01 X144.656110 Y164.500000 Z-0.500000
G01 X138.566110 Y164.500000 Z-0.500000
G01 X138.566110 Y167.500000 Z-0.500000
G01 X132.211670 Y167.500000 Z-0.500000
G01 X132.211670 Y164.500000 Z-0.500000
G01 X126.121670 Y164.500000 Z-0.500000
G01 X126.121670 Y167.500000 Z-0.500000
G01 X119.767220 Y167.500000 Z-0.500000
G01 X119.767220 Y164.500000 Z-0.500000
G01 X113.677220 Y164.500000 Z-0.500000
G01 X113.677220 Y167.500000 Z-0.500000
G01 X107.322780 Y167.500000 Z-0.500000
G01 X107.322780 Y164.500000 Z-0.500000
G01 X101.232780 Y164.500000 Z-0.500000
G01 X101.232780 Y167.500000 Z-0.500000
G01 X94.878333 Y167.500000 Z-0.500000
G01 X94.878333 Y164.500000 Z-0.500000
G01 X88.788333 Y164.500000 Z-0.500000
G01 X88.788333 Y167.500000 Z-0.500000
G01 X82.433889 Y167.500000 Z-0.500000
G01 X82.433889 Y164.500000 Z-0.500000
G01 X76.343889 Y164.500000 Z-0.500000
G01 X76.343889 Y167.500000 Z-0.500000
G01 X69.989444 Y167.500000 Z-0.500000
G01 X69.989444 Y164.500000 Z-0.500000
G01 X63.899444 Y164.500000 Z-0.500000
G01 X63.899444 Y167.500000 Z-0.500000
G01 X57.500000 Y167.500000 Z-0.500000
G00 Z20.000000

(End cutting path id: path356)


(Start cutting path id: path354)
(Change tool to Cylindrical cutter)

G00 Z20.000000
G00 X163.500000 Y217.500000

G01 Z-0.500000 F100.0(Penetrate)
G01 X163.500000 Y214.055000 Z-0.500000 F400.000000
G01 X160.500000 Y214.055000 Z-0.500000
G01 X160.500000 Y208.145000 Z-0.500000
G01 X163.500000 Y208.145000 Z-0.500000
G01 X163.500000 Y201.655000 Z-0.500000
G01 X160.500000 Y201.655000 Z-0.500000
G01 X160.500000 Y195.745000 Z-0.500000
G01 X163.500000 Y195.745000 Z-0.500000
G01 X163.500000 Y189.255000 Z-0.500000
G01 X160.500000 Y189.255000 Z-0.500000
G01 X160.500000 Y183.345000 Z-0.500000
G01 X163.500000 Y183.345000 Z-0.500000
G01 X163.500000 Y176.855000 Z-0.500000
G01 X160.500000 Y176.855000 Z-0.500000
G01 X160.500000 Y170.945000 Z-0.500000
G01 X163.500000 Y170.945000 Z-0.500000
G01 X163.500000 Y167.500000 Z-0.500000
G00 Z20.000000

(End cutting path id: path354)


(Start cutting path id: path352)
(Change tool to Cylindrical cutter)

G00 Z20.000000
G00 X57.500000 Y217.500000

G01 Z-0.500000 F100.0(Penetrate)
G01 X63.899444 Y217.500000 Z-0.500000 F400.000000
G01 X63.899444 Y220.500000 Z-0.500000
G01 X69.989444 Y220.500000 Z-0.500000
G01 X69.989444 Y217.500000 Z-0.500000
G01 X76.343889 Y217.500000 Z-0.500000
G01 X76.343889 Y220.500000 Z-0.500000
G01 X82.433889 Y220.500000 Z-0.500000
G01 X82.433889 Y217.500000 Z-0.500000
G01 X88.788333 Y217.500000 Z-0.500000
G01 X88.788333 Y220.500000 Z-0.500000
G01 X94.878333 Y220.500000 Z-0.500000
G01 X94.878333 Y217.500000 Z-0.500000
G01 X101.232780 Y217.500000 Z-0.500000
G01 X101.232780 Y220.500000 Z-0.500000
G01 X107.322780 Y220.500000 Z-0.500000
G01 X107.322780 Y217.500000 Z-0.500000
G01 X113.677220 Y217.500000 Z-0.500000
G01 X113.677220 Y220.500000 Z-0.500000
G01 X119.767220 Y220.500000 Z-0.500000
G01 X119.767220 Y217.500000 Z-0.500000
G01 X126.121670 Y217.500000 Z-0.500000
G01 X126.121670 Y220.500000 Z-0.500000
G01 X132.211670 Y220.500000 Z-0.500000
G01 X132.211670 Y217.500000 Z-0.500000
G01 X138.566110 Y217.500000 Z-0.500000
G01 X138.566110 Y220.500000 Z-0.500000
G01 X144.656110 Y220.500000 Z-0.500000
G01 X144.656110 Y217.500000 Z-0.500000
G01 X151.010560 Y217.500000 Z-0.500000
G01 X151.010560 Y220.500000 Z-0.500000
G01 X157.100560 Y220.500000 Z-0.500000
G01 X157.100560 Y217.500000 Z-0.500000
G01 X163.500000 Y217.500000 Z-0.500000
G00 Z20.000000

(End cutting path id: path352)


(Start cutting path id: path350)
(Change tool to Cylindrical cutter)

G00 Z20.000000
G00 X221.500000 Y57.500000

G01 Z-0.500000 F100.0(Penetrate)
G01 X221.500000 Y63.989440 Z-0.500000 F400.000000
G01 X224.500000 Y63.989440 Z-0.500000
G01 X224.500000 Y69.899440 Z-0.500000
G01 X221.500000 Y69.899440 Z-0.500000
G01 X221.500000 Y76.433890 Z-0.500000
G01 X224.500000 Y76.433890 Z-0.500000
G01 X224.500000 Y82.343890 Z-0.500000
G01 X221.500000 Y82.343890 Z-0.500000
G01 X221.500000 Y88.878330 Z-0.500000
G01 X224.500000 Y88.878330 Z-0.500000
G01 X224.500000 Y94.788330 Z-0.500000
G01 X221.500000 Y94.788330 Z-0.500000
G01 X221.500000 Y101.322780 Z-0.500000
G01 X224.500000 Y101.322780 Z-0.500000
G01 X224.500000 Y107.232780 Z-0.500000
G01 X221.500000 Y107.232780 Z-0.500000
G01 X221.500000 Y113.767220 Z-0.500000
G01 X224.500000 Y113.767220 Z-0.500000
G01 X224.500000 Y119.677220 Z-0.500000
G01 X221.500000 Y119.677220 Z-0.500000
G01 X221.500000 Y126.211667 Z-0.500000
G01 X224.500000 Y126.211667 Z-0.500000
G01 X224.500000 Y132.121667 Z-0.500000
G01 X221.500000 Y132.121667 Z-0.500000
G01 X221.500000 Y138.656111 Z-0.500000
G01 X224.500000 Y138.656111 Z-0.500000
G01 X224.500000 Y144.566111 Z-0.500000
G01 X221.500000 Y144.566111 Z-0.500000
G01 X221.500000 Y151.100556 Z-0.500000
G01 X224.500000 Y151.100556 Z-0.500000
G01 X224.500000 Y157.010556 Z-0.500000
G01 X221.500000 Y157.010556 Z-0.500000
G01 X221.500000 Y163.500000 Z-0.500000
G00 Z20.000000

(End cutting path id: path350)


(Start cutting path id: path348)
(Change tool to Cylindrical cutter)

G00 Z20.000000
G00 X327.500000 Y57.500000

G01 Z-0.500000 F100.0(Penetrate)
G01 X321.010560 Y57.500000 Z-0.500000 F400.000000
G01 X321.010560 Y60.500000 Z-0.500000
G01 X315.100560 Y60.500000 Z-0.500000
G01 X315.100560 Y57.500000 Z-0.500000
G01 X308.566110 Y57.500000 Z-0.500000
G01 X308.566110 Y60.500000 Z-0.500000
G01 X302.656110 Y60.500000 Z-0.500000
G01 X302.656110 Y57.500000 Z-0.500000
G01 X296.121670 Y57.500000 Z-0.500000
G01 X296.121670 Y60.500000 Z-0.500000
G01 X290.211670 Y60.500000 Z-0.500000
G01 X290.211670 Y57.500000 Z-0.500000
G01 X283.677220 Y57.500000 Z-0.500000
G01 X283.677220 Y60.500000 Z-0.500000
G01 X277.767220 Y60.500000 Z-0.500000
G01 X277.767220 Y57.500000 Z-0.500000
G01 X271.232780 Y57.500000 Z-0.500000
G01 X271.232780 Y60.500000 Z-0.500000
G01 X265.322780 Y60.500000 Z-0.500000
G01 X265.322780 Y57.500000 Z-0.500000
G01 X258.788330 Y57.500000 Z-0.500000
G01 X258.788330 Y60.500000 Z-0.500000
G01 X252.878330 Y60.500000 Z-0.500000
G01 X252.878330 Y57.500000 Z-0.500000
G01 X246.343890 Y57.500000 Z-0.500000
G01 X246.343890 Y60.500000 Z-0.500000
G01 X240.433890 Y60.500000 Z-0.500000
G01 X240.433890 Y57.500000 Z-0.500000
G01 X233.899440 Y57.500000 Z-0.500000
G01 X233.899440 Y60.500000 Z-0.500000
G01 X227.989440 Y60.500000 Z-0.500000
G01 X227.989440 Y57.500000 Z-0.500000
G01 X221.500000 Y57.500000 Z-0.500000
G00 Z20.000000

(End cutting path id: path348)


(Start cutting path id: path346)
(Change tool to Cylindrical cutter)

G00 Z20.000000
G00 X327.500000 Y163.500000

G01 Z-0.500000 F100.0(Penetrate)
G01 X327.500000 Y157.010556 Z-0.500000 F400.000000
G01 X324.500000 Y157.010556 Z-0.500000
G01 X324.500000 Y151.100556 Z-0.500000
G01 X327.500000 Y151.100556 Z-0.500000
G01 X327.500000 Y144.566111 Z-0.500000
G01 X324.500000 Y144.566111 Z-0.500000
G01 X324.500000 Y138.656111 Z-0.500000
G01 X327.500000 Y138.656111 Z-0.500000
G01 X327.500000 Y132.121667 Z-0.500000
G01 X324.500000 Y132.121667 Z-0.500000
G01 X324.500000 Y126.211667 Z-0.500000
G01 X327.500000 Y126.211667 Z-0.500000
G01 X327.500000 Y119.677220 Z-0.500000
G01 X324.500000 Y119.677220 Z-0.500000
G01 X324.500000 Y113.767220 Z-0.500000
G01 X327.500000 Y113.767220 Z-0.500000
G01 X327.500000 Y107.232780 Z-0.500000
G01 X324.500000 Y107.232780 Z-0.500000
G01 X324.500000 Y101.322780 Z-0.500000
G01 X327.500000 Y101.322780 Z-0.500000
G01 X327.500000 Y94.788330 Z-0.500000
G01 X324.500000 Y94.788330 Z-0.500000
G01 X324.500000 Y88.878330 Z-0.500000
G01 X327.500000 Y88.878330 Z-0.500000
G01 X327.500000 Y82.343890 Z-0.500000
G01 X324.500000 Y82.343890 Z-0.500000
G01 X324.500000 Y76.433890 Z-0.500000
G01 X327.500000 Y76.433890 Z-0.500000
G01 X327.500000 Y69.899440 Z-0.500000
G01 X324.500000 Y69.899440 Z-0.500000
G01 X324.500000 Y63.989440 Z-0.500000
G01 X327.500000 Y63.989440 Z-0.500000
G01 X327.500000 Y57.500000 Z-0.500000
G00 Z20.000000

(End cutting path id: path346)


(Start cutting path id: path344)
(Change tool to Cylindrical cutter)

G00 Z20.000000
G00 X221.500000 Y163.500000

G01 Z-0.500000 F100.0(Penetrate)
G01 X227.989440 Y163.500000 Z-0.500000 F400.000000
G01 X227.989440 Y160.500000 Z-0.500000
G01 X233.899440 Y160.500000 Z-0.500000
G01 X233.899440 Y163.500000 Z-0.500000
G01 X240.433890 Y163.500000 Z-0.500000
G01 X240.433890 Y160.500000 Z-0.500000
G01 X246.343890 Y160.500000 Z-0.500000
G01 X246.343890 Y163.500000 Z-0.500000
G01 X252.878330 Y163.500000 Z-0.500000
G01 X252.878330 Y160.500000 Z-0.500000
G01 X258.788330 Y160.500000 Z-0.500000
G01 X258.788330 Y163.500000 Z-0.500000
G01 X265.322780 Y163.500000 Z-0.500000
G01 X265.322780 Y160.500000 Z-0.500000
G01 X271.232780 Y160.500000 Z-0.500000
G01 X271.232780 Y163.500000 Z-0.500000
G01 X277.767220 Y163.500000 Z-0.500000
G01 X277.767220 Y160.500000 Z-0.500000
G01 X283.677220 Y160.500000 Z-0.500000
G01 X283.677220 Y163.500000 Z-0.500000
G01 X290.211670 Y163.500000 Z-0.500000
G01 X290.211670 Y160.500000 Z-0.500000
G01 X296.121670 Y160.500000 Z-0.500000
G01 X296.121670 Y163.500000 Z-0.500000
G01 X302.656110 Y163.500000 Z-0.500000
G01 X302.656110 Y160.500000 Z-0.500000
G01 X308.566110 Y160.500000 Z-0.500000
G01 X308.566110 Y163.500000 Z-0.500000
G01 X315.100560 Y163.500000 Z-0.500000
G01 X315.100560 Y160.500000 Z-0.500000
G01 X321.010560 Y160.500000 Z-0.500000
G01 X321.010560 Y163.500000 Z-0.500000
G01 X327.500000 Y163.500000 Z-0.500000
G00 Z20.000000

(End cutting path id: path344)


(Start cutting path id: path342)
(Change tool to Cylindrical cutter)

G00 Z20.000000
G00 X167.500000 Y60.500000

G01 Z-0.500000 F100.0(Penetrate)
G01 X167.500000 Y63.899440 Z-0.500000 F400.000000
G01 X164.500000 Y63.899440 Z-0.500000
G01 X164.500000 Y69.989440 Z-0.500000
G01 X167.500000 Y69.989440 Z-0.500000
G01 X167.500000 Y76.343890 Z-0.500000
G01 X164.500000 Y76.343890 Z-0.500000
G01 X164.500000 Y82.433890 Z-0.500000
G01 X167.500000 Y82.433890 Z-0.500000
G01 X167.500000 Y88.788330 Z-0.500000
G01 X164.500000 Y88.788330 Z-0.500000
G01 X164.500000 Y94.878330 Z-0.500000
G01 X167.500000 Y94.878330 Z-0.500000
G01 X167.500000 Y101.232780 Z-0.500000
G01 X164.500000 Y101.232780 Z-0.500000
G01 X164.500000 Y107.322780 Z-0.500000
G01 X167.500000 Y107.322780 Z-0.500000
G01 X167.500000 Y113.677220 Z-0.500000
G01 X164.500000 Y113.677220 Z-0.500000
G01 X164.500000 Y119.767220 Z-0.500000
G01 X167.500000 Y119.767220 Z-0.500000
G01 X167.500000 Y126.121667 Z-0.500000
G01 X164.500000 Y126.121667 Z-0.500000
G01 X164.500000 Y132.211667 Z-0.500000
G01 X167.500000 Y132.211667 Z-0.500000
G01 X167.500000 Y138.566111 Z-0.500000
G01 X164.500000 Y138.566111 Z-0.500000
G01 X164.500000 Y144.656111 Z-0.500000
G01 X167.500000 Y144.656111 Z-0.500000
G01 X167.500000 Y151.010556 Z-0.500000
G01 X164.500000 Y151.010556 Z-0.500000
G01 X164.500000 Y157.100556 Z-0.500000
G01 X167.500000 Y157.100556 Z-0.500000
G01 X167.500000 Y160.500000 Z-0.500000
G00 Z20.000000

(End cutting path id: path342)


(Start cutting path id: path340)
(Change tool to Cylindrical cutter)

G00 Z20.000000
G00 X217.500000 Y60.500000

G01 Z-0.500000 F100.0(Penetrate)
G01 X214.145000 Y60.500000 Z-0.500000 F400.000000
G01 X214.145000 Y57.500000 Z-0.500000
G01 X208.055000 Y57.500000 Z-0.500000
G01 X208.055000 Y60.500000 Z-0.500000
G01 X201.745000 Y60.500000 Z-0.500000
G01 X201.745000 Y57.500000 Z-0.500000
G01 X195.655000 Y57.500000 Z-0.500000
G01 X195.655000 Y60.500000 Z-0.500000
G01 X189.345000 Y60.500000 Z-0.500000
G01 X189.345000 Y57.500000 Z-0.500000
G01 X183.255000 Y57.500000 Z-0.500000
G01 X183.255000 Y60.500000 Z-0.500000
G01 X176.945000 Y60.500000 Z-0.500000
G01 X176.945000 Y57.500000 Z-0.500000
G01 X170.855000 Y57.500000 Z-0.500000
G01 X170.855000 Y60.500000 Z-0.500000
G01 X167.500000 Y60.500000 Z-0.500000
G00 Z20.000000

(End cutting path id: path340)


(Start cutting path id: path338)
(Change tool to Cylindrical cutter)

G00 Z20.000000
G00 X217.500000 Y160.500000

G01 Z-0.500000 F100.0(Penetrate)
G01 X217.500000 Y157.100556 Z-0.500000 F400.000000
G01 X220.500000 Y157.100556 Z-0.500000
G01 X220.500000 Y151.010556 Z-0.500000
G01 X217.500000 Y151.010556 Z-0.500000
G01 X217.500000 Y144.656111 Z-0.500000
G01 X220.500000 Y144.656111 Z-0.500000
G01 X220.500000 Y138.566111 Z-0.500000
G01 X217.500000 Y138.566111 Z-0.500000
G01 X217.500000 Y132.211667 Z-0.500000
G01 X220.500000 Y132.211667 Z-0.500000
G01 X220.500000 Y126.121667 Z-0.500000
G01 X217.500000 Y126.121667 Z-0.500000
G01 X217.500000 Y119.767220 Z-0.500000
G01 X220.500000 Y119.767220 Z-0.500000
G01 X220.500000 Y113.677220 Z-0.500000
G01 X217.500000 Y113.677220 Z-0.500000
G01 X217.500000 Y107.322780 Z-0.500000
G01 X220.500000 Y107.322780 Z-0.500000
G01 X220.500000 Y101.232780 Z-0.500000
G01 X217.500000 Y101.232780 Z-0.500000
G01 X217.500000 Y94.878330 Z-0.500000
G01 X220.500000 Y94.878330 Z-0.500000
G01 X220.500000 Y88.788330 Z-0.500000
G01 X217.500000 Y88.788330 Z-0.500000
G01 X217.500000 Y82.433890 Z-0.500000
G01 X220.500000 Y82.433890 Z-0.500000
G01 X220.500000 Y76.343890 Z-0.500000
G01 X217.500000 Y76.343890 Z-0.500000
G01 X217.500000 Y69.989440 Z-0.500000
G01 X220.500000 Y69.989440 Z-0.500000
G01 X220.500000 Y63.899440 Z-0.500000
G01 X217.500000 Y63.899440 Z-0.500000
G01 X217.500000 Y60.500000 Z-0.500000
G00 Z20.000000

(End cutting path id: path338)


(Start cutting path id: path336)
(Change tool to Cylindrical cutter)

G00 Z20.000000
G00 X167.500000 Y160.500000

G01 Z-0.500000 F100.0(Penetrate)
G01 X170.855000 Y160.500000 Z-0.500000 F400.000000
G01 X170.855000 Y163.500000 Z-0.500000
G01 X176.945000 Y163.500000 Z-0.500000
G01 X176.945000 Y160.500000 Z-0.500000
G01 X183.255000 Y160.500000 Z-0.500000
G01 X183.255000 Y163.500000 Z-0.500000
G01 X189.345000 Y163.500000 Z-0.500000
G01 X189.345000 Y160.500000 Z-0.500000
G01 X195.655000 Y160.500000 Z-0.500000
G01 X195.655000 Y163.500000 Z-0.500000
G01 X201.745000 Y163.500000 Z-0.500000
G01 X201.745000 Y160.500000 Z-0.500000
G01 X208.055000 Y160.500000 Z-0.500000
G01 X208.055000 Y163.500000 Z-0.500000
G01 X214.145000 Y163.500000 Z-0.500000
G01 X214.145000 Y160.500000 Z-0.500000
G01 X217.500000 Y160.500000 Z-0.500000
G00 Z20.000000

(End cutting path id: path336)


(Start cutting path id: path334)
(Change tool to Cylindrical cutter)

G00 Z20.000000
G00 X57.500000 Y57.500000

G01 Z-0.500000 F100.0(Penetrate)
G01 X57.500000 Y63.989440 Z-0.500000 F400.000000
G01 X60.500000 Y63.989440 Z-0.500000
G01 X60.500000 Y69.899440 Z-0.500000
G01 X57.500000 Y69.899440 Z-0.500000
G01 X57.500000 Y76.433890 Z-0.500000
G01 X60.500000 Y76.433890 Z-0.500000
G01 X60.500000 Y82.343890 Z-0.500000
G01 X57.500000 Y82.343890 Z-0.500000
G01 X57.500000 Y88.878330 Z-0.500000
G01 X60.500000 Y88.878330 Z-0.500000
G01 X60.500000 Y94.788330 Z-0.500000
G01 X57.500000 Y94.788330 Z-0.500000
G01 X57.500000 Y101.322780 Z-0.500000
G01 X60.500000 Y101.322780 Z-0.500000
G01 X60.500000 Y107.232780 Z-0.500000
G01 X57.500000 Y107.232780 Z-0.500000
G01 X57.500000 Y113.767220 Z-0.500000
G01 X60.500000 Y113.767220 Z-0.500000
G01 X60.500000 Y119.677220 Z-0.500000
G01 X57.500000 Y119.677220 Z-0.500000
G01 X57.500000 Y126.211667 Z-0.500000
G01 X60.500000 Y126.211667 Z-0.500000
G01 X60.500000 Y132.121667 Z-0.500000
G01 X57.500000 Y132.121667 Z-0.500000
G01 X57.500000 Y138.656111 Z-0.500000
G01 X60.500000 Y138.656111 Z-0.500000
G01 X60.500000 Y144.566111 Z-0.500000
G01 X57.500000 Y144.566111 Z-0.500000
G01 X57.500000 Y151.100556 Z-0.500000
G01 X60.500000 Y151.100556 Z-0.500000
G01 X60.500000 Y157.010556 Z-0.500000
G01 X57.500000 Y157.010556 Z-0.500000
G01 X57.500000 Y163.500000 Z-0.500000
G00 Z20.000000

(End cutting path id: path334)


(Start cutting path id: path332)
(Change tool to Cylindrical cutter)

G00 Z20.000000
G00 X163.500000 Y57.500000

G01 Z-0.500000 F100.0(Penetrate)
G01 X157.010560 Y57.500000 Z-0.500000 F400.000000
G01 X157.010560 Y60.500000 Z-0.500000
G01 X151.100560 Y60.500000 Z-0.500000
G01 X151.100560 Y57.500000 Z-0.500000
G01 X144.566110 Y57.500000 Z-0.500000
G01 X144.566110 Y60.500000 Z-0.500000
G01 X138.656110 Y60.500000 Z-0.500000
G01 X138.656110 Y57.500000 Z-0.500000
G01 X132.121670 Y57.500000 Z-0.500000
G01 X132.121670 Y60.500000 Z-0.500000
G01 X126.211670 Y60.500000 Z-0.500000
G01 X126.211670 Y57.500000 Z-0.500000
G01 X119.677220 Y57.500000 Z-0.500000
G01 X119.677220 Y60.500000 Z-0.500000
G01 X113.767220 Y60.500000 Z-0.500000
G01 X113.767220 Y57.500000 Z-0.500000
G01 X107.232780 Y57.500000 Z-0.500000
G01 X107.232780 Y60.500000 Z-0.500000
G01 X101.322780 Y60.500000 Z-0.500000
G01 X101.322780 Y57.500000 Z-0.500000
G01 X94.788333 Y57.500000 Z-0.500000
G01 X94.788333 Y60.500000 Z-0.500000
G01 X88.878333 Y60.500000 Z-0.500000
G01 X88.878333 Y57.500000 Z-0.500000
G01 X82.343889 Y57.500000 Z-0.500000
G01 X82.343889 Y60.500000 Z-0.500000
G01 X76.433889 Y60.500000 Z-0.500000
G01 X76.433889 Y57.500000 Z-0.500000
G01 X69.899444 Y57.500000 Z-0.500000
G01 X69.899444 Y60.500000 Z-0.500000
G01 X63.989444 Y60.500000 Z-0.500000
G01 X63.989444 Y57.500000 Z-0.500000
G01 X57.500000 Y57.500000 Z-0.500000
G00 Z20.000000

(End cutting path id: path332)


(Start cutting path id: path330)
(Change tool to Cylindrical cutter)

G00 Z20.000000
G00 X163.500000 Y163.500000

G01 Z-0.500000 F100.0(Penetrate)
G01 X163.500000 Y157.010556 Z-0.500000 F400.000000
G01 X160.500000 Y157.010556 Z-0.500000
G01 X160.500000 Y151.100556 Z-0.500000
G01 X163.500000 Y151.100556 Z-0.500000
G01 X163.500000 Y144.566111 Z-0.500000
G01 X160.500000 Y144.566111 Z-0.500000
G01 X160.500000 Y138.656111 Z-0.500000
G01 X163.500000 Y138.656111 Z-0.500000
G01 X163.500000 Y132.121667 Z-0.500000
G01 X160.500000 Y132.121667 Z-0.500000
G01 X160.500000 Y126.211667 Z-0.500000
G01 X163.500000 Y126.211667 Z-0.500000
G01 X163.500000 Y119.677220 Z-0.500000
G01 X160.500000 Y119.677220 Z-0.500000
G01 X160.500000 Y113.767220 Z-0.500000
G01 X163.500000 Y113.767220 Z-0.500000
G01 X163.500000 Y107.232780 Z-0.500000
G01 X160.500000 Y107.232780 Z-0.500000
G01 X160.500000 Y101.322780 Z-0.500000
G01 X163.500000 Y101.322780 Z-0.500000
G01 X163.500000 Y94.788330 Z-0.500000
G01 X160.500000 Y94.788330 Z-0.500000
G01 X160.500000 Y88.878330 Z-0.500000
G01 X163.500000 Y88.878330 Z-0.500000
G01 X163.500000 Y82.343890 Z-0.500000
G01 X160.500000 Y82.343890 Z-0.500000
G01 X160.500000 Y76.433890 Z-0.500000
G01 X163.500000 Y76.433890 Z-0.500000
G01 X163.500000 Y69.899440 Z-0.500000
G01 X160.500000 Y69.899440 Z-0.500000
G01 X160.500000 Y63.989440 Z-0.500000
G01 X163.500000 Y63.989440 Z-0.500000
G01 X163.500000 Y57.500000 Z-0.500000
G00 Z20.000000

(End cutting path id: path330)


(Start cutting path id: path328)
(Change tool to Cylindrical cutter)

G00 Z20.000000
G00 X57.500000 Y163.500000

G01 Z-0.500000 F100.0(Penetrate)
G01 X63.989444 Y163.500000 Z-0.500000 F400.000000
G01 X63.989444 Y160.500000 Z-0.500000
G01 X69.899444 Y160.500000 Z-0.500000
G01 X69.899444 Y163.500000 Z-0.500000
G01 X76.433889 Y163.500000 Z-0.500000
G01 X76.433889 Y160.500000 Z-0.500000
G01 X82.343889 Y160.500000 Z-0.500000
G01 X82.343889 Y163.500000 Z-0.500000
G01 X88.878333 Y163.500000 Z-0.500000
G01 X88.878333 Y160.500000 Z-0.500000
G01 X94.788333 Y160.500000 Z-0.500000
G01 X94.788333 Y163.500000 Z-0.500000
G01 X101.322780 Y163.500000 Z-0.500000
G01 X101.322780 Y160.500000 Z-0.500000
G01 X107.232780 Y160.500000 Z-0.500000
G01 X107.232780 Y163.500000 Z-0.500000
G01 X113.767220 Y163.500000 Z-0.500000
G01 X113.767220 Y160.500000 Z-0.500000
G01 X119.677220 Y160.500000 Z-0.500000
G01 X119.677220 Y163.500000 Z-0.500000
G01 X126.211670 Y163.500000 Z-0.500000
G01 X126.211670 Y160.500000 Z-0.500000
G01 X132.121670 Y160.500000 Z-0.500000
G01 X132.121670 Y163.500000 Z-0.500000
G01 X138.656110 Y163.500000 Z-0.500000
G01 X138.656110 Y160.500000 Z-0.500000
G01 X144.566110 Y160.500000 Z-0.500000
G01 X144.566110 Y163.500000 Z-0.500000
G01 X151.100560 Y163.500000 Z-0.500000
G01 X151.100560 Y160.500000 Z-0.500000
G01 X157.010560 Y160.500000 Z-0.500000
G01 X157.010560 Y163.500000 Z-0.500000
G01 X163.500000 Y163.500000 Z-0.500000
G00 Z20.000000

(End cutting path id: path328)


(Start cutting path id: path290)
(Change tool to Cylindrical cutter)

G00 Z20.000000
G00 X3.500000 Y60.500000

G01 Z-0.500000 F100.0(Penetrate)
G01 X3.500000 Y63.899440 Z-0.500000 F400.000000
G01 X0.500000 Y63.899440 Z-0.500000
G01 X0.500000 Y69.989440 Z-0.500000
G01 X3.500000 Y69.989440 Z-0.500000
G01 X3.500000 Y76.343890 Z-0.500000
G01 X0.500000 Y76.343890 Z-0.500000
G01 X0.500000 Y82.433890 Z-0.500000
G01 X3.500000 Y82.433890 Z-0.500000
G01 X3.500000 Y88.788330 Z-0.500000
G01 X0.500000 Y88.788330 Z-0.500000
G01 X0.500000 Y94.878330 Z-0.500000
G01 X3.500000 Y94.878330 Z-0.500000
G01 X3.500000 Y101.232780 Z-0.500000
G01 X0.500000 Y101.232780 Z-0.500000
G01 X0.500000 Y107.322780 Z-0.500000
G01 X3.500000 Y107.322780 Z-0.500000
G01 X3.500000 Y113.677220 Z-0.500000
G01 X0.500000 Y113.677220 Z-0.500000
G01 X0.500000 Y119.767220 Z-0.500000
G01 X3.500000 Y119.767220 Z-0.500000
G01 X3.500000 Y126.121667 Z-0.500000
G01 X0.500000 Y126.121667 Z-0.500000
G01 X0.500000 Y132.211667 Z-0.500000
G01 X3.500000 Y132.211667 Z-0.500000
G01 X3.500000 Y138.566111 Z-0.500000
G01 X0.500000 Y138.566111 Z-0.500000
G01 X0.500000 Y144.656111 Z-0.500000
G01 X3.500000 Y144.656111 Z-0.500000
G01 X3.500000 Y151.010556 Z-0.500000
G01 X0.500000 Y151.010556 Z-0.500000
G01 X0.500000 Y157.100556 Z-0.500000
G01 X3.500000 Y157.100556 Z-0.500000
G01 X3.500000 Y160.500000 Z-0.500000
G00 Z20.000000

(End cutting path id: path290)


(Start cutting path id: path288)
(Change tool to Cylindrical cutter)

G00 Z20.000000
G00 X53.500000 Y60.500000

G01 Z-0.500000 F100.0(Penetrate)
G01 X50.145000 Y60.500000 Z-0.500000 F400.000000
G01 X50.145000 Y57.500000 Z-0.500000
G01 X44.055000 Y57.500000 Z-0.500000
G01 X44.055000 Y60.500000 Z-0.500000
G01 X37.745000 Y60.500000 Z-0.500000
G01 X37.745000 Y57.500000 Z-0.500000
G01 X31.655000 Y57.500000 Z-0.500000
G01 X31.655000 Y60.500000 Z-0.500000
G01 X25.345000 Y60.500000 Z-0.500000
G01 X25.345000 Y57.500000 Z-0.500000
G01 X19.255000 Y57.500000 Z-0.500000
G01 X19.255000 Y60.500000 Z-0.500000
G01 X12.945000 Y60.500000 Z-0.500000
G01 X12.945000 Y57.500000 Z-0.500000
G01 X6.855000 Y57.500000 Z-0.500000
G01 X6.855000 Y60.500000 Z-0.500000
G01 X3.500000 Y60.500000 Z-0.500000
G00 Z20.000000

(End cutting path id: path288)


(Start cutting path id: path286)
(Change tool to Cylindrical cutter)

G00 Z20.000000
G00 X53.500000 Y160.500000

G01 Z-0.500000 F100.0(Penetrate)
G01 X53.500000 Y157.100556 Z-0.500000 F400.000000
G01 X56.500000 Y157.100556 Z-0.500000
G01 X56.500000 Y151.010556 Z-0.500000
G01 X53.500000 Y151.010556 Z-0.500000
G01 X53.500000 Y144.656111 Z-0.500000
G01 X56.500000 Y144.656111 Z-0.500000
G01 X56.500000 Y138.566111 Z-0.500000
G01 X53.500000 Y138.566111 Z-0.500000
G01 X53.500000 Y132.211667 Z-0.500000
G01 X56.500000 Y132.211667 Z-0.500000
G01 X56.500000 Y126.121667 Z-0.500000
G01 X53.500000 Y126.121667 Z-0.500000
G01 X53.500000 Y119.767220 Z-0.500000
G01 X56.500000 Y119.767220 Z-0.500000
G01 X56.500000 Y113.677220 Z-0.500000
G01 X53.500000 Y113.677220 Z-0.500000
G01 X53.500000 Y107.322780 Z-0.500000
G01 X56.500000 Y107.322780 Z-0.500000
G01 X56.500000 Y101.232780 Z-0.500000
G01 X53.500000 Y101.232780 Z-0.500000
G01 X53.500000 Y94.878330 Z-0.500000
G01 X56.500000 Y94.878330 Z-0.500000
G01 X56.500000 Y88.788330 Z-0.500000
G01 X53.500000 Y88.788330 Z-0.500000
G01 X53.500000 Y82.433890 Z-0.500000
G01 X56.500000 Y82.433890 Z-0.500000
G01 X56.500000 Y76.343890 Z-0.500000
G01 X53.500000 Y76.343890 Z-0.500000
G01 X53.500000 Y69.989440 Z-0.500000
G01 X56.500000 Y69.989440 Z-0.500000
G01 X56.500000 Y63.899440 Z-0.500000
G01 X53.500000 Y63.899440 Z-0.500000
G01 X53.500000 Y60.500000 Z-0.500000
G00 Z20.000000

(End cutting path id: path286)


(Start cutting path id: path284)
(Change tool to Cylindrical cutter)

G00 Z20.000000
G00 X3.500000 Y160.500000

G01 Z-0.500000 F100.0(Penetrate)
G01 X6.855000 Y160.500000 Z-0.500000 F400.000000
G01 X6.855000 Y163.500000 Z-0.500000
G01 X12.945000 Y163.500000 Z-0.500000
G01 X12.945000 Y160.500000 Z-0.500000
G01 X19.255000 Y160.500000 Z-0.500000
G01 X19.255000 Y163.500000 Z-0.500000
G01 X25.345000 Y163.500000 Z-0.500000
G01 X25.345000 Y160.500000 Z-0.500000
G01 X31.655000 Y160.500000 Z-0.500000
G01 X31.655000 Y163.500000 Z-0.500000
G01 X37.745000 Y163.500000 Z-0.500000
G01 X37.745000 Y160.500000 Z-0.500000
G01 X44.055000 Y160.500000 Z-0.500000
G01 X44.055000 Y163.500000 Z-0.500000
G01 X50.145000 Y163.500000 Z-0.500000
G01 X50.145000 Y160.500000 Z-0.500000
G01 X53.500000 Y160.500000 Z-0.500000
G00 Z20.000000

(End cutting path id: path284)


(Start cutting path id: path254)
(Change tool to Cylindrical cutter)

G00 Z20.000000
G00 X57.500000 Y3.500000

G01 Z-0.500000 F100.0(Penetrate)
G01 X57.500000 Y6.945000 Z-0.500000 F400.000000
G01 X60.500000 Y6.945000 Z-0.500000
G01 X60.500000 Y12.855000 Z-0.500000
G01 X57.500000 Y12.855000 Z-0.500000
G01 X57.500000 Y19.345000 Z-0.500000
G01 X60.500000 Y19.345000 Z-0.500000
G01 X60.500000 Y25.255000 Z-0.500000
G01 X57.500000 Y25.255000 Z-0.500000
G01 X57.500000 Y31.745000 Z-0.500000
G01 X60.500000 Y31.745000 Z-0.500000
G01 X60.500000 Y37.655000 Z-0.500000
G01 X57.500000 Y37.655000 Z-0.500000
G01 X57.500000 Y44.145000 Z-0.500000
G01 X60.500000 Y44.145000 Z-0.500000
G01 X60.500000 Y50.055000 Z-0.500000
G01 X57.500000 Y50.055000 Z-0.500000
G01 X57.500000 Y53.500000 Z-0.500000
G00 Z20.000000

(End cutting path id: path254)


(Start cutting path id: path252)
(Change tool to Cylindrical cutter)

G00 Z20.000000
G00 X163.500000 Y3.500000

G01 Z-0.500000 F100.0(Penetrate)
G01 X157.100560 Y3.500000 Z-0.500000 F400.000000
G01 X157.100560 Y0.500000 Z-0.500000
G01 X151.010560 Y0.500000 Z-0.500000
G01 X151.010560 Y3.500000 Z-0.500000
G01 X144.656110 Y3.500000 Z-0.500000
G01 X144.656110 Y0.500000 Z-0.500000
G01 X138.566110 Y0.500000 Z-0.500000
G01 X138.566110 Y3.500000 Z-0.500000
G01 X132.211670 Y3.500000 Z-0.500000
G01 X132.211670 Y0.500000 Z-0.500000
G01 X126.121670 Y0.500000 Z-0.500000
G01 X126.121670 Y3.500000 Z-0.500000
G01 X119.767220 Y3.500000 Z-0.500000
G01 X119.767220 Y0.500000 Z-0.500000
G01 X113.677220 Y0.500000 Z-0.500000
G01 X113.677220 Y3.500000 Z-0.500000
G01 X107.322780 Y3.500000 Z-0.500000
G01 X107.322780 Y0.500000 Z-0.500000
G01 X101.232780 Y0.500000 Z-0.500000
G01 X101.232780 Y3.500000 Z-0.500000
G01 X94.878333 Y3.500000 Z-0.500000
G01 X94.878333 Y0.500000 Z-0.500000
G01 X88.788333 Y0.500000 Z-0.500000
G01 X88.788333 Y3.500000 Z-0.500000
G01 X82.433889 Y3.500000 Z-0.500000
G01 X82.433889 Y0.500000 Z-0.500000
G01 X76.343889 Y0.500000 Z-0.500000
G01 X76.343889 Y3.500000 Z-0.500000
G01 X69.989444 Y3.500000 Z-0.500000
G01 X69.989444 Y0.500000 Z-0.500000
G01 X63.899444 Y0.500000 Z-0.500000
G01 X63.899444 Y3.500000 Z-0.500000
G01 X57.500000 Y3.500000 Z-0.500000
G00 Z20.000000

(End cutting path id: path252)


(Start cutting path id: path250)
(Change tool to Cylindrical cutter)

G00 Z20.000000
G00 X163.500000 Y53.500000

G01 Z-0.500000 F100.0(Penetrate)
G01 X163.500000 Y50.055000 Z-0.500000 F400.000000
G01 X160.500000 Y50.055000 Z-0.500000
G01 X160.500000 Y44.145000 Z-0.500000
G01 X163.500000 Y44.145000 Z-0.500000
G01 X163.500000 Y37.655000 Z-0.500000
G01 X160.500000 Y37.655000 Z-0.500000
G01 X160.500000 Y31.745000 Z-0.500000
G01 X163.500000 Y31.745000 Z-0.500000
G01 X163.500000 Y25.255000 Z-0.500000
G01 X160.500000 Y25.255000 Z-0.500000
G01 X160.500000 Y19.345000 Z-0.500000
G01 X163.500000 Y19.345000 Z-0.500000
G01 X163.500000 Y12.855000 Z-0.500000
G01 X160.500000 Y12.855000 Z-0.500000
G01 X160.500000 Y6.945000 Z-0.500000
G01 X163.500000 Y6.945000 Z-0.500000
G01 X163.500000 Y3.500000 Z-0.500000
G00 Z20.000000

(End cutting path id: path250)


(Start cutting path id: path248)
(Change tool to Cylindrical cutter)

G00 Z20.000000
G00 X57.500000 Y53.500000

G01 Z-0.500000 F100.0(Penetrate)
G01 X63.899444 Y53.500000 Z-0.500000 F400.000000
G01 X63.899444 Y56.500000 Z-0.500000
G01 X69.989444 Y56.500000 Z-0.500000
G01 X69.989444 Y53.500000 Z-0.500000
G01 X76.343889 Y53.500000 Z-0.500000
G01 X76.343889 Y56.500000 Z-0.500000
G01 X82.433889 Y56.500000 Z-0.500000
G01 X82.433889 Y53.500000 Z-0.500000
G01 X88.788333 Y53.500000 Z-0.500000
G01 X88.788333 Y56.500000 Z-0.500000
G01 X94.878333 Y56.500000 Z-0.500000
G01 X94.878333 Y53.500000 Z-0.500000
G01 X101.232780 Y53.500000 Z-0.500000
G01 X101.232780 Y56.500000 Z-0.500000
G01 X107.322780 Y56.500000 Z-0.500000
G01 X107.322780 Y53.500000 Z-0.500000
G01 X113.677220 Y53.500000 Z-0.500000
G01 X113.677220 Y56.500000 Z-0.500000
G01 X119.767220 Y56.500000 Z-0.500000
G01 X119.767220 Y53.500000 Z-0.500000
G01 X126.121670 Y53.500000 Z-0.500000
G01 X126.121670 Y56.500000 Z-0.500000
G01 X132.211670 Y56.500000 Z-0.500000
G01 X132.211670 Y53.500000 Z-0.500000
G01 X138.566110 Y53.500000 Z-0.500000
G01 X138.566110 Y56.500000 Z-0.500000
G01 X144.656110 Y56.500000 Z-0.500000
G01 X144.656110 Y53.500000 Z-0.500000
G01 X151.010560 Y53.500000 Z-0.500000
G01 X151.010560 Y56.500000 Z-0.500000
G01 X157.100560 Y56.500000 Z-0.500000
G01 X157.100560 Y53.500000 Z-0.500000
G01 X163.500000 Y53.500000 Z-0.500000
G00 Z20.000000

(End cutting path id: path248)


(Start cutting path id: path123)
(Change tool to Cylindrical cutter)

G00 Z20.000000
G00 X57.500000 Y167.500000

G01 Z-0.500000 F100.0(Penetrate)
G01 X57.500000 Y170.945000 Z-0.500000 F400.000000
G01 X60.500000 Y170.945000 Z-0.500000
G01 X60.500000 Y176.855000 Z-0.500000
G01 X57.500000 Y176.855000 Z-0.500000
G01 X57.500000 Y183.345000 Z-0.500000
G01 X60.500000 Y183.345000 Z-0.500000
G01 X60.500000 Y189.255000 Z-0.500000
G01 X57.500000 Y189.255000 Z-0.500000
G01 X57.500000 Y195.745000 Z-0.500000
G01 X60.500000 Y195.745000 Z-0.500000
G01 X60.500000 Y201.655000 Z-0.500000
G01 X57.500000 Y201.655000 Z-0.500000
G01 X57.500000 Y208.145000 Z-0.500000
G01 X60.500000 Y208.145000 Z-0.500000
G01 X60.500000 Y214.055000 Z-0.500000
G01 X57.500000 Y214.055000 Z-0.500000
G01 X57.500000 Y217.500000 Z-0.500000
G00 Z20.000000

(End cutting path id: path123)


(Start cutting path id: path121)
(Change tool to Cylindrical cutter)

G00 Z20.000000
G00 X163.500000 Y167.500000

G01 Z-0.500000 F100.0(Penetrate)
G01 X157.100560 Y167.500000 Z-0.500000 F400.000000
G01 X157.100560 Y164.500000 Z-0.500000
G01 X151.010560 Y164.500000 Z-0.500000
G01 X151.010560 Y167.500000 Z-0.500000
G01 X144.656110 Y167.500000 Z-0.500000
G01 X144.656110 Y164.500000 Z-0.500000
G01 X138.566110 Y164.500000 Z-0.500000
G01 X138.566110 Y167.500000 Z-0.500000
G01 X132.211670 Y167.500000 Z-0.500000
G01 X132.211670 Y164.500000 Z-0.500000
G01 X126.121670 Y164.500000 Z-0.500000
G01 X126.121670 Y167.500000 Z-0.500000
G01 X119.767220 Y167.500000 Z-0.500000
G01 X119.767220 Y164.500000 Z-0.500000
G01 X113.677220 Y164.500000 Z-0.500000
G01 X113.677220 Y167.500000 Z-0.500000
G01 X107.322780 Y167.500000 Z-0.500000
G01 X107.322780 Y164.500000 Z-0.500000
G01 X101.232780 Y164.500000 Z-0.500000
G01 X101.232780 Y167.500000 Z-0.500000
G01 X94.878333 Y167.500000 Z-0.500000
G01 X94.878333 Y164.500000 Z-0.500000
G01 X88.788333 Y164.500000 Z-0.500000
G01 X88.788333 Y167.500000 Z-0.500000
G01 X82.433889 Y167.500000 Z-0.500000
G01 X82.433889 Y164.500000 Z-0.500000
G01 X76.343889 Y164.500000 Z-0.500000
G01 X76.343889 Y167.500000 Z-0.500000
G01 X69.989444 Y167.500000 Z-0.500000
G01 X69.989444 Y164.500000 Z-0.500000
G01 X63.899444 Y164.500000 Z-0.500000
G01 X63.899444 Y167.500000 Z-0.500000
G01 X57.500000 Y167.500000 Z-0.500000
G00 Z20.000000

(End cutting path id: path121)


(Start cutting path id: path119)
(Change tool to Cylindrical cutter)

G00 Z20.000000
G00 X163.500000 Y217.500000

G01 Z-0.500000 F100.0(Penetrate)
G01 X163.500000 Y214.055000 Z-0.500000 F400.000000
G01 X160.500000 Y214.055000 Z-0.500000
G01 X160.500000 Y208.145000 Z-0.500000
G01 X163.500000 Y208.145000 Z-0.500000
G01 X163.500000 Y201.655000 Z-0.500000
G01 X160.500000 Y201.655000 Z-0.500000
G01 X160.500000 Y195.745000 Z-0.500000
G01 X163.500000 Y195.745000 Z-0.500000
G01 X163.500000 Y189.255000 Z-0.500000
G01 X160.500000 Y189.255000 Z-0.500000
G01 X160.500000 Y183.345000 Z-0.500000
G01 X163.500000 Y183.345000 Z-0.500000
G01 X163.500000 Y176.855000 Z-0.500000
G01 X160.500000 Y176.855000 Z-0.500000
G01 X160.500000 Y170.945000 Z-0.500000
G01 X163.500000 Y170.945000 Z-0.500000
G01 X163.500000 Y167.500000 Z-0.500000
G00 Z20.000000

(End cutting path id: path119)


(Start cutting path id: path117)
(Change tool to Cylindrical cutter)

G00 Z20.000000
G00 X57.500000 Y217.500000

G01 Z-0.500000 F100.0(Penetrate)
G01 X63.899444 Y217.500000 Z-0.500000 F400.000000
G01 X63.899444 Y220.500000 Z-0.500000
G01 X69.989444 Y220.500000 Z-0.500000
G01 X69.989444 Y217.500000 Z-0.500000
G01 X76.343889 Y217.500000 Z-0.500000
G01 X76.343889 Y220.500000 Z-0.500000
G01 X82.433889 Y220.500000 Z-0.500000
G01 X82.433889 Y217.500000 Z-0.500000
G01 X88.788333 Y217.500000 Z-0.500000
G01 X88.788333 Y220.500000 Z-0.500000
G01 X94.878333 Y220.500000 Z-0.500000
G01 X94.878333 Y217.500000 Z-0.500000
G01 X101.232780 Y217.500000 Z-0.500000
G01 X101.232780 Y220.500000 Z-0.500000
G01 X107.322780 Y220.500000 Z-0.500000
G01 X107.322780 Y217.500000 Z-0.500000
G01 X113.677220 Y217.500000 Z-0.500000
G01 X113.677220 Y220.500000 Z-0.500000
G01 X119.767220 Y220.500000 Z-0.500000
G01 X119.767220 Y217.500000 Z-0.500000
G01 X126.121670 Y217.500000 Z-0.500000
G01 X126.121670 Y220.500000 Z-0.500000
G01 X132.211670 Y220.500000 Z-0.500000
G01 X132.211670 Y217.500000 Z-0.500000
G01 X138.566110 Y217.500000 Z-0.500000
G01 X138.566110 Y220.500000 Z-0.500000
G01 X144.656110 Y220.500000 Z-0.500000
G01 X144.656110 Y217.500000 Z-0.500000
G01 X151.010560 Y217.500000 Z-0.500000
G01 X151.010560 Y220.500000 Z-0.500000
G01 X157.100560 Y220.500000 Z-0.500000
G01 X157.100560 Y217.500000 Z-0.500000
G01 X163.500000 Y217.500000 Z-0.500000
G00 Z20.000000

(End cutting path id: path117)


(Start cutting path id: path115)
(Change tool to Cylindrical cutter)

G00 Z20.000000
G00 X221.500000 Y57.500000

G01 Z-0.500000 F100.0(Penetrate)
G01 X221.500000 Y63.989440 Z-0.500000 F400.000000
G01 X224.500000 Y63.989440 Z-0.500000
G01 X224.500000 Y69.899440 Z-0.500000
G01 X221.500000 Y69.899440 Z-0.500000
G01 X221.500000 Y76.433890 Z-0.500000
G01 X224.500000 Y76.433890 Z-0.500000
G01 X224.500000 Y82.343890 Z-0.500000
G01 X221.500000 Y82.343890 Z-0.500000
G01 X221.500000 Y88.878330 Z-0.500000
G01 X224.500000 Y88.878330 Z-0.500000
G01 X224.500000 Y94.788330 Z-0.500000
G01 X221.500000 Y94.788330 Z-0.500000
G01 X221.500000 Y101.322780 Z-0.500000
G01 X224.500000 Y101.322780 Z-0.500000
G01 X224.500000 Y107.232780 Z-0.500000
G01 X221.500000 Y107.232780 Z-0.500000
G01 X221.500000 Y113.767220 Z-0.500000
G01 X224.500000 Y113.767220 Z-0.500000
G01 X224.500000 Y119.677220 Z-0.500000
G01 X221.500000 Y119.677220 Z-0.500000
G01 X221.500000 Y126.211667 Z-0.500000
G01 X224.500000 Y126.211667 Z-0.500000
G01 X224.500000 Y132.121667 Z-0.500000
G01 X221.500000 Y132.121667 Z-0.500000
G01 X221.500000 Y138.656111 Z-0.500000
G01 X224.500000 Y138.656111 Z-0.500000
G01 X224.500000 Y144.566111 Z-0.500000
G01 X221.500000 Y144.566111 Z-0.500000
G01 X221.500000 Y151.100556 Z-0.500000
G01 X224.500000 Y151.100556 Z-0.500000
G01 X224.500000 Y157.010556 Z-0.500000
G01 X221.500000 Y157.010556 Z-0.500000
G01 X221.500000 Y163.500000 Z-0.500000
G00 Z20.000000

(End cutting path id: path115)


(Start cutting path id: path113)
(Change tool to Cylindrical cutter)

G00 Z20.000000
G00 X327.500000 Y57.500000

G01 Z-0.500000 F100.0(Penetrate)
G01 X321.010560 Y57.500000 Z-0.500000 F400.000000
G01 X321.010560 Y60.500000 Z-0.500000
G01 X315.100560 Y60.500000 Z-0.500000
G01 X315.100560 Y57.500000 Z-0.500000
G01 X308.566110 Y57.500000 Z-0.500000
G01 X308.566110 Y60.500000 Z-0.500000
G01 X302.656110 Y60.500000 Z-0.500000
G01 X302.656110 Y57.500000 Z-0.500000
G01 X296.121670 Y57.500000 Z-0.500000
G01 X296.121670 Y60.500000 Z-0.500000
G01 X290.211670 Y60.500000 Z-0.500000
G01 X290.211670 Y57.500000 Z-0.500000
G01 X283.677220 Y57.500000 Z-0.500000
G01 X283.677220 Y60.500000 Z-0.500000
G01 X277.767220 Y60.500000 Z-0.500000
G01 X277.767220 Y57.500000 Z-0.500000
G01 X271.232780 Y57.500000 Z-0.500000
G01 X271.232780 Y60.500000 Z-0.500000
G01 X265.322780 Y60.500000 Z-0.500000
G01 X265.322780 Y57.500000 Z-0.500000
G01 X258.788330 Y57.500000 Z-0.500000
G01 X258.788330 Y60.500000 Z-0.500000
G01 X252.878330 Y60.500000 Z-0.500000
G01 X252.878330 Y57.500000 Z-0.500000
G01 X246.343890 Y57.500000 Z-0.500000
G01 X246.343890 Y60.500000 Z-0.500000
G01 X240.433890 Y60.500000 Z-0.500000
G01 X240.433890 Y57.500000 Z-0.500000
G01 X233.899440 Y57.500000 Z-0.500000
G01 X233.899440 Y60.500000 Z-0.500000
G01 X227.989440 Y60.500000 Z-0.500000
G01 X227.989440 Y57.500000 Z-0.500000
G01 X221.500000 Y57.500000 Z-0.500000
G00 Z20.000000

(End cutting path id: path113)


(Start cutting path id: path111)
(Change tool to Cylindrical cutter)

G00 Z20.000000
G00 X327.500000 Y163.500000

G01 Z-0.500000 F100.0(Penetrate)
G01 X327.500000 Y157.010556 Z-0.500000 F400.000000
G01 X324.500000 Y157.010556 Z-0.500000
G01 X324.500000 Y151.100556 Z-0.500000
G01 X327.500000 Y151.100556 Z-0.500000
G01 X327.500000 Y144.566111 Z-0.500000
G01 X324.500000 Y144.566111 Z-0.500000
G01 X324.500000 Y138.656111 Z-0.500000
G01 X327.500000 Y138.656111 Z-0.500000
G01 X327.500000 Y132.121667 Z-0.500000
G01 X324.500000 Y132.121667 Z-0.500000
G01 X324.500000 Y126.211667 Z-0.500000
G01 X327.500000 Y126.211667 Z-0.500000
G01 X327.500000 Y119.677220 Z-0.500000
G01 X324.500000 Y119.677220 Z-0.500000
G01 X324.500000 Y113.767220 Z-0.500000
G01 X327.500000 Y113.767220 Z-0.500000
G01 X327.500000 Y107.232780 Z-0.500000
G01 X324.500000 Y107.232780 Z-0.500000
G01 X324.500000 Y101.322780 Z-0.500000
G01 X327.500000 Y101.322780 Z-0.500000
G01 X327.500000 Y94.788330 Z-0.500000
G01 X324.500000 Y94.788330 Z-0.500000
G01 X324.500000 Y88.878330 Z-0.500000
G01 X327.500000 Y88.878330 Z-0.500000
G01 X327.500000 Y82.343890 Z-0.500000
G01 X324.500000 Y82.343890 Z-0.500000
G01 X324.500000 Y76.433890 Z-0.500000
G01 X327.500000 Y76.433890 Z-0.500000
G01 X327.500000 Y69.899440 Z-0.500000
G01 X324.500000 Y69.899440 Z-0.500000
G01 X324.500000 Y63.989440 Z-0.500000
G01 X327.500000 Y63.989440 Z-0.500000
G01 X327.500000 Y57.500000 Z-0.500000
G00 Z20.000000

(End cutting path id: path111)


(Start cutting path id: path109)
(Change tool to Cylindrical cutter)

G00 Z20.000000
G00 X221.500000 Y163.500000

G01 Z-0.500000 F100.0(Penetrate)
G01 X227.989440 Y163.500000 Z-0.500000 F400.000000
G01 X227.989440 Y160.500000 Z-0.500000
G01 X233.899440 Y160.500000 Z-0.500000
G01 X233.899440 Y163.500000 Z-0.500000
G01 X240.433890 Y163.500000 Z-0.500000
G01 X240.433890 Y160.500000 Z-0.500000
G01 X246.343890 Y160.500000 Z-0.500000
G01 X246.343890 Y163.500000 Z-0.500000
G01 X252.878330 Y163.500000 Z-0.500000
G01 X252.878330 Y160.500000 Z-0.500000
G01 X258.788330 Y160.500000 Z-0.500000
G01 X258.788330 Y163.500000 Z-0.500000
G01 X265.322780 Y163.500000 Z-0.500000
G01 X265.322780 Y160.500000 Z-0.500000
G01 X271.232780 Y160.500000 Z-0.500000
G01 X271.232780 Y163.500000 Z-0.500000
G01 X277.767220 Y163.500000 Z-0.500000
G01 X277.767220 Y160.500000 Z-0.500000
G01 X283.677220 Y160.500000 Z-0.500000
G01 X283.677220 Y163.500000 Z-0.500000
G01 X290.211670 Y163.500000 Z-0.500000
G01 X290.211670 Y160.500000 Z-0.500000
G01 X296.121670 Y160.500000 Z-0.500000
G01 X296.121670 Y163.500000 Z-0.500000
G01 X302.656110 Y163.500000 Z-0.500000
G01 X302.656110 Y160.500000 Z-0.500000
G01 X308.566110 Y160.500000 Z-0.500000
G01 X308.566110 Y163.500000 Z-0.500000
G01 X315.100560 Y163.500000 Z-0.500000
G01 X315.100560 Y160.500000 Z-0.500000
G01 X321.010560 Y160.500000 Z-0.500000
G01 X321.010560 Y163.500000 Z-0.500000
G01 X327.500000 Y163.500000 Z-0.500000
G00 Z20.000000

(End cutting path id: path109)


(Start cutting path id: path107)
(Change tool to Cylindrical cutter)

G00 Z20.000000
G00 X167.500000 Y60.500000

G01 Z-0.500000 F100.0(Penetrate)
G01 X167.500000 Y63.899440 Z-0.500000 F400.000000
G01 X164.500000 Y63.899440 Z-0.500000
G01 X164.500000 Y69.989440 Z-0.500000
G01 X167.500000 Y69.989440 Z-0.500000
G01 X167.500000 Y76.343890 Z-0.500000
G01 X164.500000 Y76.343890 Z-0.500000
G01 X164.500000 Y82.433890 Z-0.500000
G01 X167.500000 Y82.433890 Z-0.500000
G01 X167.500000 Y88.788330 Z-0.500000
G01 X164.500000 Y88.788330 Z-0.500000
G01 X164.500000 Y94.878330 Z-0.500000
G01 X167.500000 Y94.878330 Z-0.500000
G01 X167.500000 Y101.232780 Z-0.500000
G01 X164.500000 Y101.232780 Z-0.500000
G01 X164.500000 Y107.322780 Z-0.500000
G01 X167.500000 Y107.322780 Z-0.500000
G01 X167.500000 Y113.677220 Z-0.500000
G01 X164.500000 Y113.677220 Z-0.500000
G01 X164.500000 Y119.767220 Z-0.500000
G01 X167.500000 Y119.767220 Z-0.500000
G01 X167.500000 Y126.121667 Z-0.500000
G01 X164.500000 Y126.121667 Z-0.500000
G01 X164.500000 Y132.211667 Z-0.500000
G01 X167.500000 Y132.211667 Z-0.500000
G01 X167.500000 Y138.566111 Z-0.500000
G01 X164.500000 Y138.566111 Z-0.500000
G01 X164.500000 Y144.656111 Z-0.500000
G01 X167.500000 Y144.656111 Z-0.500000
G01 X167.500000 Y151.010556 Z-0.500000
G01 X164.500000 Y151.010556 Z-0.500000
G01 X164.500000 Y157.100556 Z-0.500000
G01 X167.500000 Y157.100556 Z-0.500000
G01 X167.500000 Y160.500000 Z-0.500000
G00 Z20.000000

(End cutting path id: path107)


(Start cutting path id: path105)
(Change tool to Cylindrical cutter)

G00 Z20.000000
G00 X217.500000 Y60.500000

G01 Z-0.500000 F100.0(Penetrate)
G01 X214.145000 Y60.500000 Z-0.500000 F400.000000
G01 X214.145000 Y57.500000 Z-0.500000
G01 X208.055000 Y57.500000 Z-0.500000
G01 X208.055000 Y60.500000 Z-0.500000
G01 X201.745000 Y60.500000 Z-0.500000
G01 X201.745000 Y57.500000 Z-0.500000
G01 X195.655000 Y57.500000 Z-0.500000
G01 X195.655000 Y60.500000 Z-0.500000
G01 X189.345000 Y60.500000 Z-0.500000
G01 X189.345000 Y57.500000 Z-0.500000
G01 X183.255000 Y57.500000 Z-0.500000
G01 X183.255000 Y60.500000 Z-0.500000
G01 X176.945000 Y60.500000 Z-0.500000
G01 X176.945000 Y57.500000 Z-0.500000
G01 X170.855000 Y57.500000 Z-0.500000
G01 X170.855000 Y60.500000 Z-0.500000
G01 X167.500000 Y60.500000 Z-0.500000
G00 Z20.000000

(End cutting path id: path105)


(Start cutting path id: path103)
(Change tool to Cylindrical cutter)

G00 Z20.000000
G00 X217.500000 Y160.500000

G01 Z-0.500000 F100.0(Penetrate)
G01 X217.500000 Y157.100556 Z-0.500000 F400.000000
G01 X220.500000 Y157.100556 Z-0.500000
G01 X220.500000 Y151.010556 Z-0.500000
G01 X217.500000 Y151.010556 Z-0.500000
G01 X217.500000 Y144.656111 Z-0.500000
G01 X220.500000 Y144.656111 Z-0.500000
G01 X220.500000 Y138.566111 Z-0.500000
G01 X217.500000 Y138.566111 Z-0.500000
G01 X217.500000 Y132.211667 Z-0.500000
G01 X220.500000 Y132.211667 Z-0.500000
G01 X220.500000 Y126.121667 Z-0.500000
G01 X217.500000 Y126.121667 Z-0.500000
G01 X217.500000 Y119.767220 Z-0.500000
G01 X220.500000 Y119.767220 Z-0.500000
G01 X220.500000 Y113.677220 Z-0.500000
G01 X217.500000 Y113.677220 Z-0.500000
G01 X217.500000 Y107.322780 Z-0.500000
G01 X220.500000 Y107.322780 Z-0.500000
G01 X220.500000 Y101.232780 Z-0.500000
G01 X217.500000 Y101.232780 Z-0.500000
G01 X217.500000 Y94.878330 Z-0.500000
G01 X220.500000 Y94.878330 Z-0.500000
G01 X220.500000 Y88.788330 Z-0.500000
G01 X217.500000 Y88.788330 Z-0.500000
G01 X217.500000 Y82.433890 Z-0.500000
G01 X220.500000 Y82.433890 Z-0.500000
G01 X220.500000 Y76.343890 Z-0.500000
G01 X217.500000 Y76.343890 Z-0.500000
G01 X217.500000 Y69.989440 Z-0.500000
G01 X220.500000 Y69.989440 Z-0.500000
G01 X220.500000 Y63.899440 Z-0.500000
G01 X217.500000 Y63.899440 Z-0.500000
G01 X217.500000 Y60.500000 Z-0.500000
G00 Z20.000000

(End cutting path id: path103)


(Start cutting path id: path101)
(Change tool to Cylindrical cutter)

G00 Z20.000000
G00 X167.500000 Y160.500000

G01 Z-0.500000 F100.0(Penetrate)
G01 X170.855000 Y160.500000 Z-0.500000 F400.000000
G01 X170.855000 Y163.500000 Z-0.500000
G01 X176.945000 Y163.500000 Z-0.500000
G01 X176.945000 Y160.500000 Z-0.500000
G01 X183.255000 Y160.500000 Z-0.500000
G01 X183.255000 Y163.500000 Z-0.500000
G01 X189.345000 Y163.500000 Z-0.500000
G01 X189.345000 Y160.500000 Z-0.500000
G01 X195.655000 Y160.500000 Z-0.500000
G01 X195.655000 Y163.500000 Z-0.500000
G01 X201.745000 Y163.500000 Z-0.500000
G01 X201.745000 Y160.500000 Z-0.500000
G01 X208.055000 Y160.500000 Z-0.500000
G01 X208.055000 Y163.500000 Z-0.500000
G01 X214.145000 Y163.500000 Z-0.500000
G01 X214.145000 Y160.500000 Z-0.500000
G01 X217.500000 Y160.500000 Z-0.500000
G00 Z20.000000

(End cutting path id: path101)


(Start cutting path id: path99)
(Change tool to Cylindrical cutter)

G00 Z20.000000
G00 X57.500000 Y57.500000

G01 Z-0.500000 F100.0(Penetrate)
G01 X57.500000 Y63.989440 Z-0.500000 F400.000000
G01 X60.500000 Y63.989440 Z-0.500000
G01 X60.500000 Y69.899440 Z-0.500000
G01 X57.500000 Y69.899440 Z-0.500000
G01 X57.500000 Y76.433890 Z-0.500000
G01 X60.500000 Y76.433890 Z-0.500000
G01 X60.500000 Y82.343890 Z-0.500000
G01 X57.500000 Y82.343890 Z-0.500000
G01 X57.500000 Y88.878330 Z-0.500000
G01 X60.500000 Y88.878330 Z-0.500000
G01 X60.500000 Y94.788330 Z-0.500000
G01 X57.500000 Y94.788330 Z-0.500000
G01 X57.500000 Y101.322780 Z-0.500000
G01 X60.500000 Y101.322780 Z-0.500000
G01 X60.500000 Y107.232780 Z-0.500000
G01 X57.500000 Y107.232780 Z-0.500000
G01 X57.500000 Y113.767220 Z-0.500000
G01 X60.500000 Y113.767220 Z-0.500000
G01 X60.500000 Y119.677220 Z-0.500000
G01 X57.500000 Y119.677220 Z-0.500000
G01 X57.500000 Y126.211667 Z-0.500000
G01 X60.500000 Y126.211667 Z-0.500000
G01 X60.500000 Y132.121667 Z-0.500000
G01 X57.500000 Y132.121667 Z-0.500000
G01 X57.500000 Y138.656111 Z-0.500000
G01 X60.500000 Y138.656111 Z-0.500000
G01 X60.500000 Y144.566111 Z-0.500000
G01 X57.500000 Y144.566111 Z-0.500000
G01 X57.500000 Y151.100556 Z-0.500000
G01 X60.500000 Y151.100556 Z-0.500000
G01 X60.500000 Y157.010556 Z-0.500000
G01 X57.500000 Y157.010556 Z-0.500000
G01 X57.500000 Y163.500000 Z-0.500000
G00 Z20.000000

(End cutting path id: path99)


(Start cutting path id: path97)
(Change tool to Cylindrical cutter)

G00 Z20.000000
G00 X163.500000 Y57.500000

G01 Z-0.500000 F100.0(Penetrate)
G01 X157.010560 Y57.500000 Z-0.500000 F400.000000
G01 X157.010560 Y60.500000 Z-0.500000
G01 X151.100560 Y60.500000 Z-0.500000
G01 X151.100560 Y57.500000 Z-0.500000
G01 X144.566110 Y57.500000 Z-0.500000
G01 X144.566110 Y60.500000 Z-0.500000
G01 X138.656110 Y60.500000 Z-0.500000
G01 X138.656110 Y57.500000 Z-0.500000
G01 X132.121670 Y57.500000 Z-0.500000
G01 X132.121670 Y60.500000 Z-0.500000
G01 X126.211670 Y60.500000 Z-0.500000
G01 X126.211670 Y57.500000 Z-0.500000
G01 X119.677220 Y57.500000 Z-0.500000
G01 X119.677220 Y60.500000 Z-0.500000
G01 X113.767220 Y60.500000 Z-0.500000
G01 X113.767220 Y57.500000 Z-0.500000
G01 X107.232780 Y57.500000 Z-0.500000
G01 X107.232780 Y60.500000 Z-0.500000
G01 X101.322780 Y60.500000 Z-0.500000
G01 X101.322780 Y57.500000 Z-0.500000
G01 X94.788333 Y57.500000 Z-0.500000
G01 X94.788333 Y60.500000 Z-0.500000
G01 X88.878333 Y60.500000 Z-0.500000
G01 X88.878333 Y57.500000 Z-0.500000
G01 X82.343889 Y57.500000 Z-0.500000
G01 X82.343889 Y60.500000 Z-0.500000
G01 X76.433889 Y60.500000 Z-0.500000
G01 X76.433889 Y57.500000 Z-0.500000
G01 X69.899444 Y57.500000 Z-0.500000
G01 X69.899444 Y60.500000 Z-0.500000
G01 X63.989444 Y60.500000 Z-0.500000
G01 X63.989444 Y57.500000 Z-0.500000
G01 X57.500000 Y57.500000 Z-0.500000
G00 Z20.000000

(End cutting path id: path97)


(Start cutting path id: path95)
(Change tool to Cylindrical cutter)

G00 Z20.000000
G00 X163.500000 Y163.500000

G01 Z-0.500000 F100.0(Penetrate)
G01 X163.500000 Y157.010556 Z-0.500000 F400.000000
G01 X160.500000 Y157.010556 Z-0.500000
G01 X160.500000 Y151.100556 Z-0.500000
G01 X163.500000 Y151.100556 Z-0.500000
G01 X163.500000 Y144.566111 Z-0.500000
G01 X160.500000 Y144.566111 Z-0.500000
G01 X160.500000 Y138.656111 Z-0.500000
G01 X163.500000 Y138.656111 Z-0.500000
G01 X163.500000 Y132.121667 Z-0.500000
G01 X160.500000 Y132.121667 Z-0.500000
G01 X160.500000 Y126.211667 Z-0.500000
G01 X163.500000 Y126.211667 Z-0.500000
G01 X163.500000 Y119.677220 Z-0.500000
G01 X160.500000 Y119.677220 Z-0.500000
G01 X160.500000 Y113.767220 Z-0.500000
G01 X163.500000 Y113.767220 Z-0.500000
G01 X163.500000 Y107.232780 Z-0.500000
G01 X160.500000 Y107.232780 Z-0.500000
G01 X160.500000 Y101.322780 Z-0.500000
G01 X163.500000 Y101.322780 Z-0.500000
G01 X163.500000 Y94.788330 Z-0.500000
G01 X160.500000 Y94.788330 Z-0.500000
G01 X160.500000 Y88.878330 Z-0.500000
G01 X163.500000 Y88.878330 Z-0.500000
G01 X163.500000 Y82.343890 Z-0.500000
G01 X160.500000 Y82.343890 Z-0.500000
G01 X160.500000 Y76.433890 Z-0.500000
G01 X163.500000 Y76.433890 Z-0.500000
G01 X163.500000 Y69.899440 Z-0.500000
G01 X160.500000 Y69.899440 Z-0.500000
G01 X160.500000 Y63.989440 Z-0.500000
G01 X163.500000 Y63.989440 Z-0.500000
G01 X163.500000 Y57.500000 Z-0.500000
G00 Z20.000000

(End cutting path id: path95)


(Start cutting path id: path93)
(Change tool to Cylindrical cutter)

G00 Z20.000000
G00 X57.500000 Y163.500000

G01 Z-0.500000 F100.0(Penetrate)
G01 X63.989444 Y163.500000 Z-0.500000 F400.000000
G01 X63.989444 Y160.500000 Z-0.500000
G01 X69.899444 Y160.500000 Z-0.500000
G01 X69.899444 Y163.500000 Z-0.500000
G01 X76.433889 Y163.500000 Z-0.500000
G01 X76.433889 Y160.500000 Z-0.500000
G01 X82.343889 Y160.500000 Z-0.500000
G01 X82.343889 Y163.500000 Z-0.500000
G01 X88.878333 Y163.500000 Z-0.500000
G01 X88.878333 Y160.500000 Z-0.500000
G01 X94.788333 Y160.500000 Z-0.500000
G01 X94.788333 Y163.500000 Z-0.500000
G01 X101.322780 Y163.500000 Z-0.500000
G01 X101.322780 Y160.500000 Z-0.500000
G01 X107.232780 Y160.500000 Z-0.500000
G01 X107.232780 Y163.500000 Z-0.500000
G01 X113.767220 Y163.500000 Z-0.500000
G01 X113.767220 Y160.500000 Z-0.500000
G01 X119.677220 Y160.500000 Z-0.500000
G01 X119.677220 Y163.500000 Z-0.500000
G01 X126.211670 Y163.500000 Z-0.500000
G01 X126.211670 Y160.500000 Z-0.500000
G01 X132.121670 Y160.500000 Z-0.500000
G01 X132.121670 Y163.500000 Z-0.500000
G01 X138.656110 Y163.500000 Z-0.500000
G01 X138.656110 Y160.500000 Z-0.500000
G01 X144.566110 Y160.500000 Z-0.500000
G01 X144.566110 Y163.500000 Z-0.500000
G01 X151.100560 Y163.500000 Z-0.500000
G01 X151.100560 Y160.500000 Z-0.500000
G01 X157.010560 Y160.500000 Z-0.500000
G01 X157.010560 Y163.500000 Z-0.500000
G01 X163.500000 Y163.500000 Z-0.500000
G00 Z20.000000

(End cutting path id: path93)


(Start cutting path id: path55)
(Change tool to Cylindrical cutter)

G00 Z20.000000
G00 X3.500000 Y60.500000

G01 Z-0.500000 F100.0(Penetrate)
G01 X3.500000 Y63.899440 Z-0.500000 F400.000000
G01 X0.500000 Y63.899440 Z-0.500000
G01 X0.500000 Y69.989440 Z-0.500000
G01 X3.500000 Y69.989440 Z-0.500000
G01 X3.500000 Y76.343890 Z-0.500000
G01 X0.500000 Y76.343890 Z-0.500000
G01 X0.500000 Y82.433890 Z-0.500000
G01 X3.500000 Y82.433890 Z-0.500000
G01 X3.500000 Y88.788330 Z-0.500000
G01 X0.500000 Y88.788330 Z-0.500000
G01 X0.500000 Y94.878330 Z-0.500000
G01 X3.500000 Y94.878330 Z-0.500000
G01 X3.500000 Y101.232780 Z-0.500000
G01 X0.500000 Y101.232780 Z-0.500000
G01 X0.500000 Y107.322780 Z-0.500000
G01 X3.500000 Y107.322780 Z-0.500000
G01 X3.500000 Y113.677220 Z-0.500000
G01 X0.500000 Y113.677220 Z-0.500000
G01 X0.500000 Y119.767220 Z-0.500000
G01 X3.500000 Y119.767220 Z-0.500000
G01 X3.500000 Y126.121667 Z-0.500000
G01 X0.500000 Y126.121667 Z-0.500000
G01 X0.500000 Y132.211667 Z-0.500000
G01 X3.500000 Y132.211667 Z-0.500000
G01 X3.500000 Y138.566111 Z-0.500000
G01 X0.500000 Y138.566111 Z-0.500000
G01 X0.500000 Y144.656111 Z-0.500000
G01 X3.500000 Y144.656111 Z-0.500000
G01 X3.500000 Y151.010556 Z-0.500000
G01 X0.500000 Y151.010556 Z-0.500000
G01 X0.500000 Y157.100556 Z-0.500000
G01 X3.500000 Y157.100556 Z-0.500000
G01 X3.500000 Y160.500000 Z-0.500000
G00 Z20.000000

(End cutting path id: path55)


(Start cutting path id: path53)
(Change tool to Cylindrical cutter)

G00 Z20.000000
G00 X53.500000 Y60.500000

G01 Z-0.500000 F100.0(Penetrate)
G01 X50.145000 Y60.500000 Z-0.500000 F400.000000
G01 X50.145000 Y57.500000 Z-0.500000
G01 X44.055000 Y57.500000 Z-0.500000
G01 X44.055000 Y60.500000 Z-0.500000
G01 X37.745000 Y60.500000 Z-0.500000
G01 X37.745000 Y57.500000 Z-0.500000
G01 X31.655000 Y57.500000 Z-0.500000
G01 X31.655000 Y60.500000 Z-0.500000
G01 X25.345000 Y60.500000 Z-0.500000
G01 X25.345000 Y57.500000 Z-0.500000
G01 X19.255000 Y57.500000 Z-0.500000
G01 X19.255000 Y60.500000 Z-0.500000
G01 X12.945000 Y60.500000 Z-0.500000
G01 X12.945000 Y57.500000 Z-0.500000
G01 X6.855000 Y57.500000 Z-0.500000
G01 X6.855000 Y60.500000 Z-0.500000
G01 X3.500000 Y60.500000 Z-0.500000
G00 Z20.000000

(End cutting path id: path53)


(Start cutting path id: path51)
(Change tool to Cylindrical cutter)

G00 Z20.000000
G00 X53.500000 Y160.500000

G01 Z-0.500000 F100.0(Penetrate)
G01 X53.500000 Y157.100556 Z-0.500000 F400.000000
G01 X56.500000 Y157.100556 Z-0.500000
G01 X56.500000 Y151.010556 Z-0.500000
G01 X53.500000 Y151.010556 Z-0.500000
G01 X53.500000 Y144.656111 Z-0.500000
G01 X56.500000 Y144.656111 Z-0.500000
G01 X56.500000 Y138.566111 Z-0.500000
G01 X53.500000 Y138.566111 Z-0.500000
G01 X53.500000 Y132.211667 Z-0.500000
G01 X56.500000 Y132.211667 Z-0.500000
G01 X56.500000 Y126.121667 Z-0.500000
G01 X53.500000 Y126.121667 Z-0.500000
G01 X53.500000 Y119.767220 Z-0.500000
G01 X56.500000 Y119.767220 Z-0.500000
G01 X56.500000 Y113.677220 Z-0.500000
G01 X53.500000 Y113.677220 Z-0.500000
G01 X53.500000 Y107.322780 Z-0.500000
G01 X56.500000 Y107.322780 Z-0.500000
G01 X56.500000 Y101.232780 Z-0.500000
G01 X53.500000 Y101.232780 Z-0.500000
G01 X53.500000 Y94.878330 Z-0.500000
G01 X56.500000 Y94.878330 Z-0.500000
G01 X56.500000 Y88.788330 Z-0.500000
G01 X53.500000 Y88.788330 Z-0.500000
G01 X53.500000 Y82.433890 Z-0.500000
G01 X56.500000 Y82.433890 Z-0.500000
G01 X56.500000 Y76.343890 Z-0.500000
G01 X53.500000 Y76.343890 Z-0.500000
G01 X53.500000 Y69.989440 Z-0.500000
G01 X56.500000 Y69.989440 Z-0.500000
G01 X56.500000 Y63.899440 Z-0.500000
G01 X53.500000 Y63.899440 Z-0.500000
G01 X53.500000 Y60.500000 Z-0.500000
G00 Z20.000000

(End cutting path id: path51)


(Start cutting path id: path49)
(Change tool to Cylindrical cutter)

G00 Z20.000000
G00 X3.500000 Y160.500000

G01 Z-0.500000 F100.0(Penetrate)
G01 X6.855000 Y160.500000 Z-0.500000 F400.000000
G01 X6.855000 Y163.500000 Z-0.500000
G01 X12.945000 Y163.500000 Z-0.500000
G01 X12.945000 Y160.500000 Z-0.500000
G01 X19.255000 Y160.500000 Z-0.500000
G01 X19.255000 Y163.500000 Z-0.500000
G01 X25.345000 Y163.500000 Z-0.500000
G01 X25.345000 Y160.500000 Z-0.500000
G01 X31.655000 Y160.500000 Z-0.500000
G01 X31.655000 Y163.500000 Z-0.500000
G01 X37.745000 Y163.500000 Z-0.500000
G01 X37.745000 Y160.500000 Z-0.500000
G01 X44.055000 Y160.500000 Z-0.500000
G01 X44.055000 Y163.500000 Z-0.500000
G01 X50.145000 Y163.500000 Z-0.500000
G01 X50.145000 Y160.500000 Z-0.500000
G01 X53.500000 Y160.500000 Z-0.500000
G00 Z20.000000

(End cutting path id: path49)


(Start cutting path id: path19)
(Change tool to Cylindrical cutter)

G00 Z20.000000
G00 X57.500000 Y3.500000

G01 Z-0.500000 F100.0(Penetrate)
G01 X57.500000 Y6.945000 Z-0.500000 F400.000000
G01 X60.500000 Y6.945000 Z-0.500000
G01 X60.500000 Y12.855000 Z-0.500000
G01 X57.500000 Y12.855000 Z-0.500000
G01 X57.500000 Y19.345000 Z-0.500000
G01 X60.500000 Y19.345000 Z-0.500000
G01 X60.500000 Y25.255000 Z-0.500000
G01 X57.500000 Y25.255000 Z-0.500000
G01 X57.500000 Y31.745000 Z-0.500000
G01 X60.500000 Y31.745000 Z-0.500000
G01 X60.500000 Y37.655000 Z-0.500000
G01 X57.500000 Y37.655000 Z-0.500000
G01 X57.500000 Y44.145000 Z-0.500000
G01 X60.500000 Y44.145000 Z-0.500000
G01 X60.500000 Y50.055000 Z-0.500000
G01 X57.500000 Y50.055000 Z-0.500000
G01 X57.500000 Y53.500000 Z-0.500000
G00 Z20.000000

(End cutting path id: path19)


(Start cutting path id: path17)
(Change tool to Cylindrical cutter)

G00 Z20.000000
G00 X163.500000 Y3.500000

G01 Z-0.500000 F100.0(Penetrate)
G01 X157.100560 Y3.500000 Z-0.500000 F400.000000
G01 X157.100560 Y0.500000 Z-0.500000
G01 X151.010560 Y0.500000 Z-0.500000
G01 X151.010560 Y3.500000 Z-0.500000
G01 X144.656110 Y3.500000 Z-0.500000
G01 X144.656110 Y0.500000 Z-0.500000
G01 X138.566110 Y0.500000 Z-0.500000
G01 X138.566110 Y3.500000 Z-0.500000
G01 X132.211670 Y3.500000 Z-0.500000
G01 X132.211670 Y0.500000 Z-0.500000
G01 X126.121670 Y0.500000 Z-0.500000
G01 X126.121670 Y3.500000 Z-0.500000
G01 X119.767220 Y3.500000 Z-0.500000
G01 X119.767220 Y0.500000 Z-0.500000
G01 X113.677220 Y0.500000 Z-0.500000
G01 X113.677220 Y3.500000 Z-0.500000
G01 X107.322780 Y3.500000 Z-0.500000
G01 X107.322780 Y0.500000 Z-0.500000
G01 X101.232780 Y0.500000 Z-0.500000
G01 X101.232780 Y3.500000 Z-0.500000
G01 X94.878333 Y3.500000 Z-0.500000
G01 X94.878333 Y0.500000 Z-0.500000
G01 X88.788333 Y0.500000 Z-0.500000
G01 X88.788333 Y3.500000 Z-0.500000
G01 X82.433889 Y3.500000 Z-0.500000
G01 X82.433889 Y0.500000 Z-0.500000
G01 X76.343889 Y0.500000 Z-0.500000
G01 X76.343889 Y3.500000 Z-0.500000
G01 X69.989444 Y3.500000 Z-0.500000
G01 X69.989444 Y0.500000 Z-0.500000
G01 X63.899444 Y0.500000 Z-0.500000
G01 X63.899444 Y3.500000 Z-0.500000
G01 X57.500000 Y3.500000 Z-0.500000
G00 Z20.000000

(End cutting path id: path17)


(Start cutting path id: path15)
(Change tool to Cylindrical cutter)

G00 Z20.000000
G00 X163.500000 Y53.500000

G01 Z-0.500000 F100.0(Penetrate)
G01 X163.500000 Y50.055000 Z-0.500000 F400.000000
G01 X160.500000 Y50.055000 Z-0.500000
G01 X160.500000 Y44.145000 Z-0.500000
G01 X163.500000 Y44.145000 Z-0.500000
G01 X163.500000 Y37.655000 Z-0.500000
G01 X160.500000 Y37.655000 Z-0.500000
G01 X160.500000 Y31.745000 Z-0.500000
G01 X163.500000 Y31.745000 Z-0.500000
G01 X163.500000 Y25.255000 Z-0.500000
G01 X160.500000 Y25.255000 Z-0.500000
G01 X160.500000 Y19.345000 Z-0.500000
G01 X163.500000 Y19.345000 Z-0.500000
G01 X163.500000 Y12.855000 Z-0.500000
G01 X160.500000 Y12.855000 Z-0.500000
G01 X160.500000 Y6.945000 Z-0.500000
G01 X163.500000 Y6.945000 Z-0.500000
G01 X163.500000 Y3.500000 Z-0.500000
G00 Z20.000000

(End cutting path id: path15)


(Start cutting path id: path13)
(Change tool to Cylindrical cutter)

G00 Z20.000000
G00 X57.500000 Y53.500000

G01 Z-0.500000 F100.0(Penetrate)
G01 X63.899444 Y53.500000 Z-0.500000 F400.000000
G01 X63.899444 Y56.500000 Z-0.500000
G01 X69.989444 Y56.500000 Z-0.500000
G01 X69.989444 Y53.500000 Z-0.500000
G01 X76.343889 Y53.500000 Z-0.500000
G01 X76.343889 Y56.500000 Z-0.500000
G01 X82.433889 Y56.500000 Z-0.500000
G01 X82.433889 Y53.500000 Z-0.500000
G01 X88.788333 Y53.500000 Z-0.500000
G01 X88.788333 Y56.500000 Z-0.500000
G01 X94.878333 Y56.500000 Z-0.500000
G01 X94.878333 Y53.500000 Z-0.500000
G01 X101.232780 Y53.500000 Z-0.500000
G01 X101.232780 Y56.500000 Z-0.500000
G01 X107.322780 Y56.500000 Z-0.500000
G01 X107.322780 Y53.500000 Z-0.500000
G01 X113.677220 Y53.500000 Z-0.500000
G01 X113.677220 Y56.500000 Z-0.500000
G01 X119.767220 Y56.500000 Z-0.500000
G01 X119.767220 Y53.500000 Z-0.500000
G01 X126.121670 Y53.500000 Z-0.500000
G01 X126.121670 Y56.500000 Z-0.500000
G01 X132.211670 Y56.500000 Z-0.500000
G01 X132.211670 Y53.500000 Z-0.500000
G01 X138.566110 Y53.500000 Z-0.500000
G01 X138.566110 Y56.500000 Z-0.500000
G01 X144.656110 Y56.500000 Z-0.500000
G01 X144.656110 Y53.500000 Z-0.500000
G01 X151.010560 Y53.500000 Z-0.500000
G01 X151.010560 Y56.500000 Z-0.500000
G01 X157.100560 Y56.500000 Z-0.500000
G01 X157.100560 Y53.500000 Z-0.500000
G01 X163.500000 Y53.500000 Z-0.500000
G00 Z20.000000

(End cutting path id: path13)


(Footer)
M5
G00 X0.0000 Y0.0000
M2
(Using default footer. To add your own footer create file "footer" in the output dir.)
(end)
%