%
(Header)
(Generated by gcodetools from Inkscape.)
(Using default header. To add your own header create file "header" in the output dir.)
M3
(Header end.)
G21 (All units in mm)

(Start cutting path id: path10)
(Change tool to Cylindrical cutter)

G00 Z5.000000
G00 X61.971989 Y31.904164

G01 Z-0.125000 F100.0(Penetrate)
G02 X59.622407 Y19.854594 Z-0.125000 I-32.072211 J-0.000003 F200.000000
G02 X52.969625 Y9.698062 Z-0.125000 I-29.072210 J11.785887
G02 X42.966380 Y2.880062 Z-0.125000 I-22.002468 J21.534329
G02 X31.235994 Y0.499994 Z-0.125000 I-11.730385 J27.717109
G02 X19.505609 Y2.880062 Z-0.125000 I-0.000000 J30.097176
G02 X9.502363 Y9.698063 Z-0.125000 I11.999222 J28.352329
G02 X2.849582 Y19.854594 Z-0.125000 I22.419429 J21.942418
G02 X0.500000 Y31.904164 Z-0.125000 I29.722629 J12.049567
G02 X2.849582 Y43.953734 Z-0.125000 I32.072211 J0.000003
G02 X9.502363 Y54.110265 Z-0.125000 I29.072210 J-11.785886
G02 X19.505609 Y60.928266 Z-0.125000 I22.002468 J-21.534329
G02 X31.235994 Y63.308334 Z-0.125000 I11.730385 J-27.717108
G02 X42.966380 Y60.928266 Z-0.125000 I0.000001 J-30.097176
G02 X52.969625 Y54.110266 Z-0.125000 I-11.999222 J-28.352329
G02 X59.622407 Y43.953734 Z-0.125000 I-22.419428 J-21.942418
G02 X61.971989 Y31.904164 Z-0.125000 I-29.722629 J-12.049567
G01 X61.971989 Y31.904164 Z-0.125000
G00 Z5.000000

(End cutting path id: path10)


(Footer)
M5
G00 X0.0000 Y0.0000
M2
(Using default footer. To add your own footer create file "footer" in the output dir.)
(end)
%